ShruthikaS1/Robot-Gello/csv/output13.csv
shoulder_pan_angle,shoulder_lift_angle,elbow_angle,wrist1_angle,wrist2_angle,wrist3_angle,end_eff_x,end_eff_y,end_eff_z,end_eff_roll,end_eff_pitch,end_eff_yaw,end_eff_w,end_eff_xq,end_eff_yq,end_eff_zq
-1.4956391100494923,-1.586207624029112,-1.6543940520788845,-1.5410541796700679,1.5185368091245697,1.7238698386189877,-5.054443525045773,233.07635192447347,1079.2716665413736,-1.5700508602326806,0.05816387678796983,0.00043252692369084573,0.7070667214281793,-0.7065487131306288,0.02041599946711882,0.020706385199163135
-1.5398178850166713,-1.5112496860619733,-1.7457289822331332,-1.4944130258722141,1.6910243682834039,1.6586234005198162,-3.2727323362797875,233.02871603679847,1079.2921755295868,-1.5699044542373835,0.05911014603976909,0.0026783112820160013,0.7070844865723868,-0.7065100782073651,0.019958757417253246,0.02183314550050678
-1.5386386315939051,-1.5059401889313864,-1.7725684392884442,-1.4902483268972018,1.7030529424739314,1.6541223996211927,-2.990389552120274,233.02031639637465,1079.292844669504,-1.5698835556489354,0.05951960202889512,0.0029099023557830166,0.7070848310612984,-0.7065009159363699,0.020021948572034657,0.022059443317192205
-1.527944180895982,-1.4871092922018052,-1.7628760844237028,-1.5489060826755616,1.7046037571857964,1.675588352089324,-2.7164805296866947,233.011207585129,1079.2960965713776,-1.5698473921006042,0.0610769722284494,0.003126136731287317,0.7070777509265768,-0.7064745616531473,0.020496613415912728,0.02268560601098494
-1.5045487291725173,-1.4854651735741229,-1.739603667639129,-1.5607654032415006,1.7094597390091235,2.0205519029616434,-2.972872670607107,233.01406262271692,1079.297399663271,-1.569849427853736,0.06692721406347402,0.0036247397930059696,0.7070013993368804,-0.7064179704283396,0.02238887245750373,0.024928112276704367
-1.4981115706166683,-1.4852049067846456,-1.7345132678518353,-1.562760574911663,1.710273573938657,2.446692259770538,-3.0365215509724157,233.01466487038596,1079.2976488540785,-1.5698499620330608,0.07431529229592261,0.003758271753190486,0.7069023832389918,-0.7063323890501226,0.024953554937433044,0.027584358715842416
-1.4961211469065019,-1.4848577675141021,-1.7339988366509171,-1.5672339613315243,1.7089208164009992,2.963055080435103,-3.0333437435388935,233.01433500247464,1079.2976321403048,-1.5698477830721953,0.08340266389007603,0.003778096723826503,0.7067701088864663,-0.7062113450031084,0.028158710216137417,0.030799941760928328
-1.4066855674320462,-1.472424917619066,-1.740067338252903,-1.5687002865279465,1.7051908909545737,3.0233845882015933,-3.1370618843338716,233.00312481913798,1079.2991603053756,-1.5698393385350515,0.08480402026121425,0.005275684687631236,0.7067276862525061,-0.7062097359073963,0.028125334129161652,0.031823764295061036
-1.1938596995859285,-1.4568177269702642,-1.7434557712842742,-1.5689525265357656,1.7045027673084017,3.0318414156866873,-3.722130703156599,232.98405685736836,1079.3013678832529,-1.5698296615093499,0.08528742044031619,0.008979156474170674,0.7066629276924902,-0.7062506918363669,0.026988599720909206,0.03330288862600264
-0.9266467098788326,-1.4647087202786673,-1.7364548052708426,-1.5682997509034045,1.7042958550833718,3.0273742441382314,-4.995792559660872,232.96720147392512,1079.3004297800576,-1.5698379015858999,0.08493827085742288,0.013638518262064133,0.7065866096671986,-0.7063189688373712,0.0252196219662208,0.03482596685531695
-0.8113538982597056,-1.5024654356646077,-1.7283189025210808,-1.5741734705934673,1.7043307584952048,3.0330631020481746,-6.128341645450025,232.9660754863592,1079.2946884584092,-1.5698587677540747,0.08433940833380776,0.015649696108904078,0.7065544784413932,-0.7063586408648196,0.024297269018893907,0.03532537598156905
-0.755299215187673,-1.5785004184209634,-1.7151840205957771,-1.4948077843947727,1.7043337445541702,3.03424386849738,-7.823710711016226,232.97931399626987,1079.2815286393866,-1.5699467305597032,0.0814198228618969,0.016620823346799207,0.7065575215591965,-0.7064355983478244,0.022920614647417556,0.034638988715915316
-0.7259438040163161,-1.7380739781498498,-1.7045755191215086,-1.2893938631571527,1.7043269197013073,3.0384168810588075,-10.944766910166614,233.01330908776217,1079.2453776289922,-1.570142620053369,0.07494017881605543,0.01711780829710173,0.7065888370004977,-0.7065803686277367,0.020451080707835852,0.032529239063606205
-0.7217172268114588,-1.8754702632741596,-1.6683222920296839,-1.1355315085262088,1.7017915958070076,3.07834408441657,-13.7347588291985,233.047561099665,1079.204609829035,-1.570313970159741,0.06992343559217801,0.017135328498312414,0.70660743036213,-0.7066900960709023,0.018668667918539203,0.03076570022726477
-0.721103265246313,-2.0052205911166063,-1.6297318224857893,-1.0464818648873668,1.701375696085513,3.095977973617983,-16.298553519071387,233.07967261341827,1079.1591197865787,-1.5704478784353204,0.06574088164854089,0.017129837226696885,0.7066230040861877,-0.7067748267439267,0.017190010349375798,0.02928784596880353
-0.7210994879250601,-2.1329845406287657,-1.5958835576380201,-0.9636211947401025,1.700793815713091,3.102061912390027,-18.77618741024187,233.11088543197786,1079.1075425841786,-1.5705749652132301,0.061582095067561786,0.0171116929710145,0.7066377276592172,-0.7068537832262798,0.01572444443665484,0.027813536892526823
-0.7195498001664532,-2.265410423470552,-1.5662238782413342,-0.8814610461630491,1.6917734273531795,3.103284256092973,-21.28269187351903,233.14224214685748,1079.0474851955928,-1.570702251970235,0.05734243113926789,0.016973745554720355,0.7066519307828301,-0.706929507409009,0.014272752157302155,0.02626801898146172
-0.7194220297637423,-2.3164114814273193,-1.554128183661321,-0.873702370328839,1.662071507618264,3.1072956893988923,-22.164696371223087,233.15477450461952,1079.0234339804078,-1.570739834603207,0.05617635204578567,0.01645545411863007,0.7066605191589284,-0.7069473709597717,0.014043260119553492,0.025673180564852374
-0.7175617356770795,-2.3628908057458036,-1.540976943318242,-0.8666289216982529,1.5959035728012927,3.1131158266547554,-22.925888655715795,233.1667635047788,1079.0004218324736,-1.5707745587749324,0.05511424344764685,0.0153311476585325,0.7066758892550614,-0.7069592026032534,0.014064791890795098,0.02490090418456392
-0.7062470814053379,-2.4026762360255027,-1.541465737270618,-0.8621046146832014,1.181555056462395,3.181478131785212,-22.891731805984417,233.17870065559563,1078.982099093187,-1.5707960045084859,0.05554287042859848,0.00829570701473225,0.7067467109952441,-0.7069093676570679,0.01670284478701983,0.02256651041055757
-0.7001368703488969,-2.4176384090707246,-1.5440318969121916,-0.8604717567693256,0.6291464917983276,3.200733105724153,-22.176454503703322,233.18238743310408,1078.9758619780073,-1.5707988479073827,0.055634100264793006,-0.0012391563189377282,0.7068443819984945,-0.7068217934091686,0.020104998577101886,0.01922917136091419
-0.6956094057976022,-2.4348884876698396,-1.546729753557494,-0.8603572634184429,0.1689459568003973,3.202486447802645,-21.647848481606633,233.17956468650772,1078.969012855503,-1.5707977597634926,0.05540870767352149,-0.009192090940349907,0.7069174878614694,-0.7067384519144448,0.02283584835965168,0.016338603700993312
-0.6949666016020651,-2.4331236285571274,-1.5392281873080136,-0.8591520372626079,0.05513115318723078,3.194802871443155,-21.490886645447013,233.17777302750014,1078.9690359556644,-1.5707969111609246,0.05515344254664455,-0.011167267636180285,0.7069355692645798,-0.7067182528212393,0.02344361038802207,0.01555021446263647
-0.6962136410836051,-2.3262554058115605,-1.538467347349187,-0.8757726540026691,0.04415053399141358,3.1899723776133375,-19.735021076864847,233.15698197155191,1079.0126859881075,-1.570795141549547,0.05721114146428723,-0.01138058128584368,0.7069215536687573,-0.7066905513506083,0.024246092029334455,0.01620211750447795
-0.696429627022616,-2.1692804404403,-1.53110283831305,-1.0968676051697779,0.04237516719056633,3.1718007418206327,-16.898689523723988,233.12259209905272,1079.0684923105052,-1.570790394083992,0.0633640147705286,-0.011415051842612304,0.7068703574885208,-0.7066104823591919,0.02643228740805388,0.018364588384692727
-0.696504503660862,-2.054755845014679,-1.5111742765669238,-1.312853477203791,0.043364082496651704,3.1722123426713136,-14.863421543719596,233.09787405960762,1079.1011081298675,-1.5707861413476587,0.06879187375440947,-0.011398818919539006,0.7068192514377033,-0.7065348722622453,0.02834419868696262,0.02028857992100629
-0.6966828159238702,-1.9779636903392896,-1.4150855319323508,-1.4710544285964442,0.044850951197352364,3.1753853750334495,-14.186465198799793,233.08969535207544,1079.1165602478372,-1.5707838878862619,0.07127159105620307,-0.011375824752689917,0.7067941054889731,-0.7064987262014992,0.02921209015031113,0.021173004292056992
-0.7079174212933301,-1.9284696514401307,-1.3767199030032808,-1.6323329279479502,0.04339210895761627,3.1829474590409808,-13.395230494196447,233.08326266123703,1079.124794615972,-1.5707820048691743,0.07441264198750727,-0.011597224598104621,0.706763108041349,-0.7064479506402057,0.030399866615423064,0.02220473502995223
-0.7100698960555735,-1.9262050208057766,-1.3793290333574184,-1.6066257481023731,0.04085453698198968,3.1913717362071057,-13.368162308026003,233.08354201873743,1079.1262474868074,-1.570783102575016,0.07419606231510814,-0.011679153101073068,0.7067660266265442,-0.7064503836042401,0.030352291299846325,0.022099265254716102
