ShruthikaS1/Robot-Gello/csv/output57.csv
shoulder_pan_angle,shoulder_lift_angle,elbow_angle,wrist1_angle,wrist2_angle,wrist3_angle,end_eff_x,end_eff_y,end_eff_z,end_eff_roll,end_eff_pitch,end_eff_yaw,end_eff_w,end_eff_xq,end_eff_yq,end_eff_zq
-1.4411965937425828,-1.7765431951810895,-1.4738889897431529,-1.6073058200445924,1.2392048527337176,1.9415440806576492,-9.268937604004147,233.18359261437692,1079.213443678678,-1.5703031322010508,0.056651472443072094,-0.0035031007417420015,0.7070313912074293,-0.7066126350944508,0.02126927938317472,0.018783331085939783
-1.5817164246168227,-1.7574422638560963,-1.443907897555984,-1.6334837431510538,1.4220144683573184,1.7785937778369818,-8.920987905220107,233.20442588466844,1079.2246957149478,-1.5702238363223004,0.054072678848454764,-0.0027629669344931664,0.707076390398708,-0.7066189120527265,0.02009692206555381,0.018132980826270326
-1.6226936204598055,-1.7514641103733048,-1.436201920785874,-1.6456611821462814,1.4772600355706593,1.7584886930888441,-8.799546058996969,233.20960048059433,1079.228247633978,-1.5701968978369998,0.05390353599519643,-0.002512946418367372,0.7070851751264616,-0.7066135837603542,0.019949037640398674,0.018161339679434455
-1.6368315208654223,-1.7364086093089248,-1.4455775977127057,-1.652048035743612,1.4902421059912232,2.282130127395732,-8.432195132433105,233.2023271461463,1079.233187932739,-1.570177274207603,0.06358035885298263,-0.0025264715044815878,0.706996047117922,-0.7065017492648538,0.02337471764969609,0.021575222365752413
-1.6192045516297635,-1.709117299871242,-1.4679552538038318,-1.6464492700834619,1.4977050404393195,2.8098507840081717,-7.898108282324463,233.1822579757717,1079.2413109203444,-1.5701535958638435,0.07355964582979174,-0.002081188559375299,0.7068822788762825,-0.7063739932936508,0.026744816706381073,0.0252574778708552
-1.5956560546131568,-1.7067833808679953,-1.459902867457501,-1.644893706514151,1.495393383514688,2.858957631972664,-8.024415479653374,233.17994595696445,1079.2415414071538,-1.5701578742487383,0.07428983529628712,-0.0017102921591500692,0.7068667491194367,-0.7063706953669717,0.026871824871280797,0.025646534740339823
-1.4480692345916326,-1.698484496846142,-1.4618462854578183,-1.6455345430349824,1.4957641344876111,2.9339083745198296,-8.475138286135577,233.1546965376789,1079.2437118420191,-1.5701526731017144,0.07578784981299769,0.0008732788141178001,0.7068147624969333,-0.7063833513400163,0.02648882664694721,0.02708864206486833
-1.1054080350171647,-1.6958843937052697,-1.4651688393135502,-1.6441233859535536,1.4983513098525547,2.957114008076218,-9.806211419432895,233.09850478925281,1079.2445706207934,-1.5701494719909026,0.07627154890794872,0.006899489726822874,0.7067239730156833,-0.7064529195023507,0.02453131541921459,0.02938899548020982
-0.9272787598278588,-1.7084170387128714,-1.5330900454743466,-1.62304328919197,1.4976607874028873,2.9630394481109334,-10.18375719514575,233.06130486111448,1079.2431909736051,-1.5701340433883906,0.07697356556267886,0.009997632457109109,0.7066723005457214,-0.7064763580133716,0.02368532035780699,0.0307314303137314
-0.8850695981316535,-1.8087493693301069,-1.619337941164962,-1.3500111350272108,1.502694034822707,3.003704468155173,-11.704101476803759,233.074345085363,1079.2185518229333,-1.5702637574600529,0.07267384426517236,0.010812871730604906,0.706678977633357,-0.7065804126743731,0.021875526283928227,0.02950261591430423
-0.8276336755423855,-1.9470614872588727,-1.6829153621757358,-1.077313631582718,1.5020769929725286,3.093624922303894,-14.07815875613626,233.093443731475,1079.1774685464718,-1.5704234435522761,0.06818151012860862,0.011794021504877952,0.7066732865330487,-0.7066940237008056,0.019938616752482326,0.028264368525450445
-0.8085213670004046,-2.0853645248971993,-1.7001397181668696,-0.8978707532472028,1.5019614597100608,3.109536910393431,-16.532572614984158,233.12228008418464,1079.1290341999133,-1.5705613397745226,0.06321594132562622,0.012116609013643363,0.7066882856861734,-0.7067929728267712,0.018067505152703382,0.026625658568186803
-0.7849373366783752,-2.229009394080131,-1.680179567693524,-0.7500525594638852,1.4984066552562016,3.11412441235746,-19.348696912432434,233.15288494033643,1079.068963628946,-1.5707043372427687,0.057862522380838555,0.012457547290715083,0.7067022676826112,-0.7068920626908816,0.01605284722567058,0.024856038558766932
-0.7733242345653498,-2.3056889423397307,-1.682118485545891,-0.6392797092432062,1.4932092491349327,3.1179734209898267,-20.7895406094084,233.16800475343106,1079.0334028667057,-1.5707891714324302,0.0546929872575232,0.012564753913953074,0.7067095142424373,-0.7069473880271778,0.014893563374283693,0.023774667416925646
-0.7612594752563425,-2.3469327598419847,-1.6846091430793373,-0.618390134854459,1.3796844310764274,3.119807209651161,-21.31596587300846,233.17491183014326,1079.0154321587875,-1.5708148158292754,0.05368434621382857,0.010792552484253037,0.7067328233555812,-0.7069507122819377,0.015163165997169133,0.022792217813368324
-0.750739409611496,-2.4189101955356933,-1.6795977021639021,-0.6092689596143827,0.9255665025547851,3.1187502809886807,-21.77952225419751,233.19238834300307,1078.9847473913653,-1.570833040058038,0.052163069219382456,0.003049352583685651,0.7068243779366008,-0.706906560348656,0.01736221757708188,0.019518378297780793
-0.7489356849206205,-2.442524501110933,-1.670074617692592,-0.6083627920984406,0.5438385005971682,3.1158006550381203,-21.584304902986943,233.19756421498795,1078.9751183250157,-1.5708235455687032,0.051517249249869536,-0.0035810616911315235,0.7068940655595101,-0.7068480871619026,0.019477500009365004,0.016946644083458494
-0.752925192815823,-2.4352110290197224,-1.643535401312029,-0.637969520898458,0.04499942212627396,3.110206769523244,-20.760268389786578,233.19290695148285,1078.9781781553493,-1.5707984365433065,0.05160067172901898,-0.012355747200503257,0.7069699074667825,-0.7067460119837957,0.022608140461953308,0.013874309577854056
-0.7595456584381806,-2.272881995656365,-1.6132714542651805,-0.9117651601709357,0.005806709234432191,3.1183562145166093,-17.852191624872717,233.1571382654355,1079.038732078659,-1.5707958800061514,0.05882651149255256,-0.013155201077704402,0.7069225805809997,-0.7066487002350198,0.02544388822895493,0.01614583762613157
-0.7634810025688111,-2.169346504762077,-1.5785552941772163,-1.0951644898085533,-0.0015310521821660546,3.119887838215658,-16.14623224224605,233.13584407912856,1079.0706712547694,-1.5707965624954627,0.0632552894481811,-0.013351993036853709,0.7068865923861664,-0.7065882053607345,0.02707813988598771,0.01764165213593957
-0.7692830586027163,-2.0915444368080762,-1.5216784106899384,-1.2304775737692657,0.00027158455645868665,3.130519033153712,-15.134052387128373,233.12420409424533,1079.0908408543555,-1.5707962720242654,0.06616771100795978,-0.013421778901379723,0.7068609066182602,-0.7065469408828596,0.028131708154395425,0.01864634066512584
-0.78590679897616,-2.0232879376088198,-1.4311187792263038,-1.4399565189662995,-0.0008215370739211806,3.2450585529678095,-14.385587107970473,233.11924600332762,1079.103155707316,-1.5707965394922014,0.0714336369667482,-0.013731013394011454,0.7068124292656308,-0.7064658709722709,0.030101149958472847,0.02039813124249172
