ShruthikaS1/Robot-Gello/csv/output12.csv
shoulder_pan_angle,shoulder_lift_angle,elbow_angle,wrist1_angle,wrist2_angle,wrist3_angle,end_eff_x,end_eff_y,end_eff_z,end_eff_roll,end_eff_pitch,end_eff_yaw,end_eff_w,end_eff_xq,end_eff_yq,end_eff_zq
-1.467314911063873,-1.5743052719899115,-1.6248625448054732,-1.6223041782864212,1.3824102043616964,1.6951107495446627,-4.854831537654035,233.07175218816593,1079.267079700246,-1.5700908246030967,0.05877369628654783,-0.0014507047808991586,0.7070656391895032,-0.7065368485589895,0.021296470334102115,0.020256452235758525
-1.4997166815059828,-1.5294555192416184,-1.6510160558844287,-1.6737729725099098,1.4111582708701982,1.5821265411304217,-3.7415696302949435,233.04754637440112,1079.2756094084036,-1.5700234408537548,0.05893828353543286,-0.001512194923850907,0.7070883968904105,-0.7065106151623665,0.02137706093080798,0.020292139162850883
-1.5025285474189862,-1.525389225735345,-1.6533697929699798,-1.683089190769696,1.4136929822759279,1.5772130088855287,-3.6330834400053225,233.0450754650651,1079.2762686090255,-1.5700152598425232,0.05912705756532295,-0.001516637937993464,0.7070894120641875,-0.7065056557926106,0.021445450611016468,0.020357168955063475
-1.5045442299285121,-1.5176198313322145,-1.6553363031292985,-1.6879608352067157,1.4130284758085456,1.9242099804146735,-3.4741021360457878,233.04127128437975,1079.2774271085414,-1.5700090223284706,0.0654381764734432,-0.0015582819837909908,0.7070242739765089,-0.7064318179944111,0.023691282609533935,0.022571789061054986
-1.5048025907486065,-1.5138669304117436,-1.667659128377941,-1.6858537249063152,1.4143585047179228,2.4567050060770246,-3.3132358093791274,233.03703156612556,1079.277778870533,-1.5700017212247563,0.07497567054146045,-0.0015317447244716789,0.7069107412963954,-0.7063086714287325,0.027053171485585684,0.025949767184525546
-1.5048090037433097,-1.511998790311497,-1.6816547713272358,-1.6814067307457836,1.4183804124499415,2.874114024250284,-3.1779324625262784,233.03330534167443,1079.2779138689184,-1.569994045014993,0.08245997335734888,-0.0014552951324840972,0.7068102204829768,-0.7062009882197597,0.02967130644285486,0.02861974898937186
-1.5005753607574441,-1.5171086267784295,-1.68030093732056,-1.6797290943366152,1.5218505282323942,2.9097459823095875,-3.4711976387963315,233.03568501177517,1079.28292957295,-1.5699392828977679,0.0829383260596976,0.0004285896691333259,0.7067952554222894,-0.7062023188997025,0.029175947128160854,0.029453621210272
-1.3317566711616038,-1.5443818388502821,-1.6813029957860617,-1.6808363226104768,1.5401353605851191,2.915184778223535,-4.615325350305245,233.03423257573627,1079.2792416557038,-1.5699408514946986,0.08259394211520654,0.0036939506761026583,0.7067509351747092,-0.7062543772706706,0.027901167006984983,0.030485981948092815
-1.0878930754073801,-1.543814847857153,-1.6747778090489527,-1.6807829533190448,1.5403226473934468,2.916083503129346,-5.654487989661083,233.01336865808034,1079.2795111574226,-1.569943582354096,0.0825047414958794,0.007953228656727974,0.7066848710948077,-0.7063143354014941,0.026365465655025715,0.03195958061136303
-0.8582687781222577,-1.5464968152093486,-1.684149322117926,-1.679290985287034,1.5416005359641682,2.915971589937444,-6.555560033259447,232.98828590921812,1079.278894188715,-1.5699404212027763,0.08259345111133896,0.011983479859417358,0.7066186678435362,-0.7063638084172963,0.024973511221882315,0.03341484925134282
-0.7925915056115309,-1.6219776157742745,-1.6731673949135808,-1.6395704601573238,1.5404486266508397,2.909477819003832,-8.19167057020484,232.9996118066071,1079.2651531515244,-1.570000589677849,0.08027861658015105,0.013104681546966203,0.7066172568662906,-0.7064268957503074,0.02375823685747207,0.032994536529060293
-0.738352647013682,-1.7600868852438807,-1.6395600423214427,-1.456366853222371,1.5403286855242486,2.91491805373336,-11.229039239319283,233.02805967074804,1079.233935780544,-1.5701679400983453,0.07418128762828305,0.014036391290839596,0.7066410557876638,-0.7065650814765164,0.02127102243941658,0.031172865087465605
-0.7147041843974424,-1.8901508407216712,-1.636463941005469,-1.302914912390645,1.5412884467077945,2.925383793790313,-13.70138293845691,233.05300190889233,1079.1972526587517,-1.5703026104609727,0.06936343014152563,0.014456327118916935,0.706660345270799,-0.706665902275489,0.019417466845670955,0.02962129241308223
-0.6974086203399642,-2.093585898716995,-1.6191877827982741,-1.1013269033096589,1.5351489019137698,3.0548975987779614,-17.514706564803205,233.09470385916487,1079.1260921085404,-1.5705025888754167,0.06425606316278656,0.014638584487364142,0.7066605036084664,-0.7067854107176718,0.01754472382374765,0.027883660133295005
-0.6951628018622074,-2.213510304603123,-1.616924028907661,-0.9392541562433679,1.532947505434974,3.1048816595527886,-19.73987988290393,233.12100783859933,1079.0757723204968,-1.5706360437336997,0.060168949434907346,0.014631261481732388,0.7066689513618227,-0.7068668686042001,0.016100731783578882,0.02643841309359361
-0.6935362852732617,-2.285026120608361,-1.6140530616851336,-0.842473762891998,1.5326506861324398,3.1118159389752678,-21.08299364373297,233.13663956430293,1079.0426952710332,-1.5707161359440556,0.057303614777832954,0.014649782031106196,0.7066775630498977,-0.7069176440208433,0.01508028379674713,0.02543327533936345
-0.6946070353564173,-2.316269778652368,-1.6162873627493477,-0.8258161738140828,1.527203483460225,3.1124692984789832,-21.578728972403265,233.14334936571234,1079.0290784007993,-1.5707377006903582,0.056518270286281626,0.014534796789979338,0.7066813187441029,-0.7069302778583242,0.014843045509542348,0.025115333667898823
-0.6910468620379107,-2.3367905088834053,-1.6164584738976633,-0.8140463264579589,1.435662952951553,3.1136963443483623,-21.78134637647178,233.1483915152752,1079.0195316219094,-1.5707552829306684,0.05597936257182776,0.012998265356268902,0.706700786486304,-0.7069289983553491,0.01519544334580245,0.02438212799299797
-0.6795811849712061,-2.3545192890035036,-1.6150181620150252,-0.8115897752413006,1.1725272497330468,3.1156356172211233,-21.670820471669572,233.15257477048425,1079.0110149909333,-1.5707705406373986,0.055636020609136104,0.008604949570646071,0.7067511566806881,-0.7069021699570084,0.016626754962484707,0.022708493124816972
-0.6647188263506763,-2.3840468166919,-1.613435853784666,-0.811309828594893,0.6943474832993581,3.2118103636052306,-21.38642886607672,233.15648689036908,1078.9975010431979,-1.5707877048871943,0.056766942841147056,0.0005176037361744697,0.706819800041118,-0.7068240928747206,0.019884610182398763,0.020250290851152625
-0.6629663240680205,-2.389742574057034,-1.6123812796852688,-0.8113273867946931,0.2717216476702581,3.221514500862048,-20.759019608863102,233.15468407259607,1078.9945476025023,-1.5707935108489122,0.05681884842091648,-0.006828348704626739,0.7068869008632588,-0.7067477579621501,0.0224989091870604,0.01767243867733056
-0.662721525075955,-2.38428726643947,-1.6014864674889653,-0.8112319036645792,0.13629970910040765,3.2252267513859403,-20.53104443980158,233.15278509218913,1078.9955688318678,-1.5707951444515884,0.05678704091822637,-0.009187727130278829,0.7069069474245981,-0.7067216728583455,0.02332138275461535,0.01682729632326825
-0.6641204619232857,-2.3077500775110393,-1.5858053787672342,-0.8502852263278096,0.11455044737197494,3.224612179732278,-19.329986169335786,233.13951287040427,1079.0243689229726,-1.570791840800164,0.05852005992904028,-0.009591548868911825,0.7068967752241027,-0.7066951848012081,0.024076474430565414,0.017297061471392875
-0.6711675322458264,-2.110742655170633,-1.5815379649847363,-1.1270989323069773,0.1114972062059743,3.224582165619751,-15.699685821983586,233.09970739258145,1079.0915048883014,-1.5707759750267833,0.06671477912402611,-0.009766839110525607,0.7068273412821916,-0.7065826294798995,0.02703395033182343,0.02013114161382442
-0.674354409343198,-1.9875810978660053,-1.5469591934033347,-1.3394570326615254,0.11233519231356696,3.2256606432738906,-13.645356864055687,233.07655007032568,1079.123504361405,-1.570765490744947,0.07198600101579396,-0.00980710919973147,0.7067759733816839,-0.7065046385711198,0.02891050990994824,0.021979571074329355
-0.6749599125325548,-1.9315665353055096,-1.4970688199089786,-1.463175422595368,0.11393396579957375,3.2245061525858256,-12.96263276876871,233.06867474350628,1079.1347242343388,-1.5707605285835953,0.07423202650948185,-0.00978941550586825,0.7067523946820418,-0.7064702362120767,0.029697736171705916,0.02277942984202803
-0.6784172051672755,-1.892561456563443,-1.4504178467369857,-1.5344364868533922,0.11546665196027149,3.222924462888073,-12.603746877651913,233.06536806730657,1079.1421992862756,-1.5707578005482228,0.07531471176159828,-0.009822808032117422,0.7067413093081815,-0.7064525901554429,0.030092014666304286,0.023150167026310533
-0.6949128671651787,-1.8830125467478083,-1.4513155674651341,-1.539384491692408,0.11558426096074692,3.2214870006345553,-12.367779604281273,233.06693846065554,1079.1446215095552,-1.570757217117396,0.07555830975988652,-0.010108616361102126,0.7067420036779546,-0.706444393894931,0.030279023910666558,0.023135238981064433
