ShruthikaS1/Robot-Gello/csv/output66.csv
shoulder_pan_angle,shoulder_lift_angle,elbow_angle,wrist1_angle,wrist2_angle,wrist3_angle,end_eff_x,end_eff_y,end_eff_z,end_eff_roll,end_eff_pitch,end_eff_yaw,end_eff_w,end_eff_xq,end_eff_yq,end_eff_zq
-1.430185916595886,-1.702904605517294,-1.5237621270536088,-1.5912193816435296,1.3161855610849007,1.8382148817556216,-7.86961963618178,233.14276716878172,1079.236484384441,-1.5702293737613082,0.05672178440389349,-0.001964513869681299,0.707042111247093,-0.706601984904751,0.0207512488275083,0.01935131840516178
-1.5577538388040015,-1.659869671283065,-1.4596750010498076,-1.6378365394242793,1.5729982517882832,1.5837252463691986,-7.577409661775217,233.15462247297367,1079.2564848847667,-1.570106662904875,0.05272334008255636,0.00029377218975040043,0.7071020597104565,-0.7066200385814495,0.01854099026015919,0.018735792178422816
-1.5687599077236845,-1.6549602674368122,-1.4541393719700582,-1.642016217893327,1.5956635805363035,1.5616023824806196,-7.533724428407122,233.15501415814225,1079.2585279233886,-1.5700950112070244,0.05239894404278455,0.0004974838084739803,0.707107307725445,-0.70662078817358,0.01835443372194662,0.01869309618464199
-1.5701357075051738,-1.6543765597008484,-1.4564902851813235,-1.6437597633794783,1.5995685638092754,1.8025395212097681,-7.502364745232311,233.1542995303782,1079.2589153649342,-1.5700908486894294,0.05668565904554298,0.0005447851639898516,0.7070665824243794,-0.7065788512524961,0.01985332489246331,0.02022425455055958
-1.5695542368738726,-1.6551325820832363,-1.4543226223563164,-1.662633894165144,1.598831481642177,2.3114514870657525,-7.501303485616387,233.15416523722266,1079.2587206585565,-1.5700829955972646,0.06584613443159465,0.0005488434160257329,0.7069691965327491,-0.7064778434118306,0.023090346903467895,0.02346162402489275
-1.5712538089553172,-1.6404852905006317,-1.4619106283875953,-1.668245720078432,1.5986330560792978,2.704427875459359,-7.184876220055494,233.14590724938049,1079.2624421260593,-1.5700691283636312,0.07319070125049347,0.0005216096635225827,0.7068834640994773,-0.7063830960519931,0.02569622291536605,0.02604599628748
-1.5557474553903732,-1.6329325531521597,-1.4694633740860006,-1.6699809249494766,1.598564225674502,2.943083974835789,-7.059208088634669,233.13883075674138,1079.264398072549,-1.5700606931150778,0.07764984640992695,0.0007947191955648985,0.7068227947781018,-0.7063248274993014,0.027175900532735334,0.02771723778428648
-1.2251453763809108,-1.5967286319885352,-1.5709702090190274,-1.6714339165209664,1.6023260596032571,2.97245466047228,-6.957838281832352,233.06310045560525,1079.2737958165776,-1.5699906786513673,0.08059032556898106,0.006636373168485343,0.7067189729044238,-0.7063387977573866,0.026153129401201222,0.030818986714199144
-0.9400303553591417,-1.5776151375989014,-1.6190184668837029,-1.6716553784543817,1.604282680254079,2.9790575194080335,-7.402255417378702,233.01376019611828,1079.2775993182274,-1.5699565884779907,0.08188113582344729,0.011649564634295572,0.7066303485715496,-0.706374222776983,0.02483938427972751,0.033045617901129455
-0.7460495896448158,-1.5832449520372545,-1.623810671544735,-1.66489277073259,1.6033376075379506,2.9827783192340225,-8.2501644117674,232.98817876941746,1079.2764275518355,-1.5699608099871019,0.08181349315947263,0.015018389470242734,0.7065733508035379,-0.7064173503325906,0.023625539908174266,0.03421200004954095
-0.7151748761380153,-1.6949613019680014,-1.6231129530795112,-1.5973270442258785,1.6018771030945607,2.9758935063326764,-10.284157783075287,233.00759297451364,1079.252525253216,-1.5700498375743805,0.0785533439830371,0.015524548723451367,0.7065883746432617,-0.7064919950454478,0.02229276442605481,0.03324097486448125
-0.7105567798043267,-1.8872827240174859,-1.615568547408278,-1.391605320097599,1.5987957883900943,2.9787368998489656,-13.797326296892894,233.05025097346865,1079.200317143006,-1.5702496238118193,0.07152693631211819,0.015536438598793856,0.7066300871044874,-0.7066365754993336,0.019801455443756354,0.030766418829429362
-0.7214906711423364,-2.1560476658621788,-1.5720411118917135,-1.1636924100049875,1.5985944445023355,2.978939650564811,-18.82238692523498,233.11673038989017,1079.1017650094336,-1.5705135393711382,0.06210579202174314,0.015324472937028355,0.7066768658541936,-0.7068134402310252,0.016542055436631883,0.027366555815598735
-0.7251677806346134,-2.284855188663334,-1.5636957700424716,-0.9692859130369014,1.5978448467593704,2.9817877550679506,-21.276476275157883,233.14922559778688,1079.042137465954,-1.570675379761261,0.056370953920127705,0.015237641029100054,0.7066963435394344,-0.7069145027229553,0.014543327704563467,0.02531117316973356
-0.7228668375677776,-2.369048152158285,-1.5492698922375963,-0.8122452489179902,1.5736619087847106,2.98393906597536,-22.987564561650416,233.17100518732454,1078.9962508544786,-1.5707999422787298,0.05194813512205051,0.014848987282031162,0.7067111637562021,-0.7069864092104899,0.013115734631675802,0.023611982531830923
-0.7239180355926886,-2.3877072500624252,-1.5558038738236522,-0.7647649299230055,1.5477765503859617,3.0217269616627656,-23.263262280503405,233.17619018096275,1078.9864505357227,-1.5708280194820683,0.05156772513513485,0.01437739152110273,0.7067112332309392,-0.7069957318147622,0.01314764140149996,0.023311103502229112
-0.7240119303943989,-2.451641797321841,-1.5551021122765663,-0.6088645862436507,1.1847791088671389,3.024483064999074,-23.931747462783008,233.19972780682428,1078.9513793052533,-1.5709002607077411,0.04776738313447495,0.00803668101925418,0.7067948095665123,-0.7070039931618922,0.014044975387767462,0.019727886083757803
-0.7252787455534275,-2.4721223644072743,-1.5566582063655754,-0.586321770709326,0.8687630800697317,3.0247228796587446,-23.730685203734048,233.2076216926076,1078.944081801327,-1.5708835238264904,0.04704741500982857,0.0024999230290181093,0.7068589824772831,-0.7069622022892101,0.015747850877564914,0.017516524150298845
-0.7255494786703154,-2.4848583986077823,-1.5691197985810252,-0.5859816597470846,0.4811126365712046,3.0210480195232514,-23.15304750355254,233.20837119502647,1078.9438221455464,-1.5708447069468268,0.04697209330530727,-0.004268638453377543,0.7069285040801001,-0.7068918211832927,0.018113987380178928,0.015097242278982055
-0.7255356142038689,-2.4894312384295505,-1.5547767328286044,-0.6065157962454882,-0.06190890455394352,3.0202300985725254,-22.369725972926165,233.20189865093113,1078.94570528657,-1.5707901317789619,0.046985861848678964,-0.013743190837831654,0.7070112969222848,-0.7067786384591325,0.021467699653151914,0.011752451392181309
-0.7269280751267528,-2.3922117730782695,-1.544093689822911,-0.7669017592230776,-0.1341844047800301,3.0337901343242355,-20.49613400440436,233.1785270494487,1078.9868813203504,-1.570793002676615,0.051532138284771,-0.015029074428447238,0.7069901839113962,-0.7067140469740718,0.023528619949973593,0.012905026373827452
-0.7285283986844966,-2.175565389087685,-1.5002659477188056,-1.196963951275533,-0.14258925667209457,3.2108910282290526,-16.63767683716428,233.13008318683666,1079.0600285960832,-1.5708190332109269,0.0651453554441737,-0.015205246280312574,0.7068783293211638,-0.7065442287733885,0.0284003857810511,0.017654982600539302
-0.7864953050982473,-2.0378499871130282,-1.4358805672937716,-1.4652091691160947,-0.1470436573034816,3.318015797587676,-14.277195030792354,233.11761061447234,1079.0943979846413,-1.5708350947611345,0.07297662649679995,-0.016295863960859386,0.7068091411397593,-0.7064161812531364,0.031551723474301296,0.02003760491707921
