ShruthikaS1/Robot-Gello/csv/output100.csv
shoulder_pan_angle,shoulder_lift_angle,elbow_angle,wrist1_angle,wrist2_angle,wrist3_angle,end_eff_x,end_eff_y,end_eff_z,end_eff_roll,end_eff_pitch,end_eff_yaw,end_eff_w,end_eff_xq,end_eff_yq,end_eff_zq
-1.5881542118164333,-1.5928597041187582,-1.6002630103917679,-1.5888741859018098,1.5684024860293244,1.662003023971188,-5.2525132233960345,233.0977999259461,1079.2730201083698,-1.570032644667195,0.056857274266871684,-0.00031195287130873154,0.7070940300334774,-0.706547973382737,0.020217252879157245,0.019981408503489086
-1.6343265552325024,-1.5918228008188529,-1.619922178633048,-1.6159806628451998,1.5642200085078546,1.9011426949150647,-4.824925771341313,233.09531550062619,1079.2729030931425,-1.570011644886511,0.06186510346310288,-0.001186309709241761,0.7070586023690602,-0.7064780704528014,0.02229676248595175,0.021441155935322777
-1.6431234559042418,-1.591377347856127,-1.6237433035916828,-1.6211614626416369,1.5634346564103538,1.9481935433177837,-4.738839090855032,233.09464797275848,1079.2729151831827,-1.5700074846832694,0.06285113247088933,-0.001352641813421476,0.7070512162328924,-0.7064636437612972,0.022704136317516794,0.021730620358706727
-1.6459152335627898,-1.575387530183213,-1.6254410781692747,-1.6222002706273575,1.5632762100602582,1.95797878068636,-4.455084333856443,233.0870589118275,1079.2760395706543,-1.5699986092258562,0.0633486345578939,-0.0014034368923507032,0.7070494755888174,-0.7064542594821084,0.02289804729007556,0.02188830188629886
-1.6470694358717273,-1.5591482548243392,-1.624990032958504,-1.6215296748426795,1.5632140600166418,1.9618835384395894,-4.1955849283514866,233.07982474642233,1079.2791671509524,-1.5699914147158578,0.06368054029642499,-0.0014241546302626827,0.7070485995875789,-0.7064476707756027,0.023022775809466874,0.021998137898379903
-1.64881641275961,-1.5553731928093697,-1.6093227404760164,-1.6224578396603166,1.5620802144986028,1.9630338816313082,-4.258976239577131,233.08203563690304,1079.2799958404087,-1.5699972319142341,0.06350934575319199,-0.0014747795666006666,0.7070489818533428,-0.7064511124254536,0.02298007525788724,0.02191983471955432
-1.6985719458696393,-1.540273629021106,-1.6029890282161146,-1.6227160198585782,1.559622103504302,1.9633512001295084,-3.8647033293726345,233.08007309417192,1079.2828013055453,-1.5699941872512164,0.06367235879088352,-0.0023858632020384183,0.7070582051020607,-0.7064375941683521,0.02335954932040917,0.02165529032431575
-1.7466483489310591,-1.5296534397408479,-1.5977647591330315,-1.6228164633640598,1.5566483282488017,1.963451269045963,-3.5387651988355424,233.07939924558167,1079.2846950199853,-1.5699931012143729,0.06377004102980724,-0.003276763813982624,0.707067120854243,-0.7064255783301212,0.02370877179483766,0.021374822287573703
-1.7944608010898428,-1.5055606435497457,-1.6020565547560355,-1.6246463639255904,1.556906310457001,1.9634531393170727,-2.9193778310991374,233.06894751624571,1079.2890233235269,-1.5699785898791985,0.06429721718263469,-0.004105819279381482,0.7070754594810021,-0.7064042127962289,0.024188108614657075,0.021267772453062637
-1.8578828257100501,-1.4726152801303154,-1.6056403687732312,-1.6254157537193348,1.5569928550268828,1.9634810615562468,-2.102561544220344,233.05390525151418,1079.2946679636225,-1.569960792709099,0.06494844501595289,-0.005210082930561743,0.7070865381087691,-0.7063764231893342,0.024808518529283643,0.021107197729227693
-1.937370749237257,-1.4235529639501092,-1.6078203264329616,-1.624833427134996,1.557015001779082,1.9635036693006802,-0.9769783242593697,233.02945932005775,1079.3025424815557,-1.5699366672022652,0.06583269467909658,-0.0065954457747163684,0.7071003155673427,-0.7063392935977204,0.025610616335868495,0.020929461897884107
-2.0322288112322733,-1.3715229264865687,-1.6091108333038282,-1.6248329347518158,1.5570456347957482,1.9635031405933185,0.25186618750610673,233.00084146595705,1079.310158331068,-1.5699112669726811,0.06676295073388934,-0.008248814167222797,0.707116796161251,-0.7062966478696647,0.026523597621029793,0.020673184659372262
-2.1156441662556333,-1.3104528409922338,-1.6351314832826285,-1.7044666030661022,1.5579990443858251,1.963510227339244,1.9277492689286015,232.9508040709057,1079.3159132354965,-1.5698312858571208,0.06967186998875209,-0.0096826042059546,0.7071295634960958,-0.7062091387957358,0.028058911803876298,0.02119269165509985
-2.1626522906287966,-1.2643448041364096,-1.6394964081767334,-1.8842534028835862,1.5583767265909314,1.9635155486444513,3.205658029453453,232.9080855285616,1079.317397026677,-1.5697212599983634,0.07368925515722005,-0.010488583482070733,0.7071334135603927,-0.7061005560962655,0.029764578898545467,0.02232509686347035
-2.1784715500517495,-1.243581495603713,-1.6438982861215947,-1.9297323871938215,1.5576578229155267,1.9635084882618146,3.720084309301441,232.8901030535573,1079.3179660305323,-1.569688074076877,0.0749216611858963,-0.010774755328037969,0.7071344680800955,-0.7060660340183323,0.0303015487844771,0.022658680455087486
-2.188874247703513,-1.2195338442765695,-1.6482772046575092,-1.9231453474986342,1.5564804062586957,1.9634789280540352,4.175042187723525,232.87370635921354,1079.3197870049962,-1.5696785055831575,0.07530219845456083,-0.010976131841081925,0.7071358070115955,-0.7060538093499921,0.030507240012064868,0.022721730815913645
-2.213557592745353,-1.1671012818264452,-1.6586759241628328,-1.7607547735954683,1.5567922020302187,1.9634965864028848,4.919969964953967,232.8469554060881,1079.3267155948688,-1.5697257241480596,0.07356550731998128,-0.011405011089845827,0.7071433548879954,-0.7060902806818781,0.030044336343312612,0.021957436508554314
-2.225738230015606,-1.1391911662445136,-1.6625972931053634,-1.6855853018696325,1.5569341454554027,1.963505239356511,5.3183957316606705,232.83233618685014,1079.329851622292,-1.5697462762374619,0.07280954553996782,-0.01161663046672115,0.7071466511810246,-0.7061056895784953,0.029851649662473355,0.021615917301125744
-2.2319173091101763,-1.1248522779455525,-1.6656981797727308,-1.6481726028996402,1.561052771417368,1.9635099769441353,5.52715482399852,232.82440878540262,1079.3315084873914,-1.5697530402783717,0.0724610893123919,-0.011653135883223566,0.7071484161089958,-0.7061127247517971,0.029741312229247505,0.02148003456732562
-2.234820305532653,-1.1048813970629625,-1.6676849398408107,-1.633336441471181,1.6302737969979153,1.9635179830228984,5.72928232671734,232.8133475561063,1079.337415415352,-1.569703237914772,0.07258418418056177,-0.010492943635855234,0.7071520693364577,-0.7061104448385694,0.029375745968075847,0.021932990490637648
-2.2358276705972453,-1.0960313219188682,-1.6683359225798906,-1.6273540576971588,1.7162364271596053,1.9635235129975528,5.720748619838313,232.809373061032,1079.34370410874,-1.569643769479571,0.0726439832515498,-0.009006983740430208,0.7071559015777542,-0.706110186902241,0.02887291651141821,0.022478645616686593
-2.2361837446744257,-1.0910689650100365,-1.6686347481464745,-1.624815497832435,1.7537060962613018,1.963526006926582,5.734605439672025,232.8068793497673,1079.3465068818361,-1.569617153067302,0.07269076164407023,-0.008357779293095632,0.7071574327253288,-0.7061094414465083,0.0286605470922294,0.022724327972383798
-2.2340909249626333,-1.087342667587949,-1.6687962702914736,-1.6280888267721383,1.727221081081011,1.9635350322740903,5.838768695697503,232.80409269971784,1079.344889942925,-1.5696311708337984,0.07281638840562411,-0.008784179609417972,0.7071558910337936,-0.7061064619142988,0.02885533558387689,0.022618130502188027
-2.2345976528571345,-1.0884521503721674,-1.67053419458514,-1.6294745263360229,1.544859170834218,1.963524510804287,6.157162681348345,232.80075498645482,1079.3324321186424,-1.5697532053005843,0.07285485602890089,-0.011982351698193745,0.707147658071003,-0.7061019901304083,0.0299967072662555,0.021502715450734695
-2.234852601444209,-1.0870554336954987,-1.671432709215543,-1.628180256329987,1.4495367182188614,1.963518886151903,6.351555083403429,232.79751459352713,1079.3260534133833,-1.569817110729646,0.07287390323213806,-0.01365390469409441,0.7071426216454257,-0.7060989773421533,0.030592903166578318,0.02091939589567388
-2.233961419239456,-1.0784362724921221,-1.6707322551237793,-1.6217190173729628,1.6012039944710141,1.9635158142365834,6.20507011217159,232.7961628437926,1079.3368528366982,-1.5697139652611074,0.07289655121275389,-0.01098572098207747,0.7071502525933966,-0.7061023584133115,0.029660007370341867,0.021869240111307656
-2.232730510502197,-1.076498884744959,-1.6695517751245113,-1.6205486461279701,1.721258488899462,1.9635220232352266,6.010353560181008,232.7976380767096,1079.345134716963,-1.5696330538521723,0.07288709501256783,-0.008864562572021875,0.7071553344628349,-0.7061049467540724,0.028908685982568967,0.022614707270839998
-2.2285962892721187,-1.0776108309161645,-1.6691121106905578,-1.6192017313727871,1.76695381114205,1.963530273300315,5.890288614107035,232.79967042705726,1079.3481956398084,-1.5696037486979268,0.07283573483821346,-0.007993333838405985,0.7071563517315737,-0.7061078447707241,0.028583275118778638,0.02290419486509425
-2.2258727214432716,-1.0771598331452625,-1.668931598113199,-1.6186300914329637,1.7833770917441172,1.9635364782753215,5.855363524810455,232.79999245974093,1079.3493441049454,-1.5695928319872987,0.07283024632258182,-0.007658577077883854,0.7071564256326188,-0.7061088372389663,0.02846327311775909,0.023020463569553645
-2.2249310765889296,-1.0769978175045476,-1.6688702906873984,-1.618436113518711,1.7828325420390438,1.9635403076902345,5.854210604434863,232.8000142821058,1079.3493243012679,-1.5695932502306795,0.0728286975161302,-0.0076516697419264324,0.7071562163159623,-0.7061091054376462,0.028460282165920805,0.02302236483890291
-2.224573909894546,-1.0786502747874895,-1.6700816468228976,-1.6191603883824575,1.7826873487748773,1.963539453951819,5.838241268413028,232.8006225952109,1079.3491114806336,-1.5695931937014347,0.07283362557413814,-0.007647964126441378,0.707156136799166,-0.7061090681227861,0.0284607165006634,0.023025414617735624
-2.2288801032763117,-1.0740648875380283,-1.704332980124559,-1.6177833810649838,1.7906003630136182,1.9635428460993234,6.2067660693535105,232.78609161576148,1079.3469441403481,-1.5695673282821865,0.07348699309102646,-0.007583227041741217,0.7071569444523917,-0.7060915247882337,0.028669112742851912,0.02327867069920069
-2.232532171583235,-1.0592960677273753,-1.7262570481695265,-1.6181350593119752,1.8951368182215969,1.9635518480580343,6.464883538030381,232.77036300384853,1079.3528432737685,-1.5694741182321104,0.07413103830127014,-0.005817015956828482,0.7071612734604898,-0.7060745523584314,0.028274336608284937,0.024129270998937684
-2.2347401848414252,-1.054448169246024,-1.7310834319196153,-1.612885174549601,2.157863282197134,1.9635810946978907,6.127302190881202,232.76747497270833,1079.3709106859221,-1.5692879779418303,0.0742022348761411,-0.0012599711501932065,0.7071692578681883,-0.7060703813948134,0.02669302633049716,0.025763143994052277
-2.234048588789601,-1.0515517879830727,-1.7363228801014248,-1.5363018674303122,2.4264607076712177,1.9636056323255944,5.61593857663142,232.76869972258586,1079.3889352242877,-1.5691511572000427,0.0730015985460581,0.003446440375785031,0.707171340276491,-0.7060977390877822,0.02460872462589046,0.027001648448951945
-2.2311176068801317,-1.049152640285075,-1.738044487045128,-1.48387112933539,2.6164578256948676,1.9635986349620236,5.23588042425108,232.76878861470007,1079.4011027379804,-1.5690610950931743,0.07215352513654465,0.006817764402070982,0.7071685257158824,-0.7061162211752091,0.02311978066445091,0.027893263919738683
-2.2288959000639683,-1.0480385736029705,-1.7379239673161155,-1.459004995745305,2.703295877100258,1.9636080710431463,5.049510590654028,232.7688832573672,1079.4064994994078,-1.569023288072086,0.07173482814614335,0.008373790678059075,0.7071659060259273,-0.7061253264338752,0.022422855664937402,0.028295233998180944
-2.2288792089445173,-1.0466443282768376,-1.7360529258337014,-1.44856583330482,2.739700660604629,1.9636215096951695,4.9742757498481165,232.76880321133385,1079.4089021237512,-1.5690085771375604,0.07154362843307144,0.009010074167796561,0.7071647893287262,-0.7061293369178812,0.022130789854722704,0.028452564348016154
-2.231156705658576,-1.0459316821970441,-1.732842970488545,-1.4434087690147956,2.755375510673931,1.963633858599876,4.931177089046671,232.76933779465094,1079.410076124107,-1.5690048078846617,0.07140991480323848,0.009243981905200573,0.707164696480319,-0.7061320567116791,0.02200096460804717,0.02848803419592231
-2.2258298793236193,-1.0468218217018084,-1.736856391986844,-1.4416076738179469,2.5778140810146977,1.963604652181132,5.235044041528861,232.7715146540699,1079.3982550303645,-1.5691191329758918,0.07143782818071041,0.006231904692176104,0.7071660516828234,-0.7061382248948452,0.023072705681842054,0.027434156487894393
-2.2223409947994845,-1.055049728324956,-1.8118434564390786,-1.4338980217052832,2.3171178154345333,1.9636114553942294,6.172114397888008,232.75428529594993,1079.374797397249,-1.5692467907589829,0.07247495051133308,0.0017368471381907736,0.7071673368069549,-0.7061168640189713,0.025024798284420932,0.026212431634556155
-2.2225631911305093,-1.0575810848940097,-1.8913000509370983,-1.4352786478367456,2.162082896513928,1.9636195458251986,7.0859394030222465,232.7293701198911,1079.3566786673773,-1.5692986093897388,0.07384486010481736,-0.0009746398704680674,0.7071664392741872,-0.7060826749574864,0.026465799833374517,0.025738001638189883
-2.2206132876290443,-1.0520490560013656,-1.949625372600198,-1.439886421650444,1.8903799932710623,1.9635952708192432,8.14680193437688,232.7048797174486,1079.3312774903447,-1.5694471356402375,0.0750453774456549,-0.005689935186760009,0.7071581218313264,-0.7060538422623014,0.028553023634369824,0.024496681325586585
-2.2237116720597037,-1.050493925643745,-1.9644836382846382,-1.4365899206459722,1.6478833697271489,1.9635641761034033,8.727159478254462,232.69541564164095,1079.3122501920818,-1.5696135404821183,0.07527901363401919,-0.009985331644283836,0.7071476662499204,-0.7060462156624455,0.030150012113486488,0.023062875700719583
-2.2267326993295873,-1.0505656845382116,-1.9706216737579088,-1.4342761977581757,1.451631406100822,1.9635400730375714,9.127754694783489,232.68908923889398,1079.2974860225681,-1.569752702444682,0.07534787416789085,-0.013470886105301831,0.7071369071654227,-0.7060407237304985,0.03140326249760693,0.02185694542109094
-2.2204691055452197,-1.0351657973273407,-1.9691308669479355,-1.4338922350709953,1.3633136478911703,1.9635304818266417,9.48847193219013,232.67888680968085,1079.2913091589548,-1.5698105393628636,0.07558525631852205,-0.014906053605956199,0.7071294492236762,-0.706034667124812,0.03199316324645979,0.021434280115315528
-2.1985441807611115,-0.8949175515117797,-2.026045779990619,-1.4556695745191854,1.3421193200392445,1.9634918891631985,12.204770231489716,232.57567228709004,1079.2754268235067,-1.5697358729959603,0.07940512352119423,-0.014887177423449817,0.7071133018797972,-0.7059462313411073,0.03333710190015832,0.022788909513996147
-2.181160150558305,-0.6631008288382095,-2.175058476332247,-1.4891498280053908,1.330759210041152,1.9634888198207592,17.19669109422162,232.3870114701388,1079.2193569572996,-1.5695758484882372,0.08663438557164285,-0.01476853582325141,0.7070811491113814,-0.705766760878936,0.03585148370930348,0.025381074162150973
-2.1785922897022085,-0.5847015390066939,-2.220863964163277,-1.4957193006768466,1.328554267318473,1.963488365329771,18.84780687627223,232.32466309624616,1079.1952243329658,-1.569524572106662,0.08891624819056214,-0.014757651611769375,0.7070696317164341,-0.7057075045542026,0.03665450642836612,0.02618971322407029
-2.179358784100136,-0.5355758996164003,-2.2405169248271037,-1.4965336265430633,1.3276525627679427,1.9634899735957738,19.807837619405856,232.2880312678056,1079.1810852146064,-1.569497082318928,0.0901305936332886,-0.014784285418031317,0.7070636253201998,-0.7056749267493722,0.037093294898755944,0.02660855087895857
-2.178659271596325,-0.5137382061844268,-2.24912355566033,-1.4968579413801246,1.327254855350581,1.9634911457830653,20.229191533784153,232.27215160411788,1079.1745067476202,-1.5694849377999887,0.09066749207018268,-0.014777910603520586,0.7070606434152078,-0.7056607783349756,0.03728089138931412,0.026800141607213387
-2.179421159401376,-0.5067470891636849,-2.2518712903302376,-1.4969551411371713,1.3271281456596802,1.963490827499553,20.368001718060505,232.26672261416587,1079.1723605230582,-1.569481056369856,0.09083911451968825,-0.014793064264768067,0.707059909843047,-0.7056559244854086,0.03734692314786678,0.026855306045042347
-2.1806555745839793,-0.5018938945050323,-2.253130214810866,-1.49603852886732,1.3270839398121452,1.9634907753016586,20.45987462898346,232.2629777291218,1079.1710938162364,-1.569478983862497,0.09092976882831036,-0.014815191076522998,0.7070597182745966,-0.7056530862587234,0.03738678540075797,0.026879451712869967
-2.1811138157738577,-0.4924056075251316,-2.258336929470545,-1.4966916893701545,1.3270695248986606,1.9634914162170924,20.65923400986462,232.25529261186537,1079.1677166487514,-1.5694727461915299,0.09119758394503755,-0.014822872820666324,0.7070584103765211,-0.705645729143009,0.03748419641451779,0.02697117493207006
-2.181244528596675,-0.4725804143627613,-2.2805458445989113,-1.4968871456942934,1.3270553045311713,1.9634913017609588,21.16752277876667,232.23590637854517,1079.1574694185445,-1.5694555570289377,0.0919344281003191,-0.014823830232612743,0.7070544849643133,-0.7056257895318707,0.037745085717543606,0.02723066182722411
-2.1813065111116017,-0.4640703440891983,-2.2899955415134827,-1.4969868709552026,1.3260379235257274,1.9634910855340295,21.38679520805196,232.22758206965327,1079.1528942671637,-1.5694492326483627,0.0922495606840839,-0.014842057391257017,0.7070526580356526,-0.705617258309179,0.03786293452067343,0.02733535678272654
-2.1833611728581652,-0.46230859296564303,-2.3227901630678307,-1.4960066675125279,1.3256998637555941,1.963489789397911,21.703381080339362,232.21507615416544,1079.1433019774058,-1.5694359093706447,0.09283540268551384,-0.014882577059984949,0.7070498639965962,-0.7056006664551983,0.03808438065229357,0.027527609244289684
-2.1872625325204265,-0.4715408340891472,-2.4365078047809368,-1.4840344401888474,1.3255905459152753,1.9634831477807684,22.526056653983943,232.18278525768372,1079.1130196363993,-1.5693983608912612,0.09444951341546277,-0.014949062387151733,0.7070415556664912,-0.7055551712992049,0.03867858481255382,0.028073223729309565
-2.1865093654222134,-0.4833726803757428,-2.5639005915419513,-1.3216293481237098,1.3255645474932338,1.9634790885255184,23.14389831904175,232.15937646948507,1079.0873551254124,-1.5694174588821568,0.09363207900534355,-0.014938163531151169,0.7070461037603099,-0.7055778657189192,0.038385695037598,0.027788864341318074
-2.181026722613715,-0.4777351495146989,-2.754741396681855,-1.073601932631333,1.3255867379408324,1.963468404917265,24.41681146543298,232.11226483843953,1079.039790760879,-1.5694384187724963,0.09273243344188005,-0.014844037257212868,0.7070498677673922,-0.7056042445370626,0.038034372119338224,0.027504928992492992
-2.175996447339012,-0.42912879126895764,-2.7524712396244126,-1.025985186946132,1.3255481545518124,1.963485107487262,25.071243435435974,232.08876868774263,1079.0299889685944,-1.5694389794356787,0.09271038217820261,-0.01475696616482248,0.707048775975801,-0.7056065164824368,0.03799585516837714,0.027527936331410673
-2.174583365220645,-0.34739378238608476,-2.7522720584325246,-1.0068753493745473,1.3255292877022478,1.9634954055083524,26.337141919807312,232.0411018183219,1079.007173312848,-1.5694135891142276,0.09379980766086302,-0.014730267353004848,0.7070422329799088,-0.7055772716873945,0.0383716601020135,0.027921499995036566
-2.17581340769913,-0.2501168254569984,-2.740478672508464,-0.9999628669001939,1.3255157556259092,1.9635014229513068,27.783943055388832,231.98575730528785,1078.9808686775555,-1.5693816148815687,0.09517086738457867,-0.014748954645253049,0.7070344344745059,-0.7055391610300794,0.03886306151298788,0.028398295197509638
-2.173416708548338,-0.1499573780107209,-2.7314278319369905,-0.9955527931719911,1.3255198644291233,1.9635122258303648,29.28991944916015,231.9293968272713,1078.950050200912,-1.5693463034118416,0.09668382250114435,-0.014703670365425173,0.7070245088541819,-0.7054979994811482,0.03938206785841694,0.02894770006055378
-2.172587967856175,-0.09359237523311699,-2.72765088369278,-0.9929599593615903,1.326514330661782,1.9635199866375368,30.148865769121464,231.89706731485649,1078.9312107346334,-1.5693248357150436,0.09755627821064222,-0.014669801823116026,0.7070188658577218,-0.7054738541610256,0.03967863622222688,0.02926722132340308
-2.1732623781373377,-0.07408892957418473,-2.726564128946321,-0.9949510264727385,1.326815060170396,1.9635221080051164,30.45694652489786,231.885112607895,1078.924208672522,-1.5693161802917437,0.09791239378217464,-0.014675489714864043,0.7070167696414347,-0.7054636126009262,0.03980656931944351,0.02939074311508934
-2.1757697286319764,-0.0674403042533435,-2.7262224107747914,-0.9971121498940967,1.3269598642622384,1.9635250179132369,30.573935345425753,231.87971453420272,1078.9216870241555,-1.569312565131805,0.09806019587419103,-0.014716375315041165,0.7070164682741491,-0.7054585791853766,0.03987325576643308,0.02942838965155184
-2.18031781870823,-0.1865080754636507,-2.7343682768157183,-1.01863676010777,1.3279893031878671,1.9635216434059801,28.794682005159093,231.94568606820454,1078.960534584719,-1.5693478977440574,0.09650025575934011,-0.014781254864954742,0.7070277255318452,-0.7055006451565565,0.039344565642025583,0.028855504975456626
-2.180120864834754,-0.5087263355657697,-2.4789676721598344,-1.179375532616149,1.3294290939330935,1.9635045540275422,21.73048240796073,232.21462123791946,1079.1277494080189,-1.5695165002650098,0.08922596408302112,-0.014768366233198217,0.707068549369908,-0.7056987743804279,0.036767816354823936,0.026295132827077253
-2.179761509475809,-0.7970957931246834,-2.131076010870925,-1.2464492560983038,1.3309393974250652,1.963491416227335,14.249101124087185,232.49940027785055,1079.2556376824973,-1.5697473014821968,0.07929420303584198,-0.01475519198556822,0.707109029791093,-0.7059543142845771,0.033251190563886784,0.02279658871356513
-2.177323632294756,-1.078550379449437,-1.8271095213902477,-1.2687808322551293,1.3303411357338077,1.963492222953985,7.171323356691461,232.76874988493879,1079.3108389804495,-1.569977075894454,0.06946912293989058,-0.014740151801135394,0.7071313845165008,-0.706190494397196,0.029771601215166133,0.019335004936788053
-2.151353826329852,-1.24846365570497,-1.657624598597117,-1.2776428641366697,1.3311525373709998,1.9635015415884869,2.9088289092349973,232.9281045502901,1079.3140151763512,-1.570111111382961,0.06370189154784732,-0.014281657032543164,0.7071329506451733,-0.7063270936578123,0.027570346205151877,0.01746146863487508
-2.110831057993561,-1.393388913723934,-1.5242368079009188,-1.3291647599944991,1.3304073813294202,1.9634823842283882,-0.6268661625400468,233.05437907653913,1079.2998590664263,-1.5702036941878839,0.05974438361415401,-0.013593112949231644,0.7071278830627045,-0.7064219450830213,0.02592774375210103,0.016307808077862432
-2.099734394874059,-1.4847697124938721,-1.4355556416732953,-1.3437630134905765,1.3302196209127033,1.9634802727827623,-2.8683727113190547,233.1347879230275,1079.283950810804,-1.5702710079605782,0.05685724215356856,-0.013406637985471573,0.707125503787797,-0.7064847428590527,0.02484095697647802,0.015354375816857758
-2.0970138447543865,-1.5406697465683579,-1.392959645152368,-1.3464910701059059,1.3301666277457933,1.9634844477609799,-4.133923963771773,233.18058787877095,1079.271605868761,-1.5703099289922802,0.05518630034594359,-0.01336225936380503,0.7071240191546265,-0.7065195425019152,0.024234426167597994,0.014780060413240686
-2.096940689803984,-1.5868725816082112,-1.3516431024122946,-1.347586615311395,1.3301497269816815,1.9634841638568805,-5.225557643232675,233.2205424055532,1079.2597967557494,-1.5703450331568822,0.05367832229134563,-0.013363187343370143,0.707122576338993,-0.7065500093262242,0.023701529841355012,0.014247239592167971
-2.0968768034410457,-1.635906266981239,-1.3241384295985938,-1.3480138849860284,1.3301391297877094,1.963486304070585,-6.245074756916585,233.25785583227977,1079.2464801047734,-1.5703759416187126,0.05235032917528605,-0.013363895047372142,0.707120973038834,-0.7065765069068796,0.02323220312348937,0.013778030117320528
-2.095906373931277,-1.6580331337370111,-1.3120755659078043,-1.348220975298903,1.3301409659846124,1.9634834004703485,-6.7059633686409805,233.274472411327,1079.2401004225999,-1.5703897382966183,0.051757329592780836,-0.013347643681249499,0.7071200454890015,-0.7065884274955806,0.023016779085391605,0.013574361034292626
-2.097631845051457,-1.6711572578166636,-1.3039201219058763,-1.3481530040867273,1.3301348707243073,1.963485941574,-6.978864768775777,233.2849273560535,1079.2361473349965,-1.570398406977364,0.05138488968533504,-0.01337831203741689,0.7071197062194249,-0.7065954142956425,0.0228959210911625,0.013431990541646248
-2.0982166614113287,-1.6788613994712793,-1.3095189935940459,-1.3461208296683864,1.3301362069265892,1.9634854084233666,-7.055167369710792,233.28788127222495,1079.2343403924128,-1.5704000862888337,0.05131268783058615,-0.013388581887101124,0.7071196665289942,-0.7065967164963829,0.022874019235069175,0.013402861205291845
-2.081771478447493,-1.693018682819959,-1.3134625209934307,-1.3447346918238248,1.330102803734709,1.9634880094132254,-7.317010922197429,233.29293204122013,1079.2306669257448,-1.5704048053525788,0.05111033174836701,-0.013102383757159398,0.7071174377062961,-0.7066039509403059,0.022701353115370786,0.013432586272324513
-2.068744875217718,-1.7006649365043975,-1.312522490969084,-1.3440512713591817,1.326909411998652,1.9634799708270287,-7.4960156389795145,233.29594131347469,1079.2283975325713,-1.5704094992195234,0.05094846981887421,-0.012930993484436756,0.7071157160571773,-0.7066093828968815,0.022583560204542413,0.013436030497194508
-2.0640445478419194,-1.689955033141356,-1.3159046592486217,-1.3436323271638795,1.32452292378439,1.963488767050075,-7.311469667701735,233.28808083931705,1079.231469774015,-1.5704046674068262,0.05118721666848295,-0.01289035679034873,0.7071155383075851,-0.7066054347124233,0.02265361868579845,0.013534721248685985
-2.059717027641763,-1.6155856128603396,-1.3669687000149648,-1.3417735211448811,1.3232452745765941,1.9634829014470228,-5.702814720739603,233.22909138472116,1079.253097848688,-1.5703551316576068,0.053343331558083476,-0.012834535120154549,0.7071176276220936,-0.706563747611916,0.02339629844860701,0.014315882285434742
-2.056578232719363,-1.5149387795983842,-1.4311566092234858,-1.3397424057310043,1.3226769969220287,1.963491768317314,-3.558023337159173,233.1513242818827,1079.277469012323,-1.5702895731168256,0.05618419152630079,-0.012786080541498504,0.7071193527182189,-0.7065072234750323,0.02438372729709057,0.015336167450479566
-2.0548516035817292,-1.4134051651894384,-1.4991506541313273,-1.339156090175924,1.322517440153729,1.9634916388150483,-1.3587980126124468,233.0720645803356,1079.2965866359589,-1.5702213935532425,0.059131986219567466,-0.012754800281389466,0.7071197893077807,-0.7064468208613484,0.02541505695773346,0.01638803661360264
-2.054382830992655,-1.3892399521209413,-1.5155347014927525,-1.3390359147904005,1.3224804412448714,1.9634923758958156,-0.8338485079326903,233.05315601208432,1079.3003023307563,-1.570205076034063,0.05983743170181617,-0.012746294125595664,0.7071196526016165,-0.7064321557225991,0.02566150981595569,0.01664010756144492
-2.054041721165232,-1.3806337690879376,-1.521063738488579,-1.3389598944148973,1.3224700248089845,1.9634964035538638,-0.6502891712898946,233.0465183152166,1079.301554833259,-1.570199400406123,0.060082815910245085,-0.012740182227911455,0.7071195574002542,-0.7064270751596129,0.02574612321344353,0.01672890202557402
-2.038475269340477,-1.4082415335980647,-1.514294770136103,-1.3351224102476602,1.3234662075882437,1.963488794324066,-1.2215673168473766,233.06437301334466,1079.2972830016188,-1.570214401615542,0.05941588717025091,-0.012452011224474948,0.7071174191824455,-0.7064445901416301,0.025408500944888897,0.01659531946410566
-2.030355177735488,-1.5231000330609572,-1.444151372949541,-1.3328101958968603,1.3261173153250196,1.9634870213539264,-3.701773138615283,233.15084629483906,1079.2760378450807,-1.570289105167314,0.056147458839104845,-0.012268345183170248,0.7071158094309097,-0.7065137907314125,0.02418785557133532,0.01550623107203598
-2.0273448259769076,-1.6151163452173234,-1.3683063938624236,-1.3350806839822196,1.3289203176227689,1.9634826798029843,-5.8371116002941825,233.22569292272325,1079.2534025013802,-1.5703552219797814,0.05325803227935283,-0.012170508188699395,0.7071134240458806,-0.7065724954106153,0.02313155948663722,0.014520510288656469
-2.0257412863278925,-1.6387772428577962,-1.3500152168480282,-1.336609607404326,1.3296522598518847,1.9634834238694374,-6.377539994967397,233.2443843318726,1079.2467823616166,-1.5703713866730953,0.052552712830293155,-0.012130603353688008,0.7071125087284673,-0.7065867783498528,0.022868054961758585,0.014285542452943186
-2.025064789506,-1.6506291613309012,-1.355023310787971,-1.34042948553865,1.3289046057070393,1.9634859865398562,-6.518894201683882,233.2492399199236,1079.2439706485707,-1.5703728522390248,0.052499999494325746,-0.012131920033892688,0.7071123768752021,-0.7065878837873574,0.022849878483304293,0.014266464457055358
-2.023887563589258,-1.667480005901416,-1.4758274639054436,-1.339639859127743,1.3287134832226744,1.9634775808410845,-5.757639883188706,233.22204292554483,1079.244094253166,-1.5703310667411683,0.054299915165842746,-0.0121124784535711,0.7071138596797697,-0.706552494031947,0.023479480979708582,0.014908943588925616
-2.020511449560623,-1.6712773239732908,-1.544901864376085,-1.3424382227793008,1.3286563696161986,1.9634695128081594,-5.234451519245255,233.20276306867453,1079.2448115457573,-1.5703034699436464,0.05548759545368298,-0.012053036692320405,0.7071141681323793,-0.7065293835323543,0.023878464216690667,0.015349344562463802
-2.019355123881661,-1.6714295722112886,-1.5686605299533987,-1.3443276588296171,1.3276562378514303,1.9634666209945801,-5.032709072210501,233.19541852400206,1079.24514009735,-1.5702935045834459,0.055932420472934195,-0.01204975172225699,0.7071142290441231,-0.7065205730334563,0.02403459890551302,0.015507579413395582
-2.0190136845362776,-1.6705849602640737,-1.5755751778284164,-1.3448593247073926,1.3273576782258485,1.9634666635691924,-4.959819053988275,233.192781976094,1079.2454233580897,-1.5702902570527377,0.05607708887998614,-0.012048820315972358,0.7071142445658739,-0.7065176962558405,0.024085426393820063,0.015558992409576668
-2.018286102054122,-1.6675269658195275,-1.5733826689845187,-1.3453942313489924,1.3272079816850835,1.963452208158179,-4.931504042490411,233.19162282021142,1079.2460913302416,-1.5702897465569225,0.05610127279227439,-0.012038705190557112,0.7071141578224124,-0.7065173464178792,0.024090404617164364,0.01557110860278986
-2.0270688118909046,-1.665667707360182,-1.5219922033158375,-1.345220968698816,1.3271193142445175,1.9634710895855267,-5.307124216775107,233.20693937556865,1079.2456358737338,-1.5703099228594157,0.05523432961634505,-0.01219466200601222,0.7071149069071068,-0.7065329958586596,0.02383893232898373,0.015209848722294729
-2.027699031876825,-1.6693819860622874,-1.5032489356627976,-1.3462690336218737,1.328143251810637,1.9634722904443676,-5.5247310171980955,233.21475161511847,1079.244367643075,-1.5703182298167275,0.05486077651624401,-0.012188251234106441,0.7071147546530443,-0.706540447684258,0.02370457653311323,0.01508020522005815
-2.0332850306929333,-1.6704964555523907,-1.4980643296098461,-1.3474897657961913,1.3293287742266617,1.9634734295533138,-5.564236770041115,233.21745108809787,1079.2440186268004,-1.5703198643390426,0.05477217659227168,-0.012265147950422953,0.7071154231679254,-0.7065411639612195,0.023700414888355847,0.015021726947691707
-2.0356571060168456,-1.6681161500287618,-1.4940058548680641,-1.347073780709589,1.3288779242216087,1.963474906960277,-5.551283048857586,233.21758220323912,1079.2444724154425,-1.5703208755879274,0.05473566608471956,-0.012314470970056822,0.7071157101623992,-0.7065413695203164,0.023704927442466397,0.01499139796112544
-2.03562284355801,-1.6633947956492143,-1.4929641002471599,-1.3468958780616722,1.3274912468364848,1.9634736850902081,-5.48276564919816,233.2151945028816,1079.2455329163568,-1.570319952329974,0.05479675596417491,-0.012338019448859752,0.7071157544538922,-0.7065400395071976,0.02373484486533493,0.015004649795609892
-2.035601440123927,-1.6622898857090636,-1.4850583880444592,-1.3468176244132808,1.3271857302629548,1.9634744791810457,-5.532623552112883,233.21697376305994,1079.2455867412345,-1.570322849499123,0.05467674245457932,-0.012343135537001526,0.7071156690255465,-0.7065424257660812,0.02369421313179341,0.01496046373614863
-2.0346768767407437,-1.6601955926180019,-1.4833555754792869,-1.3468092845985298,1.3271203655593662,1.9634743443261202,-5.517410382430431,233.21621291407786,1079.2460448676325,-1.57032271756512,0.05468342591064032,-0.012328132243899715,0.7071155533330777,-0.706542477703361,0.02369127607862503,0.014968128574318786
-2.0351551789093247,-1.6586401705514748,-1.482751961299116,-1.3468072909767208,1.3270977988375556,1.9634743551526739,-5.495735509663624,233.21555883773613,1079.2464027012757,-1.5703223407575986,0.05469999921754,-0.012336853374913874,0.7071156275836521,-0.7065420448536219,0.02370021746923611,0.014970897533263267
-2.0353879611611214,-1.6587042168265491,-1.4816849518123678,-1.3468046370022784,1.3270867729097464,1.9634748598165954,-5.5049528070062435,233.21594285708153,1079.2463593748264,-1.570322804063662,0.054680226466161115,-0.012341133911710966,0.7071156440205513,-0.7065423921521811,0.023694737739192936,0.014962402104800807
-2.035508893712736,-1.6578553911899852,-1.4811051937138355,-1.3477088676074283,1.327081333521039,1.9634748394265298,-5.494279885586464,233.21559286040443,1079.2465525980124,-1.570322330596256,0.05470069856822158,-0.012343313617269674,0.7071156742893576,-0.7065419564169985,0.02370274693905905,0.014968860487378565
-2.0355767818044743,-1.6574191187302112,-1.479550105486157,-1.3481986186483372,1.3270795981518073,1.9634743890777335,-5.499515675494726,233.2157953545426,1079.246619490646,-1.5703225861063028,0.05468971442207722,-0.012344542741505564,0.7071156754829339,-0.7065421623176066,0.023699297020506216,0.0149645472570653
-2.035585789782134,-1.6572868982012954,-1.473286583995259,-1.3482840154578812,1.3270775290899526,1.963475139782087,-5.550955422104198,233.21762590958645,1079.2464862118009,-1.57032503655908,0.05458423496232252,-0.012344869877364554,0.707115601083193,-0.7065442733623523,0.023662113760383602,0.014927185133543987
-2.035589856420879,-1.6572453966435403,-1.4714020077353271,-1.3483111681176951,1.3270769613477302,1.9634754463642223,-5.566397227151207,233.2181757582338,1079.2464454386834,-1.570325772540562,0.05455255501565594,-0.012344990899412274,0.7071155785179595,-0.7065449067503801,0.023650954102241002,0.014915955630192407
-2.0355916559850487,-1.6572336511788226,-1.470478039677241,-1.3483287905815728,1.327076900588994,1.9634755336104193,-5.574099235172742,233.218449946271,1079.2464232126897,-1.5703261350375248,0.05453694701666649,-0.012345043129742704,0.7071155673165272,-0.7065452187922335,0.02364545337841279,0.014910425714569043
-2.0355922880598927,-1.6572331980451294,-1.4701153233163404,-1.3483377714684217,1.3270769806503582,1.9634755379904756,-5.577186141461797,233.21855981310046,1079.246413462106,-1.5703262781524843,0.054530782809262233,-0.012345060565190647,0.7071155628742724,-0.706545342038295,0.023643279800839714,0.01490824286255709
-2.0355924501491947,-1.657234432850685,-1.4700131715436935,-1.3483409707074308,1.3270770368308527,1.9634755296787032,-5.578076249787912,233.21859148695938,1079.2464103875247,-1.5703263187265917,0.0545290345346574,-0.012345064625323537,0.7071155616121063,-0.7065453769966654,0.023642663024617237,0.014907624080987749
-1.7076639043301327,-1.6234947911544713,-1.5106600775372199,-1.553775321151988,1.5328048002937518,1.8101256039042461,-6.024452997416486,233.1474335835896,1079.2641051778007,-1.570122591341243,0.056732801497454424,-0.003022120417537939,0.7070898655461174,-0.7065530450869871,0.021129807253689754,0.018980194037509127
-1.6540770087618446,-1.6181390812811072,-1.4667403299161894,-1.6267412189230779,1.6006278440451087,1.9085573780054221,-6.524680440369258,233.14662068911116,1079.2677304079664,-1.5700758979143736,0.059050135756977706,-0.0008996033004889935,0.7070624682138125,-0.7065344915260916,0.021199663005539257,0.020548786236914838
-1.6364618806831854,-1.616149478074661,-1.4514973511893603,-1.6520943381002156,1.6241925811515239,1.9428800267095283,-6.692192990813835,233.1461885121999,1079.2690026012137,-1.5700592648329859,0.05985997582529607,-0.00017959240973113952,0.7070524128528077,-0.7065276645044285,0.021231778265668553,0.021089247511890865
-1.629754557876961,-1.6154040940159846,-1.4465715716840963,-1.6618613008685135,1.6332327948307133,1.956069972323643,-6.748554098254463,233.14578369957434,1079.2695068697421,-1.5700523657794254,0.06018753147545794,9.578460813441826e-05,0.7070484576553135,-0.7065246739214848,0.021250369884443177,0.021302240425746122
-1.6271906182649964,-1.6151165032740529,-1.4436400540401244,-1.6656294209210054,1.636711582507657,1.961154374255525,-6.77903550740938,233.14587838517934,1079.2696755653471,-1.5700502154582452,0.06029583865991193,0.0002014249214538519,0.7070469336020189,-0.7065238862563183,0.021251363449206574,0.021377824604042084
-1.626378679915075,-1.6150144162388627,-1.4395574812008693,-1.6668256679018267,1.6378191846813692,1.9627764802483785,-6.815588408152234,233.14667131008966,1079.2696525241975,-1.570051102543501,0.06027556108935442,0.00023488828929686385,0.7070464794316474,-0.7065247704788199,0.02123236398258897,0.021382500856419316
-1.6261820093988908,-1.614987760712621,-1.4385558217348153,-1.6671193270411062,1.6380897944747486,1.9631734726638181,-6.8245183515049215,233.14686526199512,1079.269646843504,-1.5700513201115418,0.06027059955586977,0.0002430343179070735,0.7070463685651248,-0.7065249864917116,0.021227729940636247,0.021383630265322688
-1.6260705361181125,-1.6149769493237374,-1.4379867519230725,-1.6672894454815663,1.6382439456356837,1.9633999798775692,-6.829654927184165,233.14697726004036,1079.269642570872,-1.5700514441058957,0.060267779303254186,0.00024766489981304686,0.7070463054288589,-0.7065251093813618,0.021225095771831178,0.02138427231710431
-1.6267093868228302,-1.6148769316092388,-1.4373169453640406,-1.6674442746994573,1.6383237093783125,1.963469186201974,-6.831073421090943,233.14716354091212,1079.2696531763397,-1.5700516154884403,0.06026174670087673,0.0002378970966622819,0.7070464138515252,-0.7065251302797861,0.021226411858400743,0.02137868991418406
-1.6508572919441356,-1.6015295826823883,-1.4220967919957561,-1.66745130313046,1.6383269785077785,1.9634858963808395,-6.649951203409069,233.14763362137933,1079.2723836275745,-1.5700525478412442,0.06022948771592806,-0.0001835622368900958,0.707050916502177,-0.7065213155940103,0.021363882987843936,0.021218307859532028
-1.7107857607351862,-1.554495622665639,-1.3727200371824182,-1.6662606914822742,1.6383501647311272,1.963515101055285,-6.079711525883143,233.14471235161403,1079.2819255512973,-1.5700543058379788,0.0601683528287075,-0.0012292121807901584,0.7070619297593679,-0.7065113344933395,0.021711636445589117,0.0208270631691963
-1.7295034106937275,-1.4513698741135996,-1.3538765083661704,-1.6614565850619636,1.640113992257107,1.96352128424663,-4.527317462622483,233.10202401779762,1079.3037484361344,-1.570013680743116,0.06155502293622069,-0.001522652019790042,0.7070647790456216,-0.7064784947620592,0.022305931592583213,0.021212734092723097
-1.739961501166867,-1.3927922556713828,-1.31881767938947,-1.6592157114209012,1.6418756148886564,1.9635250090820657,-3.8557171897471894,233.0836497844282,1079.3148982547314,-1.5700021653858047,0.061926280701600375,-0.0016737350610806939,0.7070665038907217,-0.7064685770438586,0.022490667370118088,0.021290340688314716
-1.7449422236850585,-1.3564545981448894,-1.3041711969782657,-1.658394985139446,1.6415393287562061,1.9635267904368798,-3.380807762067445,233.0701502722685,1079.3215394014421,-1.5699918591314497,0.06229042460838236,-0.0017658923746418777,0.7070672392398102,-0.7064597868746423,0.022652060424309072,0.02138627787534768
-1.7462607509313284,-1.3464933996703043,-1.3002135077468886,-1.6581857185191895,1.64144802313086,1.963527993454096,-3.2502937528058213,233.06641704380547,1079.3233183045134,-1.5699889974801295,0.06239153388716811,-0.0017903196723241745,0.707067428645808,-0.7064573528322027,0.02269646303451847,0.02141332630033119
-1.7469222000333784,-1.341280190548064,-1.298164073884698,-1.6570878412874672,1.641400788831643,1.9635286963769247,-3.183638697329895,233.0645060534372,1079.3242414573251,-1.569987984474191,0.06242758870804705,-0.0018026250142776244,0.7070675318104008,-0.7064564460033613,0.022713566360898264,0.021421700749861595
-1.7470955305165856,-1.3398438612763168,-1.2976065290343368,-1.656791486046907,1.641387950242799,1.9635289760058192,-3.16523893979878,233.0639765990815,1079.3244950041903,-1.5699876986565167,0.06243775489401249,-0.0018058563519131657,0.7070675583935714,-0.706456192876597,0.022718304709624552,0.021424146302214644
-1.748029259071374,-1.3418986022005384,-1.2982595688649372,-1.6566770813396847,1.6422500698882043,1.9635290045804046,-3.1903973788229387,233.06486889952106,1079.3241721632992,-1.5699880349068964,0.06241129308979702,-0.0018071331075217368,0.7070677369328814,-0.7064565975479888,0.022709397478979716,0.021414351161639845
-1.7476218372673518,-1.4241201329545656,-1.3304358891212236,-1.6565493005891667,1.6408603527548042,1.9635256861429844,-4.228778651728212,233.09654715553307,1079.3088963950622,-1.57001387526671,0.06153593089984044,-0.0018258685243915049,0.7070681198411385,-0.706475387415604,0.02240628794782305,0.021098794768631184
-1.7491804141465725,-1.6271040000960622,-1.4169220447982742,-1.6627013111042352,1.6420660402885634,1.963509683579441,-6.718034149971323,233.17281366695485,1079.2663097273635,-1.5700686585564723,0.059610532198716835,-0.0018353514647785072,0.7070688652933931,-0.7065158796793646,0.021728412487916824,0.020415865995889147
-1.7486133956844894,-1.7853163400915222,-1.4463737177587266,-1.66466940210976,1.6425462517036646,1.9635051551434515,-8.995258704873528,233.24217313041552,1079.2261975785423,-1.570132057827884,0.057398410484685504,-0.0018207833959154945,0.7070684910176221,-0.7065620307416862,0.02094061188866164,0.0196401756095918
-1.747384792773916,-1.874201654793232,-1.4361735163118927,-1.667749749477513,1.6428127086863809,1.963496271930363,-10.504373252103667,233.2878529995167,1079.1994993300723,-1.5701801130494975,0.0557233361795517,-0.0017974075293326751,0.7070675037391908,-0.7065965376636301,0.020339723070639158,0.019057118964032
-1.7471958938663006,-1.8996914997185024,-1.4307715889883987,-1.666265456102952,1.6428845402432672,1.9634911035620206,-10.961839122952686,233.30174576025627,1079.1911825946609,-1.5701963268950259,0.05515840897974327,-0.0017937557095355642,0.7070670991871593,-0.7066080203229257,0.020138568347688023,0.01885897471436426
-1.7471809664828086,-1.9057669786797213,-1.4280707436783193,-1.665811725522214,1.642904430747031,1.9634894113621069,-11.083059793896748,233.30543771516332,1079.1890651500255,-1.5702009495684985,0.05499735073499283,-0.0017934025939523542,0.7070669800295915,-0.7066112766788251,0.020081463389572014,0.018802240565621218
-1.7471973668398706,-1.9068357019525082,-1.4258194160329807,-1.6656311237182728,1.6429118285196362,1.9634885995519884,-11.119731138537041,233.30656117124582,1079.1885632653275,-1.5702027028554237,0.054936263735878926,-0.0017936560788428136,0.70706693728442,-0.7066125066688039,0.02005994123872201,0.01878058508030075
-1.7471744372402027,-1.9060138503035768,-1.421579050937454,-1.6665649191321545,1.6429122895921913,1.9634894156414224,-11.141447208986625,233.30721626412037,1079.1885344205584,-1.5702039490440043,0.054892929323776825,-0.0017933162274341964,0.707066900823856,-0.7066133848797548,0.020044490059199845,0.01876540664066918
-1.7461497319523136,-1.9046280533277893,-1.4188870396729705,-1.6669284193104017,1.6429230525910457,1.9634887856069467,-11.145946659247171,233.30702639604158,1079.1887877300042,-1.570204418039581,0.05487647152744995,-0.0017752696707413185,0.7070667203150401,-0.7066138962997455,0.020032291591139322,0.018765976463616513
-1.7458589116096188,-1.9014727920377827,-1.417223795700025,-1.6670373147768904,1.6438323307298215,1.9634888742120389,-11.11233680145117,233.30586392947546,1079.1897063316069,-1.5702032870580587,0.05490439336235158,-0.001754265327911902,0.7070666604477676,-0.7066134273245432,0.020034752051972363,0.0187832563236507
-1.7457288857828677,-1.8966247983044502,-1.4164143004215435,-1.667089465083293,1.644269805161768,1.9634892452001445,-11.042954347964502,233.30368609657648,1079.191203187217,-1.570201075670363,0.054975761148894055,-0.0017442407758484425,0.7070666763288999,-0.7066120310927735,0.02005646077792698,0.018811994078548975
-1.7456738449525793,-1.880320600061617,-1.4134394259602152,-1.6671489801559671,1.6434693986196782,1.9634906766414724,-10.806478306095453,233.2965014660928,1079.1960959730736,-1.5701946469860364,0.05520937745719752,-0.0017568928221491998,0.7070668635111654,-0.7066072846570716,0.020143578583660837,0.0188899983029966
-1.7456873955961558,-1.8622020304671278,-1.40932408501244,-1.66715364540357,1.644072372365942,1.9634913848010813,-10.553027797195687,233.28875110357578,1079.2014607801289,-1.5701873945337552,0.055453766523106046,-0.001746206692031761,0.7070670093999537,-0.7066023634355754,0.02022626733979438,0.01898005044682079
-1.7456998889754054,-1.8399625289921258,-1.3983549824841814,-1.6671533281593154,1.644315397412022,1.963492414397549,-10.291877901502746,233.28078359472306,1079.2075451255382,-1.5701816461522757,0.05565040079186017,-0.0017418649354433876,0.7070671282534579,-0.7065983843836401,0.020294301492420817,0.019051001463763522
-1.7456892582694057,-1.8322855398171778,-1.3922039206966483,-1.6672182362982935,1.6434851048403647,1.9634946572614027,-10.220380546326885,233.27864273347527,1079.2094392619688,-1.5701811581258753,0.05567820271139717,-0.0017561402388521954,0.7070671716353016,-0.7065977848924296,0.020309178026452376,0.01905577258093946
-1.745631831851103,-1.8192089132089655,-1.3812216864227698,-1.6673609675472543,1.6440274132769281,1.9634969026161355,-10.106431348782793,233.27512554202795,1079.2126877404671,-1.5701798321713842,0.055717265148940154,-0.0017456012271645936,0.70706716703489,-0.7065970266366903,0.020319276457104105,0.01907328638968993
-1.746859680248908,-1.777589538628643,-1.3621730518175899,-1.667237749198421,1.6443460489123625,1.963499262645717,-9.6000811483587,233.26003601132462,1079.2238124507267,-1.5701684417784196,0.05610892442375267,-0.0017608347210190298,0.7070675863937188,-0.7065888535556261,0.020463225365519973,0.019206163332293618
-1.7460782074125742,-1.6986653865797445,-1.3556013372929576,-1.667235138554407,1.644420281709144,1.963500714051673,-8.39759009009426,233.22314732155917,1079.2456287346768,-1.5701320814357869,0.05737117053074859,-0.0017438381698818269,0.7070679945380389,-0.7065631288019145,0.020903798587109793,0.019657754760770512
-1.7468601192189432,-1.6790431123717697,-1.3540349390849589,-1.6672661976374097,1.644437024241964,1.9635040781705473,-8.094009095651451,233.2140995476831,1079.2508093724934,-1.5701229910223142,0.05768677533383067,-0.0017566702591982084,0.7070682197815764,-0.7065564747822469,0.021019992928336256,0.019764625356659113
-1.716323428183416,-1.6416614527260174,-1.511145359132509,-1.536503049522071,1.6240619187322463,1.8482267432928885,-6.46423750005488,233.15820354517965,1079.2637860418827,-1.5700998004902165,0.05678687648945528,-0.0015792640992295616,0.7070835126843702,-0.7065594899679195,0.02063941355393126,0.01950917308230534
-1.7762927073992762,-1.6416183926500958,-1.539998673205979,-1.4462580749520022,1.6410938761843867,1.937900482760114,-6.158513718261548,233.1620848703267,1079.264430983729,-1.5701231838094072,0.05728147515916723,-0.002329010159869345,0.7070777314384701,-0.706554782218458,0.021078906034199166,0.019419092369515518
-1.7863935753173465,-1.6415869193415056,-1.544869122721926,-1.4309460700012167,1.6439863232123377,1.9530988569868606,-6.1067768169073435,233.16269116579005,1079.2645180991165,-1.5701272141566833,0.057365087515729496,-0.002454887806215919,0.7070767172355555,-0.7065539958616566,0.02115289478898069,0.019404172679171248
-1.78987142891233,-1.6415867770216632,-1.5440466025997557,-1.4241173447264341,1.6452813067367382,1.9598739430038332,-6.113812273815945,233.16365890212944,1079.2644883252665,-1.570130527163999,0.057349838156709104,-0.0024931032950432945,0.7070760654015856,-0.7065549240911047,0.021160972475033166,0.019385309456823326
-1.7921709707933984,-1.641582603450647,-1.5426924216881284,-1.4216012646433946,1.645758742687064,1.9623635567174789,-6.121216374612276,233.16440472065676,1079.2644551322303,-1.5701322755065201,0.05732583649629897,-0.00252497861615762,0.7070759892408293,-0.7065554587293916,0.02116373148514997,0.019365578959228313
-1.7928361184850086,-1.6415847705235798,-1.5422995735158953,-1.4208724821337668,1.6458978161923756,1.9630861630362957,-6.123425270336733,233.16462268631795,1079.2644445992707,-1.5701327838100727,0.05731884088038288,-0.0025341817522787622,0.7070759665435512,-0.7065556150289248,0.02116450479072327,0.019359859104957886
-1.7930794704986273,-1.6415886777422692,-1.5421556035220467,-1.420604591828495,1.6459494173490152,1.963352783501875,-6.124288739898272,233.16470414799107,1079.2644400110275,-1.570132971830062,0.05731624017533661,-0.002537536364288963,0.7070759577824314,-0.7065556735063415,0.02116476869960758,0.019357756273636693
-1.7931671418069153,-1.6415919772980825,-1.5411789437514987,-1.420507993546907,1.6459682671329152,1.9634496749462949,-6.132567012200765,233.1649829137449,1079.2644178012908,-1.570133505331036,0.05729914932581043,-0.0025387670513621454,0.7070759467304846,-0.7065560298255688,0.02115915648625789,0.019351288564566825
-1.791992914827148,-1.63766718332893,-1.444183800164014,-1.4218949415732405,1.6448589468684836,1.9635066506239893,-6.902622627036036,233.1888553309998,1079.262546577763,-1.5701800036872984,0.05570064002255729,-0.0025402545542456676,0.7070747852461806,-0.7065891292274344,0.02059414588583555,0.01878647603773211
-1.7907694682037767,-1.514823882176237,-1.2434775359547767,-1.4195731986419573,1.643566826764399,1.9635110753093747,-6.667172574537606,233.18125533988976,1079.2842978162764,-1.5702207254412641,0.05430182082797572,-0.002543686860039462,0.7070734048018466,-0.7066177143322164,0.020100481185196833,0.018291437066616574
-1.7897421589313733,-1.4751596917986551,-1.1630089914463222,-1.4187127878720327,1.64320307789806,1.9635195610125102,-6.728415224487246,233.182936914467,1079.2898888346776,-1.570241753666183,0.05357508480947109,-0.002533237914139588,0.7070724850423381,-0.7066325056685664,0.019839688344578853,0.018038558562312776
-1.790093012685258,-1.4540391651241198,-1.115466360443074,-1.4183870496742275,1.6430194737455124,1.9635298037906947,-6.7974420554397135,233.18518920323513,1079.2924149162382,-1.570255231142133,0.053108619688615064,-0.0025432838560232236,0.707072003468163,-0.7066417773306495,0.01967821566176879,0.01787031815240191
-1.790198243555313,-1.446337410457655,-1.0954926294663614,-1.418317660737017,1.6429433601879884,1.963537524451525,-6.845232530054003,233.18671256081842,1079.2931402505606,-1.5702614455685433,0.05289344639355426,-0.002546777824593037,0.7070717585176504,-0.7066460520940155,0.01960332838620874,0.017793113355507206
-1.7912815959884827,-1.4439725180583134,-1.0904924466274775,-1.4172419790803452,1.6429191566765957,1.963540317043945,-6.8477400477113886,233.18705946644675,1079.2934061733285,-1.5702633144951728,0.05282875334614062,-0.002566206970943233,0.7070718462937312,-0.7066471559997893,0.019587306773285882,0.017763403659005268
-1.7940006090766152,-1.4506335154678303,-1.1151421514228215,-1.4178915202510656,1.6429343594517316,1.9635222520132714,-6.730567891064614,233.18406001341668,1079.2932204341234,-1.5702539622867508,0.05315360276924094,-0.002612902226435839,0.707072671607283,-0.7066402002254395,0.01971872665065372,0.01786158757688852
-1.8731625555163418,-1.5804078378701822,-1.4677587307810704,-1.418636921435759,1.6418428180559124,1.9634945363149474,-5.454687426831663,233.16200081847643,1079.2767161079944,-1.5701422395918054,0.05705386509602131,-0.004007432778407717,0.7070891868478726,-0.70654604120761,0.021591206963662752,0.018745486884072488
-1.9142245361680565,-1.7394309548136573,-1.6657786977267621,-1.4313262781821992,1.6425657285556554,1.9635221053998386,-6.110551923382854,233.19331921234811,1079.2434942247091,-1.5701160233248745,0.05795606103674435,-0.004709978721602983,0.7070965668235615,-0.7065192264198908,0.022158567169833568,0.018815572974314736
-1.9227110946826405,-1.8187435841918465,-1.7286306131263398,-1.521916137702752,1.6427531944721323,1.9635072128714508,-6.647678345710729,233.213403381896,1079.2256295389836,-1.5700787499167874,0.05924906359741905,-0.004852643294771337,0.7070987847315442,-0.7064899686170242,0.022666393751695792,0.019221536592649465
-1.9292539070814865,-1.9009074580103738,-1.75566937222724,-1.599092784548435,1.6428435843457339,1.963496914745689,-7.568761541257419,233.24607983394336,1079.2052111876947,-1.57006764394565,0.059633595997674295,-0.004964600177439608,0.7071000784591116,-0.706480396179366,0.02284198019219605,0.019317680975308484
-1.9314686282483058,-1.9429553216238606,-1.7636054981211917,-1.6800637094535822,1.6419246310374869,1.9634822440548054,-8.021533763443472,233.26199103824655,1079.19428006961,-1.5700445467404989,0.06045086211158606,-0.005017901999670751,0.7071007997570564,-0.7064622262727001,0.023149934288603756,0.019587301375760195
-1.933012267650142,-1.955058636642784,-1.7648929887884581,-1.7135415839978638,1.642456684747142,1.96347397416028,-8.140415095419392,233.26640492057305,1079.1911003811108,-1.5700329313392083,0.06084607527765285,-0.0050348568185127444,0.7071011820230644,-0.706453336730059,0.023295743890064707,0.019720794131056218
-1.9337711826377757,-1.960818008426029,-1.7498756182737543,-1.7468047130630044,1.642712125173594,1.9634682753948471,-8.300855710754787,233.27202134548318,1079.1891967892573,-1.570026545746636,0.061063811182708254,-0.005043256779603053,0.7071013676281108,-0.7064484422251313,0.023375742904328176,0.0197946715004616
-1.934142114985607,-1.9647338869587954,-1.7191054333969942,-1.7897875608698681,1.6428420252576756,1.9634648484445607,-8.551444659236102,233.28058198538568,1079.1872873162376,-1.5700223203259625,0.06120849615753448,-0.005047206286111535,0.7071014641855596,-0.7064452102572963,0.02342832542585054,0.01984433971948989
-1.9356312374568914,-1.9872698024113264,-1.6278488248126244,-1.8032602433333316,1.6518864357477112,1.963466987187834,-9.681079854874149,233.31873396780952,1079.1773599892551,-1.570068688068217,0.05945822894310617,-0.004918191032734118,0.7071009552035726,-0.7064832926539094,0.02276358455951399,0.01927214490106423
-1.980166856342285,-2.0251688720941834,-1.5444897473102874,-1.8009810602582288,1.7898135121898573,1.9644605644369928,-11.06464163996619,233.37308998834152,1079.1659514738092,-1.570075484007715,0.0573186675752646,-0.003289285558465572,0.7071034693835075,-0.7065273176733327,0.021431750427375874,0.01909222461504135
-2.0040208012727017,-2.050814136718819,-1.5008527912956071,-1.8002745455437885,1.9580205628414802,1.964815811217024,-12.045510547952782,233.4058302252171,1079.1602309119678,-1.5700496104686874,0.05610183427452989,-0.0007691156345438099,0.7071000270728786,-0.7065569732635257,0.02011150931243521,0.01955306726310721
-2.0140353926553933,-2.0618985121861906,-1.4814667195586508,-1.800026035111968,2.067627634605888,1.964968419272777,-12.539206775052811,233.4200317204446,1079.1586040345278,-1.5700272207148014,0.055567233003698445,0.0009699082649176112,0.7070960376922883,-0.7065714598828442,0.019308356212729364,0.01997881225835857
-2.017002784683081,-2.0653360264221012,-1.4755062132479633,-1.7999816953372538,2.0998212360664827,1.964953717541167,-12.689252092346178,233.42435475976202,1079.1579663306713,-1.570021304289071,0.05540185175099066,0.00148020344925157,0.7070946731128221,-0.7065758496452199,0.01906966278230607,0.020100744139855947
-2.017103639630528,-2.06669692700537,-1.4721667759592418,-1.7999610926737888,2.1092345797083376,1.9639588653897075,-12.75565041581925,233.42612880241344,1079.157486412804,-1.5700208723258677,0.05530202074379476,0.0016427109945004814,0.7070941961861852,-0.7065781914211868,0.018976958578158967,0.020122926499397
-2.0123302021003364,-2.067085259597918,-1.4693307111162053,-1.7990021991815561,2.094673140881295,1.9636823600976263,-12.782002841207193,233.42623690674606,1079.1565078590982,-1.5700288988532811,0.05522442777866027,0.0014714871300763334,0.7070938590613272,-0.7065801393880543,0.019009935662614122,0.02003505543343243
-2.0145644785119954,-2.0672575597537635,-1.4640166326906296,-1.7996741546935555,1.880427897916744,1.962528151132863,-12.447732197344067,233.42822211446128,1079.1481658248417,-1.570110127074198,0.05512302217469017,-0.002310468757758227,0.7071027323566902,-0.7065726776428513,0.020309419139759866,0.01866292036418776
-2.015257964619364,-2.068267463389264,-1.461496102778542,-1.8017894196073685,1.653252300242802,1.9631302010364047,-12.08418032624505,233.42786324559202,1079.139378914592,-1.5701937165943074,0.05511139583490142,-0.00629126926539014,0.7071090488252334,-0.7065605344115372,0.021710909378818984,0.017252266387380602
-2.01554222354868,-2.067620640584081,-1.4604471740481124,-1.8037333814739724,1.5565231096626322,1.9633687799299575,-11.910190685942581,233.42655309315649,1079.136034231689,-1.570228232500276,0.055143447354729036,-0.007986005088363023,0.7071109532266503,-0.706553729553525,0.02232066033472591,0.01666478932132383
-2.015620168347447,-2.0684116529818866,-1.4486010760495143,-1.8060291970755618,1.5327932686112564,1.9634214796152842,-11.978927419448128,233.4301122204034,1079.1339285791314,-1.5702417309719028,0.054964175551630065,-0.008402182058046083,0.7071111158495572,-0.7065558522911499,0.02240420624076925,0.016454451611704418
-2.0167426424451502,-2.0743490859576204,-1.4347570608250273,-1.809390492106184,1.522646903237081,1.9634468339151798,-12.164586580278542,233.43751609565993,1079.1303126548196,-1.5702530348758992,0.054678231539624166,-0.008599442124459226,0.7071110789859713,-0.7065608403127305,0.02237272805089046,0.016283794134806382
-2.0170136929968576,-2.075828889783653,-1.4314446854032346,-1.809268507144333,1.5211610889061669,1.9634522993433472,-12.21319229779234,233.43939297378233,1079.1294424229582,-1.5702558471864498,0.05459260293812931,-0.008630253342867853,0.7071110328133434,-0.706562447184483,0.022353322851247578,0.01624267403567987
-2.0161308905271955,-2.0764240410999277,-1.4291149202378912,-1.809239433080707,1.5192539770488696,1.9634528025165463,-12.243030324694878,233.44021653449846,1079.1289576870145,-1.5702578948314747,0.05454109098373251,-0.008648235725990076,0.707110873689313,-0.706563545564155,0.022341451034919184,0.016218136631595746
-2.0120460276070045,-2.0737909801240897,-1.4217165689219537,-1.8092340913614764,1.4506518080093045,1.9634491319335003,-12.161837927058636,233.43899831905762,1079.1268356734959,-1.570284315405153,0.05445842017766326,-0.00977546919044799,0.7071112221880723,-0.7065611215260265,0.02271024858766761,0.015790681196849832
-2.0114095427697847,-2.07178020800347,-1.4169501693388367,-1.8101894616523622,1.2286314786378123,1.9634396222403785,-11.785673032933655,233.43458982062,1079.1193640963643,-1.5703633402575568,0.05442867218559781,-0.013642857512094233,0.7071127324263534,-0.7065441841181381,0.024065394787699357,0.014413753955268522
-2.0122513991119098,-2.0733056639534366,-1.4095477829012601,-1.8096382237997257,0.9958042160632015,1.9634184719640864,-11.466499406946971,233.43153035795893,1079.110137277466,-1.5704482645708242,0.054264478772995596,-0.017724946852041675,0.7071117420436495,-0.7065257112842667,0.02544885757356899,0.012913528040657278
-2.0136457170970523,-2.0782574447108164,-1.3980654567403654,-1.8094031616196724,0.8804916983516871,1.9634020026724712,-11.438533036962482,233.43430983967784,1079.1036100350257,-1.570493047429213,0.053973953419854906,-0.01976389129481432,0.7071104847700886,-0.7065190264492659,0.026066192826533607,0.012090541134358729
-2.0139857941239483,-2.07951913897158,-1.3875360442352849,-1.8093712714325183,0.8520158477505253,1.9633902888329327,-11.498232034615274,233.43727461433733,1079.1014264233088,-1.570505930537534,0.05376756980962668,-0.020267422347804487,0.7071101816011593,-0.7065197004303583,0.02617106430724233,0.01183973702403426
-2.014042204555218,-2.0798285896771427,-1.3804334195513506,-1.8093733124565796,0.8453225104961505,1.9633866405739189,-11.552253302734538,233.4393661810609,1079.1005608250118,-1.5705101240953232,0.053638224508825626,-0.020385430717575818,0.7071101595691971,-0.7065213312023485,0.0261670215041311,0.011752351921562786
-2.012951958944266,-2.080275652862333,-1.3755638616668044,-1.809374205097139,0.842021663859209,1.9633848705958328,-11.599884549978245,233.440748836723,1079.0999263851063,-1.5705126081163112,0.053545443135678404,-0.020424135293589423,0.7071100535149073,-0.7065229165411914,0.02614789436332029,0.011705906228839817
-2.0127133894724243,-2.086206403444562,-1.3715914233714999,-1.8094448960736182,0.8413469037059759,1.9633795061362607,-11.728462757417702,233.4452022320478,1079.097542432135,-1.5705153610628602,0.05337376191688587,-0.02043189321560724,0.7071101290411259,-0.7065260303263521,0.026089953248173963,0.011642517693227052
-2.0126371189142445,-2.089556558408532,-1.3584003759042231,-1.8104877708558411,0.8410815378707746,1.9633802407942889,-11.89323407301813,233.45097280305785,1079.0953159826586,-1.5705194292666746,0.053103308386257445,-0.02043540919657766,0.7071102810909365,-0.7065309441208344,0.02599560350504053,0.011545734001259227
-2.0136844158383154,-2.0906153520505515,-1.351048482457507,-1.8108443568833361,0.841006754073505,1.963401456789343,-11.968220616361057,233.45397862103397,1079.094345751293,-1.5705215217469461,0.052963123622380245,-0.020455103786730006,0.7071104630954231,-0.7065332485297727,0.025953012697304843,0.011489248664569601
-2.0139567561874134,-2.090872632628771,-1.3367336643351926,-1.8109158755062764,0.840983344960516,1.964343752643434,-12.093874112514364,233.45849368716978,1079.0930738234215,-1.5705252519615662,0.052726514339321455,-0.02046045806639292,0.7071105309869632,-0.7065375631533813,0.02587127359487685,0.011403772323029273
-2.014082889407513,-2.0910203714341873,-1.3236238885299145,-1.8109908880956271,0.8409798151282258,1.9636938139609723,-12.208061456907005,233.46255408531533,1079.0919129308413,-1.5705286375672816,0.052485117545616716,-0.020462902175171563,0.7071107208959705,-0.7065418457426114,0.025786816595772793,0.011317627775324725
-2.015106987882471,-2.089942231066823,-1.3074658961012313,-1.8110890754378983,0.8410141814950102,1.963484903577285,-12.325168358162925,233.46703857640296,1079.0908988541432,-1.5705324729368062,0.052220020046970635,-0.020480378024696974,0.7071109588514932,-0.7065463886300327,0.02569929227143332,0.011217796696669655
-2.0161916205180255,-2.0516953703365006,-1.2733441752224697,-1.812756908723616,0.843484579961144,1.9634260594200024,-12.003408209891635,233.45603712539898,1079.101578782296,-1.5705302063707167,0.052320077117902555,-0.020456080687641275,0.7071110603697944,-0.706544613429069,0.025726078231703243,0.011261724374566365
-2.0170852550451084,-2.024556580098628,-1.2271414459063363,-1.8127147907191299,0.8449248979288948,1.9633977727865424,-11.96484793612587,233.4549575730546,1079.1070938719931,-1.570534679809449,0.05198614944220209,-0.020446776610748545,0.7071112997552925,-0.7065505991385486,0.025604767233219514,0.011147040426564173
-2.052733821886105,-2.0118944153283707,-1.0651141946022233,-1.813225266867772,0.8465848662095047,1.963353654981466,-13.009211792227878,233.5049527690447,1079.0953214986137,-1.5705726279328307,0.04938765279046212,-0.02104191628302211,0.7071148000717359,-0.7065893056646668,0.024896587531689815,0.010018611136777935
-2.0634672138259336,-1.9532128882056918,-0.9795356410429941,-1.812881143630961,0.8469548825774389,1.9634904388775798,-12.76272140351695,233.50007126682465,1079.1073099488312,-1.5705795708965435,0.04891464293095768,-0.021223132615705326,0.7071155878505981,-0.7065953846924021,0.024793426791198708,0.009787427550133204
-2.0669357017418646,-1.9307242258672963,-0.9367683991767297,-1.8128645782093795,0.8470906369277655,1.9645427278134666,-12.756209377347869,233.50111508705376,1079.110572327295,-1.5705847820836045,0.048578829980906034,-0.021281550036896767,0.7071156631552667,-0.7066006587916861,0.024695372481294782,0.009648134205776782
-2.139308751936131,-1.9213540907169904,-0.9361061964581667,-1.8129899943373065,0.8471255962632291,1.9648072443162214,-12.316978107235961,233.51165145285583,1079.1139448047456,-1.570582489888298,0.048737600681340795,-0.022543975489091515,0.7071216889868431,-0.7065821216346533,0.025197497757224855,0.009257886229631723
-2.223588056874344,-1.8962529454999668,-0.94350672174718,-1.8122370301390858,0.8463114180931689,1.9648769449383192,-11.508627167423551,233.51148789932822,1079.1238902983894,-1.5705744959520114,0.04929287915832011,-0.02402874346904782,0.707128737725272,-0.7065532261786084,0.025918292367750353,0.008929108600725018
-2.288917303170258,-1.8197325961841875,-0.9453911144411226,-1.809525259347097,0.8457917096577652,1.9638593682482535,-10.006794179729077,233.47508534116932,1079.1507159565028,-1.5705550940839643,0.05059606854536083,-0.02517705892107577,0.7071348942368365,-0.7065140673865664,0.026784521356793024,0.008983504507483652
-2.3034223724476375,-1.786694069970119,-0.9381543420062151,-1.8097701204851118,0.8456842934046417,1.9636211609113081,-9.481004665653574,233.45884212947612,1079.1609979144578,-1.5705484017320472,0.051046461096713604,-0.025431755696921663,0.7071363744595631,-0.7065022150257027,0.02703366615331746,0.0090525672751554
-2.3096563212819685,-1.7718469055114752,-0.9362015351202978,-1.8088772809734126,0.845624493825176,1.9643425293677583,-9.236459162761827,233.45103510101572,1079.1656681710756,-1.5705453214350493,0.05126849476889846,-0.02554144153210326,0.70713695219116,-0.7064966326638764,0.027150879528437387,0.009092228617507738
-2.3110383964180965,-1.7824953526956044,-1.006772494689611,-1.8031522668595263,0.8455718654542158,1.9637477780181565,-8.805572522046337,233.4340971023141,1079.1687284436434,-1.5705313485209946,0.052203936257804055,-0.02556576178334725,0.7071376693631248,-0.7064785828257931,0.02749005938760482,0.009414096399161197
-2.3095228172509468,-1.791018373927164,-1.113623782058873,-1.801410872768608,0.8446257480934353,1.9644684895126505,-8.032817737092678,233.4024736608938,1079.1745819536363,-1.5705067396454988,0.053902094882643574,-0.0255545114493152,0.7071380511008453,-0.7064464461614335,0.028086214171713877,0.010017982066257269
-2.3071469153854753,-1.8278848403068673,-1.3029134896692582,-1.801080086535088,0.844114031847574,1.9638357719062103,-7.007786606559418,233.36046597019796,1079.1752285174314,-1.5704677123894721,0.05654527995374462,-0.02551982259390056,0.7071377775250852,-0.7063954190764539,0.02900805600884189,0.01096394962009704
-2.3059932470342157,-1.8958708993015039,-1.4568452462185986,-1.807916922695225,0.8431730395901706,1.9634931256455872,-6.765324991835083,233.35039604092748,1079.1624030735488,-1.5704441844014534,0.05815849002439838,-0.02551475972331383,0.7071369767298916,-0.706363550314085,0.029576363589092318,0.01153558172938836
-2.307799531076021,-1.9301788822745658,-1.549611837432451,-1.81029789636039,0.8427368571597632,1.9633857166360427,-6.505735104089072,233.34045523979984,1079.1557214792394,-1.570428704170542,0.05921835396187685,-0.025552988561905656,0.7071364535606417,-0.7063417339064607,0.029964409485017968,0.011896434419914665
-2.3083592890988838,-1.9367096334456555,-1.5693888384849202,-1.811813231957661,0.842578623234626,1.9633732638472532,-6.435291972887716,233.33777514654872,1079.1544050219086,-1.5704249734197766,0.059475747980292856,-0.02556529781779688,0.707136306599765,-0.7063363682238665,0.030059716354181247,0.011982999018106006
-2.306828200915071,-1.9340118136652678,-1.5725835788540101,-1.812134649253279,0.8425316514760347,1.9633754657287419,-6.370355049044742,233.3347372272242,1079.155220929936,-1.5704233946354322,0.05958422932720931,-0.025539300894260694,0.7071360562447109,-0.7063345699281879,0.030088870940247134,0.01203050824280721
-2.303188440930315,-1.927486594328861,-1.5656466905981714,-1.8105159787701528,0.8424941306950611,1.963370018649247,-6.3431233212738345,233.33264160752103,1079.1568697264672,-1.570423933834684,0.059548702234282755,-0.02547646188467499,0.707135701661861,-0.7063362395000319,0.030054123284869227,0.012040177644845452
-2.300255225530158,-1.8833281568049212,-1.5492483544584723,-1.810793095814311,0.8413008988816938,1.96338355039586,-5.787272054146888,233.309539473859,1079.1683322779177,-1.5704172547208366,0.06003823504975614,-0.025445687438782404,0.7071349015213657,-0.7063269667135574,0.030216246589346955,0.012223975852610819
-2.2988238519423336,-1.7890438066906857,-1.546147583064258,-1.8102222278406193,0.8411356828793639,1.9634190590528438,-4.313155828370968,233.249988747492,1079.19200027011,-1.5703940403317878,0.06162017518225013,-0.025422176319360203,0.7071330502904972,-0.7062950032322399,0.030766978032679557,0.012791038220727342
-2.2993370185024333,-1.7087911819777677,-1.5441779908696098,-1.8107811190209926,0.8410692850808545,1.9643788575790337,-3.043911007284554,233.19914951905977,1079.2102348746223,-1.570373805999844,0.06301282978888063,-0.02543102415810102,0.7071311676946203,-0.7062661192793321,0.031262239925057764,0.013279788696472797
-2.300543321123183,-1.6503812780357383,-1.543513429352749,-1.8110470883152645,0.8420400679783936,1.9637275457995065,-2.112137056199216,233.16195323328228,1079.2224492382015,-1.5703583878833811,0.06401383383731203,-0.02543416827475839,0.7071298918901193,-0.7062448858272977,0.03161708848339288,0.013632202833321621
-2.277737951424074,-1.5967898150905915,-1.5438871495537934,-1.8145356480903454,0.8424562011434119,1.9635197158787598,-1.3396119765145926,233.12666494210552,1079.2326933727318,-1.5703433750940732,0.06501285160409352,-0.025027913671992485,0.7071254332357867,-0.706230179158093,0.031826665777730995,0.014128661044185512
-2.0177848699629783,-1.5244084054756708,-1.5479609070281761,-1.882283852989728,0.8436535650572311,1.9634052146046799,-1.0892247765758956,233.07207154465806,1079.24317302362,-1.5703055323295285,0.06752739363293887,-0.020467484172122213,0.7070843751204716,-0.706248996617098,0.031104932749194653,0.01662902271638949
-1.8545913762953856,-1.508271319933893,-1.5458605783484862,-1.9076160399162863,0.8439217788718868,1.9633809822847341,-1.469442735346805,233.05883300196126,1079.2450103494666,-1.5702952151910075,0.0682140113046682,-0.017613842333865672,0.7070574701597258,-0.7062786401910092,0.03033989666236196,0.01788035155652273
-1.6787635439097996,-1.5184604624965672,-1.5127466767102111,-1.9187279218264737,0.8440512815721919,1.963367759903785,-2.6126629113418773,233.06576755112442,1079.2441661613675,-1.5703034481968285,0.06765199880018416,-0.014543367751703404,0.7070315844321747,-0.7063354877192807,0.029056896514449475,0.018767369784900064
-1.608255302579027,-1.516460857283867,-1.4973282120361977,-1.9214581948194094,0.8440729671854116,1.9633677230624398,-2.9950971184689346,233.06506022121025,1079.244885870698,-1.5703061946379437,0.06746546725627554,-0.013312573920392506,0.7070207203609652,-0.7063568719071276,0.028556276883504574,0.019136602111984674
-1.5786611957076784,-1.5125381914942342,-1.4915808205378176,-1.9226634243963066,0.8440839464679584,1.9633703675071899,-3.0999848811994197,233.06305484570666,1079.2456710877443,-1.5703063481753583,0.06745470224672587,-0.012795878124472304,0.707015802689444,-0.7063644327262736,0.028369984762692247,0.0193154573141745
-1.5730840878158752,-1.5029570737694389,-1.4878112642316457,-1.9230933171869782,0.8440854970755737,1.9633785550700305,-3.001033542524571,233.05941149746093,1079.247352439611,-1.5703047361167068,0.06756376719838378,-0.012698403364593951,0.7070143728080072,-0.7063636989507519,0.028374112726121788,0.019388428882113763
-1.5715674559447121,-1.489041137477122,-1.4829777905529,-1.9222759798567413,0.8450957889668158,1.9633970718908897,-2.82928480408121,233.05442474224117,1079.2498492054922,-1.5703020116309117,0.06770831961416644,-0.012654125750974429,0.707013500326902,-0.7063613130248854,0.028409579547404997,0.019455117763754116
-1.5721396045127622,-1.4841725801398236,-1.4838089365783413,-1.921831590693512,0.8443726233917442,1.9644561579264124,-2.7414722441040986,233.05212530267806,1079.250574609362,-1.570301076873365,0.06781852292485427,-0.01267665375144094,0.7070129761442425,-0.7063590961360707,0.028456485976392498,0.019486079014755336
-1.5738792683033482,-1.5302918884474435,-1.6237637050118672,-1.9142761549990701,0.8428523509057679,1.9636294778554748,-2.2814603622856535,233.03980236655016,1079.2380239094252,-1.5702797262211605,0.06930981475535439,-0.012732079322734497,0.7070063340590376,-0.7063293375446075,0.029003220821727703,0.019993091460872497
-1.5785595037213909,-1.5670037338844214,-1.6763400338266647,-1.9114128511364883,0.8417328977584314,1.9634676844363526,-2.4014262964947446,233.04384718845745,1079.2299406660545,-1.5702770647903166,0.06953388982188549,-0.012833107757569219,0.7070060409157042,-0.7063236740209364,0.029118103081410888,0.020036509157238473
-1.5846770236429606,-1.5882589554300113,-1.6953226585474865,-1.91024323127008,0.8413103310372145,1.9642819212975442,-2.554890903070484,233.04904700209377,1079.225726664926,-1.5702782108256246,0.0694880332460287,-0.0129473214687408,0.7070072378877932,-0.7063230832829107,0.0291422243317261,0.01997994887369363
-1.5910770081067704,-1.6041559013251396,-1.7060698690116487,-1.909452652669899,0.84105492920368,1.9635700599852317,-2.6918111043074577,233.0538637159509,1079.2227025110028,-1.5702798968640306,0.06937194440419422,-0.013063600496993106,0.7070089598983524,-0.7063236759341976,0.02914225346710984,0.019897851670745086
-1.6034175998892246,-1.6081622954513637,-1.7080939137537576,-1.9092755011870608,0.84100225046981,1.9634424448004373,-2.6885382768259736,233.05575291531443,1079.2219669812969,-1.570280484840188,0.0693320312484853,-0.01327994519819762,0.7070112962363333,-0.7063213100280412,0.02920454913471654,0.01980727907435372
-1.6080223476497462,-1.6093512364295586,-1.7077156888954506,-1.9082496868525305,0.8409852173419943,1.9634047675317023,-2.6938237439180592,233.05664285444283,1079.2218288865936,-1.570281162362308,0.0692861226607114,-0.013360657568494982,0.7070123098997897,-0.7063210409807017,0.029216825392728178,0.019762536073908876
-1.6095025721826468,-1.6097365766210732,-1.7075642411611502,-1.9087580121059577,0.8409802961259529,1.9634015439673338,-2.6943727466862555,233.05689710312433,1079.2217556016014,-1.5702811727007435,0.06928556972948763,-0.013386578943665947,0.7070125677906016,-0.7063206739830706,0.029225784320467026,0.01975317749361744
-1.6102686923405969,-1.608855101228697,-1.7046811093961158,-1.9081873761619064,0.8410039368661435,1.964273327121695,-2.702934306839367,233.0572607923248,1079.2220548537928,-1.570281819417662,0.06925589488503926,-0.01339957485494059,0.7070127608996964,-0.7063211461535484,0.029219882196605602,0.01973810795752714
-1.6242387015262822,-1.5419167790714978,-1.682377401638974,-1.9107292944228706,0.8428384008453886,1.9637355922367812,-1.7656999224245105,233.03290120833702,1079.2334880265523,-1.5702685339174987,0.07006978957070387,-0.013610480240630928,0.70701146349914,-0.7063013887956835,0.02958207784989176,0.019950923191066783
-1.6235475507288182,-1.4555310694954793,-1.657068138602148,-1.913802571933271,0.843627124295567,1.9635266306573984,-0.6001013190224185,232.99974249381702,1079.2466316877737,-1.5702514825820322,0.07118563730962237,-0.013583459313867344,0.7070059602450075,-0.7062791574556039,0.029966975065782973,0.02035446700957472
-1.6296627199075313,-1.3136580123916217,-1.6180744868192054,-1.9175847606156153,0.8448083687262076,1.9643730483830104,1.3637793432887968,232.94460877329612,1079.264735224213,-1.570223144418666,0.07306179167543331,-0.013667536983630163,0.7069974295489735,-0.7062394400713456,0.030659854705588983,0.020987167705252496
-1.631656221554327,-1.232647841361182,-1.598279719817707,-1.918372392811445,0.8453707149680256,1.9647848164839785,2.4981004499140544,232.91246595502892,1079.2730219477364,-1.5702067191070481,0.0741510115979783,-0.013691310859331405,0.7069919392464009,-0.706216468894787,0.03105326608067906,0.021363322965175083
-1.6329966559456757,-1.2066144680075934,-1.593462538483839,-1.918677089405355,0.8455241754683782,1.9639276006835504,2.878858969076126,232.9017038528731,1079.2752413519183,-1.5702010425319968,0.07451161807142538,-0.013711616890132543,0.7069902951626125,-0.7062085374300627,0.031187904971765955,0.02148345387142753
-1.6334526382619619,-1.1970340932809664,-1.5917346733231796,-1.9169577762269898,0.8455839737407925,1.9645406310240925,3.0160224255246835,232.8978207862934,1079.2760967580493,-1.5701994123453618,0.07462934960857107,-0.013718404641871892,0.7069896768783136,-0.7062060188041993,0.031231915513583775,0.021522621716997307
-1.6345481938417152,-1.1932756307673185,-1.5910768669769877,-1.9153524632882133,0.8456093481658482,1.963855967163544,3.0721089742067917,232.8962890157131,1079.2764665915458,-1.5701990078743888,0.07464349551578431,-0.013737060142465752,0.7069898680935921,-0.7062053635962755,0.031243505121490985,0.02152101829795939
-1.6349488322856394,-1.1918907111305515,-1.5908413135435504,-1.9147716594573794,0.8456191287278836,1.9644763935792835,3.0928399056724003,232.89572203744174,1079.2766010218982,-1.5701988532987412,0.0746642460955602,-0.013743864058711204,0.7069897723906402,-0.7062048785714509,0.03125324072882114,0.021525941578931687
-1.6351443741355527,-1.1912354634757405,-1.5907344459745991,-1.9155066019134628,0.8456247437358829,1.9637649740454164,3.1044662005323653,232.89540213743814,1079.2766190530117,-1.5701985176705944,0.07467422517956822,-0.013747161349566663,0.7069898188886686,-0.7062045525123857,0.031257934368224966,0.02152829620709041
-1.636203010063736,-1.1910437450185292,-1.5907488137943306,-1.9147806334264434,0.8456242150789902,1.9645125097803264,3.110697478997957,232.89528967376822,1079.276661950383,-1.5701986520438376,0.07467819947889712,-0.013765649499549367,0.706989927614682,-0.706204248928806,0.031265865301775,0.021523166895672338
-1.6373153695369789,-1.1959310007000377,-1.5969516669017139,-1.9177750738927672,0.8456112518441732,1.963924194845761,3.095508966179874,232.89579296807045,1079.275650353148,-1.5701975459279733,0.07474314770660712,-0.013785213464718525,0.7069898289903028,-0.7062025365364601,0.03129573233896459,0.021539178979241624
-1.6353720714162148,-1.2113546332574352,-1.6457338651535225,-1.9216953270325858,0.8455690478593922,1.9636411002233267,3.266421472750719,232.89079376756177,1079.2698893691095,-1.570187925651399,0.07538877417546133,-0.01375131399639707,0.7069858607997678,-0.7061895347568143,0.03151197382847962,0.021779098571756892
-1.6355153205111441,-1.26787554778456,-1.9208572410224956,-1.9222826085190838,0.8415932219860938,1.9634660248417815,4.731763495901298,232.8490642821053,1079.235519224446,-1.5701342919653343,0.07921092865265032,-0.013819001478837984,0.7069626298416147,-0.706107977892997,0.0328868375705923,0.02310453370869667
-1.6545662351852515,-1.2898599851802264,-2.0883536673320617,-1.911932092743242,0.8392023371340176,1.963370391588734,5.880937682544566,232.81658082056515,1079.211669561174,-1.5701014179921298,0.08156804545792624,-0.014190548373655073,0.7069509233006064,-0.7060508500576945,0.03385111498539166,0.023805276546867746
-1.661053863568761,-1.3060293785811787,-2.1437777797245423,-1.9070890712932949,0.8383511969436874,1.963361256086702,6.117313211725267,232.80984491322764,1079.2030708138211,-1.5700932811543362,0.08216842910017076,-0.014317951925011745,0.7069481392059939,-0.706035613910523,0.03410828507424188,0.02397217663183188
-1.663341901332695,-1.311686633910724,-2.1611377323687635,-1.905210055460219,0.838029368038258,1.9633795675449308,6.182377901715699,232.80798919159687,1079.2003354858896,-1.5700910277589464,0.08234018978530312,-0.014363310857212002,0.7069474161557552,-0.7060311118927991,0.03418500169294686,0.024016775165960465
-1.6640506835128928,-1.313333287905967,-2.163186695676213,-1.9048224851058175,0.8379530154088557,1.9643027633009433,6.175962525413723,232.80818467834138,1079.2000076369075,-1.5700910872905887,0.08235656074184572,-0.014377006076290295,0.706947362810913,-0.7060306190884522,0.034195618881797604,0.024017717909139577
-1.6652265160778401,-1.3129598660181887,-2.1218389976851437,-1.9054828286677052,0.8379208978711855,1.9637310021841916,5.833146100564932,232.8181639145677,1079.2064512914058,-1.5701014678817602,0.08164304682850666,-0.01439894535981288,0.7069524909918591,-0.7060460645477957,0.03395117929441035,0.02375810685838071
-1.6687093011063932,-1.3120145721027978,-2.035045659688351,-1.904825267939249,0.8389253322187409,1.9635046962645535,5.114814594800718,232.83912258158347,1079.2193659093589,-1.570122873246101,0.08012943995121911,-0.014443951987383243,0.7069632521364583,-0.706078358503796,0.03343210045217924,0.023207896082649136
-1.6697530747772842,-1.3316043679624647,-1.7987733862111361,-1.905630562702604,0.8411126686207286,1.9634313348117094,2.7759705405261035,232.90727675318254,1079.2472383147617,-1.5701868249258772,0.07567703535239605,-0.014429007139241157,0.7069904740041114,-0.7061738456169605,0.03185311744314826,0.021641357239048878
-1.6863448474577227,-1.3531136954040726,-1.6410925990480136,-1.905890803834028,0.8418903572475601,1.9634257707568517,1.1454445227096504,232.95643284521915,1079.2594778079097,-1.5702323730753247,0.07255435313115821,-0.014708398538270061,0.7070102106306199,-0.7062344970011342,0.03084801869106684,0.020440084452784592
-1.6942302077880327,-1.365141138804292,-1.5530382503008162,-1.9070237089453554,0.8431669731801781,1.9643335676268452,0.22928497639048512,232.9842872999753,1079.2642048737744,-1.5702570468885606,0.07084338847538357,-0.014825517335083777,0.7070199001710388,-0.7062675688787297,0.030284609286317248,0.019794553610486654
-1.7001879874142967,-1.3733232283642907,-1.5106059606307953,-1.9098859644785964,0.8438053991023614,1.9636863346069302,-0.23760256277057032,232.99882338737868,1079.2655595760993,-1.570268966494916,0.06999874506156376,-0.014919209556374094,0.7070249069320824,-0.7062830994640227,0.030019143944686202,0.01946318026433303
-1.6991035277940942,-1.4139662201257495,-1.486209870529665,-1.9098549778122884,0.8459265802184945,1.9634964911061143,-1.1051256927016688,233.02436753536088,1079.261484598528,-1.5702844791162254,0.06885984942060089,-0.014864361331670645,0.7070298832755532,-0.7063063693501886,0.029597217804758963,0.019080394884024503
-1.7141696528732793,-1.5666751651932593,-1.342285528381137,-1.9156198533654678,0.8467135825041046,1.9634325169198403,-4.712555850533488,233.1344225775801,1079.2381293811848,-1.5703593089870305,0.06378267047446456,-0.015118545769665839,0.7070518425221236,-0.7064021193008909,0.02789231563870858,0.017197574293789195
-1.7201923693486112,-1.628284849820848,-1.2968369620082527,-1.917627627983651,0.8469373212090449,1.963416573170835,-6.060265673198536,233.17612135882456,1079.2243753962873,-1.570386386128263,0.06194911466827105,-0.015221459846368553,0.7070586095139956,-0.7064355563802353,0.027280533993696315,0.016513626461239255
-1.7433192906351738,-1.684877923150104,-1.336623815436994,-1.937741834141682,0.8441453115266317,1.9634150161812687,-6.489945288709875,233.19456258160193,1079.2113483392243,-1.5703868840753312,0.062006836394383376,-0.01567384267231894,0.707061678184111,-0.7064287516738381,0.027460715387939996,0.016374100353730495
-1.769798193728087,-1.7188020591884663,-1.3635989281056802,-1.9464286874790921,0.842108254579289,1.9643729436283028,-6.6745633225798375,233.20662349596176,1079.2034453638637,-1.5703874243994798,0.06205389748194453,-0.016171553036475043,0.7070651586086527,-0.7064214367389853,0.02765313790529207,0.016214782185998703
-1.7785371922006739,-1.729018317306885,-1.3686672266897835,-1.9482746449161337,0.8404976767882567,1.9637640996770425,-6.752869310604209,233.21121593507385,1079.2009430673734,-1.5703890548037274,0.06198565803656035,-0.01635228178183097,0.7070665961241258,-0.7064204564575707,0.027692847278672897,0.016126796126944412
-1.7819309117303925,-1.7319781690295397,-1.3696139095555162,-1.9489497369984432,0.8398655258884026,1.9635284828882593,-6.77599289000374,233.21278076430917,1079.2001931123068,-1.5703897046352986,0.06195819890762256,-0.01642258415851168,0.7070671541973211,-0.706420092716978,0.02770797076412782,0.01609224711381274
-1.7831744416549329,-1.7330385678783866,-1.3681412966572377,-1.9491823310730014,0.8396313566798226,1.963442843024866,-6.799713988469364,233.21382981372795,1079.1998861699658,-1.5703904083025815,0.06191656033077257,-0.016448417470680765,0.7070674483742546,-0.7064205602947836,0.027702376547064655,0.01606840925448277
-1.7836255046698848,-1.733419001728401,-1.3675963965943765,-1.9492639332104604,0.8395457722722832,1.9634118432520515,-6.808346947567353,233.21421152352005,1079.1997754130273,-1.5703906661592673,0.06190129557622502,-0.016457799336996794,0.7070675553447379,-0.7064207328879849,0.027700294389656037,0.01605970160197552
-1.7838694865829847,-1.7336383598893348,-1.3672674839481862,-1.9493061812820465,0.8394991819193818,1.9633939861034542,-6.813529732615677,233.2144340449373,1079.19971141719,-1.5703908184968438,0.061892153427566474,-0.016462880018685684,0.7070676157782091,-0.7064208429651426,0.02769885730364388,0.0160546767706012
-1.7829639581316548,-1.7337158734895437,-1.364159687997983,-1.9483236025757353,0.839576571609321,1.9633879623781498,-6.846966633330128,233.215250470094,1079.19965166596,-1.5703918504785024,0.06181931220377115,-0.016445789210713088,0.707067698932487,-0.7064224523614895,0.027667073630436047,0.016034991818678745
-1.7826576934127296,-1.733739702766405,-1.3631092891782715,-1.947993579986347,0.8404848956195649,1.9633858661102925,-6.859759984233924,233.21555007965665,1079.1996738176886,-1.570391773591971,0.06179476305096444,-0.01642459191664072,0.707067753099525,-0.7064230577501839,0.027650912571274285,0.01603380926808379
-1.7825499687311603,-1.7337521479269788,-1.361788386341795,-1.9469402268271592,0.840807921103751,1.9633950862934924,-6.874125510200104,233.215962368632,1079.199680708926,-1.5703922313659058,0.06175327039727318,-0.01641710423673657,0.7070678641527753,-0.7064238964177965,0.02763360254407478,0.01602179961073864
-1.7825157342635058,-1.7337537782636272,-1.3612957800460006,-1.947473661132098,0.8409293267036376,1.964324234427004,-6.877801131173459,233.21606521429308,1079.1996632902074,-1.5703921625437587,0.06177017028887451,-0.01641437781660365,0.7070677311087684,-0.7064236762917898,0.027638611748272503,0.016028734813420424
-1.7834484828688169,-1.7337529286254083,-1.3620575212272437,-1.9476861884308976,0.8409766679544544,1.963738475312986,-6.867166987442846,233.21596304259688,1079.1996778591458,-1.5703918894467341,0.06177696371445583,-0.01642981866852419,0.7070678968289185,-0.7064232724587964,0.027646468315360606,0.016025672910130472
-1.7828279018482112,-1.7327588461606576,-1.3623516902476696,-1.9477684791862064,0.8409951482229281,1.963509393465087,-6.851160649018138,233.21531133506454,1079.1999282165846,-1.5703915284278995,0.06179688324295783,-0.016418644389638595,0.7070677749985599,-0.7064230239966209,0.027649562981355534,0.016036657787563482
-1.783497660933922,-1.7324655272007354,-1.361514860021217,-1.947815919581866,0.8410024110931685,1.9634378896637004,-6.850854773651607,233.2154665834632,1079.1999813835523,-1.5703916524559607,0.06178697808014688,-0.016430215341093783,0.7070679034076376,-0.7064230447831905,0.027650148945803803,0.016029068383692606
-1.7837914889418471,-1.7331592119970822,-1.3551638897478138,-1.9486805260032802,0.8410034244100231,1.9634082036980727,-6.913747676019731,233.21749761417925,1079.1996483930102,-1.5703932402715997,0.06167860940839858,-0.016435424095130567,0.7070682523077885,-0.7064250310327036,0.027613683442956692,0.015988952297310132
-1.7839249915875375,-1.7325914469696384,-1.3531884084281542,-1.9490667976402538,0.8410041670862513,1.963395178221876,-6.920405826676112,233.21773799976955,1079.1997347438642,-1.5703935024337186,0.06166055641890847,-0.016437757447194994,0.7070683227506638,-0.7064253406745077,0.02760812640240065,0.01598175121875165
-1.7839977628925996,-1.7322870515782272,-1.3521138767787364,-1.9492847438680032,0.8410053980427051,1.9633875474252067,-6.92408545673142,233.21787059204635,1079.1997803517527,-1.5703936437608763,0.06165078673455092,-0.016439014831524185,0.707068360991618,-0.7064255081049615,0.02760511722983246,0.015977856114041497
-1.784011798594595,-1.7322291944831119,-1.3518990758562663,-1.9493305786087252,0.8410058843295336,1.9633858381626232,-6.924867427015808,233.21789841126213,1079.1997886784318,-1.5703936720839407,0.061648817888938556,-0.016439253073608055,0.707068368630326,-0.7064255419982893,0.027604505452090942,0.01597707650410471
-1.7840178185251612,-1.7322047525245394,-1.3518040395843975,-1.949351724584233,0.8410061912937098,1.963385011980801,-6.925231316819671,233.21791122831482,1079.1997920602475,-1.5703936846456166,0.06164794052410185,-0.016439353565401747,0.7070683720098176,-0.7064255571589929,0.027604230825391672,0.015976731096540707
-1.7830409815763943,-1.732200010181598,-1.350806375951139,-1.949356801797167,0.8410063687753939,1.9643628662137187,-6.937684056972084,233.21805699803994,1079.1997698024927,-1.5703939380135372,0.06164776802797908,-0.01642231020101706,0.7070681477221339,-0.7064258843217583,0.027598147913142697,0.015982699045430253
-1.7836764462372685,-1.73219948180664,-1.3514257244277659,-1.9493592908161783,0.8410065763801133,1.9647163338992462,-6.929770393144567,233.21796803367022,1079.1997843874583,-1.5703937778121355,0.061664798361305825,-0.01643338518025173,0.7070681566182931,-0.7064254398428365,0.027608078773168166,0.015984799833536626
-1.7838880966564625,-1.7321985202950103,-1.3506999232042187,-1.949359861043398,0.8410065267135223,1.9639010321239425,-6.935120539181281,233.21818709247702,1079.199767613499,-1.570393964327475,0.06163792914057109,-0.016437097251036974,0.7070683352232209,-0.7064258253107717,0.02759989405858261,0.015973994698039985
-1.7839737097939643,-1.7321957105708792,-1.3504012668691288,-1.9493596659978436,0.841006434606588,1.9635671417081773,-6.9372900767995365,233.21827588418319,1079.1997612925556,-1.5703940405990926,0.0616269353110309,-0.01643860012705497,0.7070684081414849,-0.706425983206758,0.027596539558376005,0.01596957930050055
-1.7840027854726674,-1.7321957390560587,-1.3512601053314224,-1.9493595743705967,0.8410064026188988,1.9634525236955058,-6.929802585750668,233.218049880345,1079.1997814280626,-1.5703938199729248,0.06163992069349943,-0.016439095365572753,0.7070683862524564,-0.7064257192243012,0.027601304696791597,0.01597399010300492
-1.7840167957793736,-1.7321988461154187,-1.3516857411567895,-1.9493600025668951,0.8410064638697496,1.9633963180506966,-6.926142222002291,233.2179393400682,1079.1997905937014,-1.5703937112676432,0.06164632091385913,-0.01643933252038756,0.7070683753852743,-0.7064255892098539,0.027603650881819916,0.015976166546896035
-1.784018950293006,-1.7322006299198929,-1.3517296714870917,-1.9493615396317874,0.8409969650968285,1.9633890918389294,-6.925765834544995,233.21792839277882,1079.1997906906097,-1.5703937045911998,0.061646957199530866,-0.016439535485822897,0.7070683742785296,-0.7064255752682904,0.027603947459928523,0.015976319557761597
-1.7840192046458623,-1.7321984295527657,-1.3508111448200324,-1.94935996033568,0.840057358109044,1.9633864203494733,-6.931981712343283,233.21814603434024,1079.1997251000464,-1.5703943900274129,0.061630898419947365,-0.016455975258238817,0.7070683917731801,-0.706425812283359,0.027604074274670883,0.015964841951105067
-1.7840195095605638,-1.7321955151686297,-1.350459556040113,-1.9493593798731175,0.8396987265667978,1.9633854474101315,-6.9343287522498676,233.21822835601574,1079.199700535671,-1.5703946512266918,0.061624788961909704,-0.016462253631819294,0.7070683984194329,-0.7064259022752559,0.027604130985419674,0.015960466901328185
-1.7840188438065712,-1.7321911419868228,-1.3503381303082334,-1.9493565463585238,0.8405412262362221,1.963385328102431,-6.93677222212505,233.21828281371512,1079.199738889059,-1.5703942790340646,0.0616226887928999,-0.016447520201432524,0.707068429063879,-0.7064260029991223,0.027598187811958826,0.015964928353059002
-1.7840200658548289,-1.7321988199569016,-1.3512474022145564,-1.94936196435668,0.8408296452680323,1.9633845717048681,-6.929579255603971,233.21805171681373,1079.1997719060964,-1.5703939080341456,0.061638502203785084,-0.01644248670810223,0.7070683935700418,-0.7064257231253938,0.027602000628682503,0.0159722910798384
-1.784019626341128,-1.7321988803985338,-1.3505793455125645,-1.9493609001975034,0.8399293310903471,1.9633846246946065,-6.933752200466559,233.21820454863666,1079.199713444938,-1.570394510650766,0.06162683128613671,-0.016458223716418315,0.7070683996002014,-0.7064258800159242,0.02760343035440552,0.015962611415622933
-1.7840196663941976,-1.732196486388336,-1.3503274993943986,-1.9493603285201508,0.839591843071652,1.963384693074637,-6.935289468331959,233.21826104243786,1079.1996920916688,-1.5703947362390975,0.06162247157600925,-0.01646412638060066,0.7070684018414968,-0.7064259384595121,0.027603972926457276,0.01595898704757379
-1.784020561578071,-1.7322036235836034,-1.3502311041790354,-1.9493651298013694,0.8395096208666498,1.9633842004169375,-6.936075919457094,233.21828785525346,1079.199684043673,-1.5703948008934836,0.06162074055561917,-0.016465580500768236,0.7070684044292342,-0.7064259651332668,0.027603874360120326,0.01595786212937683
-1.784019643962358,-1.7321966606052945,-1.3492217966436792,-1.9493613135659493,0.8394852979672722,1.9633846539264652,-6.944593556820251,233.21855354718076,1079.1996609051196,-1.5703950706413778,0.061603189712421916,-0.016466005447311544,0.7070684526470186,-0.7064262967867896,0.0275978206277313,0.015951513284108106
-1.7840196599228486,-1.7321950143613585,-1.3488760921969778,-1.9493614061288354,0.8394771321744913,1.9633847348433062,-6.94751930890225,233.2186448878574,1079.1996527392425,-1.5703951627824315,0.06159718849496074,-0.016466153864351935,0.7070684691794527,-0.7064264101018382,0.02759575175560632,0.01594934129982488
-1.7840196366657326,-1.7321958480702113,-1.347788492517696,-1.9493626605254313,0.8394746723400142,1.9633847102696926,-6.956858979576882,233.21893584826628,1079.199626524313,-1.5703954428531177,0.06157821527229045,-0.016466213612804155,0.7070685221094121,-0.7064267699898906,0.0275890663426534,0.015942619044647048
-1.7840195415151905,-1.7321965345732464,-1.3456558492598636,-1.949364616210927,0.8403380901604383,1.964271699470242,-6.9766673254508165,233.21953078473697,1079.1996160111753,-1.5703955775069314,0.06155649462857458,-0.016451150173301007,0.7070685277306435,-0.7064273248249476,0.02757606955646374,0.01594027042760652
-1.784019750366481,-1.732190422510403,-1.3447254798888528,-1.9493634260591328,0.8398315103176508,1.9646487261290393,-6.983674142216346,233.21976199611308,1079.1995709693595,-1.5703960564161068,0.061546928159118046,-0.01646001884629164,0.7070685055267573,-0.7064275037264043,0.027575817914712548,0.015933760929977937
-1.7840196767011984,-1.7321920559558646,-1.3443086681444965,-1.9493657963623796,0.8406155202906576,1.9638060886329327,-6.988635295839711,233.21989650807436,1079.199597490856,-1.5703957900210967,0.06152495479202992,-0.016446328582786527,0.707068665726863,-0.7064279010910908,0.02756322003869619,0.015930832004893234
-1.7840196041651648,-1.7321939176423562,-1.3441896609519988,-1.9493672891736895,0.8399611588648442,1.964443721983651,-6.988547036009253,233.21991043094647,1079.199563097345,-1.5703961321558153,0.061534004881542384,-0.016457760428439945,0.7070685638013641,-0.7064277397652425,0.027570453098652022,0.0159299934080991
-1.7840196747469907,-1.7321951822839772,-1.3441344574269947,-1.9493680427940923,0.8396528897735465,1.9637774738125857,-6.988503756026154,233.2199169585773,1079.1995468190132,-1.5703962936002929,0.06152140651217878,-0.01646315454425372,0.7070686501278969,-0.7064278961089266,0.027567905388712885,0.015923636453660933
-1.7840204070170889,-1.7322006053802255,-1.3440941828912656,-1.9493719944881376,0.8395470846606926,1.963544172525326,-6.988742389634824,233.2199272699013,1079.1995393897887,-1.5703963548153521,0.061516606849487385,-0.016465018675994477,0.7070686815843409,-0.7064279581977199,0.027566867352236506,0.01592128209557446
-1.7840195996499575,-1.7321983105325824,-1.3432913100815127,-1.9493699616463391,0.8395084477545532,1.9634602882256464,-6.995534837672663,233.2201396185698,1079.199518523431,-1.5703965791581806,0.061501136368388026,-0.016465693050478195,0.7070687309289321,-0.7064282413831712,0.027561637187368232,0.015915579611848307
-1.7840195851082683,-1.7321943308980545,-1.3428522434511634,-1.9484537379454432,0.8394873932497977,1.9634149192335564,-7.00079589310846,233.22030401798165,1079.1995277941155,-1.5703969358567367,0.061476762394206005,-0.016466082365945076,0.7070688020790081,-0.7064286978882633,0.027553159184324157,0.01590683329303049
-1.7840196197137281,-1.7321942773158268,-1.3426799583443627,-1.9490073740059872,0.8394792632944322,1.9633967696624592,-7.001296210637122,233.22031981719047,1079.199511059112,-1.5703968418907441,0.061483101729668185,-0.016466219164775926,0.7070687858995053,-0.706428575465515,0.02755544829011698,0.01590902391391672
-1.783017814470634,-1.732314615136712,-1.3380864707102742,-1.949279014148943,0.839561317307447,1.9643967421317914,-7.046385277211895,233.22147193759298,1079.1993642314592,-1.5703979420751273,0.061423031553827494,-0.016447363398831304,0.7070687253188505,-0.7064300510973588,0.027527553272817883,0.015894476819677032
-1.7826694719338179,-1.7332080893781951,-1.331099710919215,-1.949336918498331,0.8404904470690381,1.9647247177249598,-7.123558407759098,233.22376316939142,1079.1990018637157,-1.5703995101214403,0.06129223866630455,-0.016425167122944232,0.7070690341771879,-0.7064327086834878,0.027473484271959663,0.01585612411049541
-1.7825503805007752,-1.7335462648479405,-1.3295980237935043,-1.9503423224724439,0.8408216418980401,1.963869461897517,-7.141163887930967,233.2242727321548,1079.1988708578376,-1.5703995685305445,0.06126274686632561,-0.01641731974012731,0.7070691852637223,-0.7064332420359087,0.02746029085776697,0.015848476997418655
-1.7825076413079828,-1.7336806404727672,-1.3290523495604132,-1.9507160525734122,0.8409433746725735,1.9635544987915612,-7.1477306603954975,233.2244632463854,1079.1988201375798,-1.5703995899412697,0.06125190317001008,-0.016414453424038876,0.7070692409691979,-0.706433437795101,0.027455446562513294,0.01584565853129913
-1.782493940622661,-1.7337262953719357,-1.328872613058803,-1.950839706118041,0.8409835000942513,1.9634507041442535,-7.149913493119445,233.22452670808158,1079.1988030565915,-1.5703995972012497,0.06124831586532718,-0.01641351539794073,0.7070692594135478,-0.7064335024711558,0.02745384757938004,0.015844722522046887
