ShruthikaS1/Robot-Gello/csv/output35.csv
shoulder_pan_angle,shoulder_lift_angle,elbow_angle,wrist1_angle,wrist2_angle,wrist3_angle,end_eff_x,end_eff_y,end_eff_z,end_eff_roll,end_eff_pitch,end_eff_yaw,end_eff_w,end_eff_xq,end_eff_yq,end_eff_zq
-1.5613282591746056,-1.7140861059865558,-1.4876149348385501,-1.5928026157994388,1.4820776877700303,1.6246052464898688,-8.110578705142673,233.17423863922122,1079.2398428453853,-1.5701787598862498,0.05219370839997167,-0.0013583163420234933,0.7070966079431379,-0.7066350084748898,0.018936785863682276,0.01796524350388463
-1.6355047314688005,-1.7555721237117632,-1.409423599425303,-1.641973211897168,1.5631720734215646,1.5756246037451398,-9.198643362443738,233.2204826919588,1079.229300720942,-1.5701786485037625,0.05010782119647688,-0.0012384792395041277,0.7071139780980848,-0.7066554124110191,0.018156999169485183,0.017270595521667927
-1.6378887241719626,-1.7556633953494558,-1.4005913393337834,-1.6386339783516493,1.5658917314296719,2.2354643363668085,-9.276736753795607,233.22324660688213,1079.2289109713593,-1.5701830417848082,0.0614102200041018,-0.0012258005705132098,0.707003337659992,-0.7065432740282268,0.022148080398819082,0.02126840374247014
-1.61869862273635,-1.754193337154251,-1.3885982397852956,-1.6354035515286636,1.5703598345922714,3.0435152053554817,-9.44765343346434,233.22253637855889,1079.2288440181862,-1.570187303695977,0.07527336477375741,-0.0008045983921035602,0.7068318052981445,-0.7063800581047461,0.026899149936354158,0.026314411709233928
-1.4589763597829877,-1.7467179346867991,-1.3976559878106558,-1.637423720966354,1.5659962029943,3.1456163881354007,-9.889356641266332,233.19019277686505,1079.231236094334,-1.570180024052242,0.07737910772801737,0.001908583898489995,0.706768904503475,-0.7063856403103492,0.026685162234219403,0.02801686825520265
-1.1365342743852973,-1.7246243574719935,-1.4757719380091707,-1.6405490195530426,1.569035264513864,3.166534578222291,-10.177367759155183,233.11038392826887,1079.2406099069465,-1.5701291966733477,0.07954702087973674,0.0075935046278295575,0.7066713871703538,-0.7064135352191803,0.025444194253770796,0.030790595847501344
-0.769990644911203,-1.7320742693838083,-1.5476965497253432,-1.6351574579819081,1.5667018540244368,3.172890360631559,-11.175487242444827,233.03399131046683,1079.2407705108126,-1.570101850555383,0.0806887857983813,0.013952448491373743,0.7065605928900349,-0.706467856929319,0.023602093101375083,0.03344004936915991
-0.6966661927956223,-1.8779468207857544,-1.5829421228991474,-1.509252501079021,1.5663662062940253,3.1737124567016326,-13.723441034985722,233.04687074236918,1079.2018407985063,-1.5702153706232502,0.0765764245037501,0.015217436936843255,0.7065674142767422,-0.706568819218267,0.02169969808966892,0.032436336007629435
-0.7054054073576609,-2.1848121115097205,-1.5586197745497186,-1.0647978229613864,1.5645070363056226,3.128639226247865,-19.576036566584776,233.121545925537,1079.0855214671576,-1.5705869202227385,0.06225731052991356,0.01500638103626004,0.7066532086979679,-0.706835465052626,0.01670703164928993,0.02730829680103999
-0.7055329029619706,-2.3398682054669817,-1.5362864419648417,-0.8727293122596422,1.543638738662941,3.127861050612353,-22.54540176498986,233.15914600830732,1079.0102392837543,-1.5707637655525764,0.055797888274884945,0.014629502608493921,0.7066799283510127,-0.7069454776297388,0.014554599795480468,0.024894460216314803
-0.7055999376593622,-2.3968876928920415,-1.5194251662681384,-0.8552708506798606,1.5162968411078928,3.1291060087234164,-23.58472424158791,233.17324482312574,1078.9811487732077,-1.570806590807758,0.054226020305155456,0.014148771912953939,0.706689967831695,-0.7069684445715213,0.014168374754005883,0.024169503573543086
-0.7043227859145732,-2.4488462959420603,-1.5106387557151593,-0.8465887157073568,1.0994946495417213,3.129275832905908,-23.78697868174433,233.19168062280613,1078.9561123672731,-1.5708270535277409,0.0530174107320068,0.006895397315018222,0.7067786702636403,-0.7069296248628372,0.0163048235420707,0.021179458938106608
-0.7054638128407741,-2.496844442685979,-1.498762702579426,-0.8440456613791995,0.6016201226355198,3.129163650519131,-23.790898171429024,233.2051082534768,1078.9338376248431,-1.5708245936047411,0.0519259199790357,-0.0018139193655840767,0.7068748405763337,-0.706861524237517,0.018997365813641375,0.017715682457636557
-0.7069135060338807,-2.5162927005165745,-1.4926947472137388,-0.8451969466538498,0.1909492240659549,3.126524681021688,-23.432250740649685,233.20629565227313,1078.9261022643302,-1.5708067174658749,0.051454482162497026,-0.00900582610888765,0.7069438492387913,-0.7067873795253896,0.02137261339069996,0.015006850566519375
-0.707186755756516,-2.5138931110121034,-1.4718683203985514,-0.8628026693313564,-0.05326231266754721,3.1170190698927036,-23.116395495184726,233.2030325361215,1078.925928461348,-1.570793415161192,0.05127423085962522,-0.01327218626351653,0.706980167399135,-0.7067375368488881,0.022816662884838575,0.013434910042769489
-0.7293572648973919,-2.3612929324516854,-1.4352794583476367,-1.1286994655021345,-0.08906593854520654,3.1280409508015303,-20.374667692920575,233.17812817982062,1078.986735390046,-1.5708018351669493,0.058132147351278855,-0.014284489881389058,0.7069349048177864,-0.7066452553953594,0.025597510833861043,0.015501316608766158
-0.7328827963153391,-2.215473860381075,-1.4062039431117779,-1.3097143354189904,-0.08852146763737664,3.1291501383120224,-17.96353915105564,233.14872348772238,1079.0380496066243,-1.5708098483142563,0.06334836509297838,-0.0143370059561976,0.7068896959947485,-0.706578202208352,0.02745890315931735,0.0173265835568581
-0.7333643861120697,-2.150457227910345,-1.366535696256555,-1.3729228995330558,-0.08599150968929462,3.1295879159420394,-17.156536834042814,233.13857636217912,1079.0571743356215,-1.5708117876715206,0.06490161494724844,-0.01430138155661751,0.7068750231996814,-0.7065578478823055,0.027995030966206452,0.01788819201528833
-0.7695639531388931,-2.125785622574756,-1.3292713174993713,-1.424485262528103,-0.08229912418499855,3.164789449156779,-16.85117637494181,233.14725569064964,1079.0620617263287,-1.5708121041021392,0.06619614552070573,-0.014868772837497376,0.7068683613758471,-0.7065315910838181,0.028652786544017893,0.018145200733428304
-0.7833573593411969,-2.1147276646999726,-1.3061321929274274,-1.484414002974061,-0.0835064176343086,3.2481498087014553,-16.71042661362344,233.15014562692392,1079.0628465447585,-1.5708135579247284,0.06848615473863545,-0.015130704860374381,0.7068490849781542,-0.7064949693182424,0.02955425004640289,0.0188620173299779
