ShruthikaS1/Robot-Gello/csv/output54.csv
shoulder_pan_angle,shoulder_lift_angle,elbow_angle,wrist1_angle,wrist2_angle,wrist3_angle,end_eff_x,end_eff_y,end_eff_z,end_eff_roll,end_eff_pitch,end_eff_yaw,end_eff_w,end_eff_xq,end_eff_yq,end_eff_zq
-1.5328066824663893,-1.6965416307945678,-1.512481729928771,-1.5688921951661114,1.3760296511770234,1.7308663980823378,-7.589922479683205,233.15773331581164,1079.2403605841114,-1.570215110238373,0.05437222420984497,-0.002711700823436475,0.7070762801616552,-0.7066133283437082,0.020184781582749594,0.018256857129306865
-1.6384820313308956,-1.6947584810869736,-1.4598143186319785,-1.5941792213443493,1.440863297735182,1.6280576724255162,-7.652036377432073,233.18264217853493,1079.2421492621318,-1.570199049533812,0.05213058641019771,-0.003425048361375599,0.7071081705194115,-0.7066228561050171,0.019644498343480806,0.01721244025442852
-1.6427816201505019,-1.6958154980682605,-1.4539627022497925,-1.5974174569700383,1.4464282308326284,1.773943463441578,-7.705700041391598,233.18501284454553,1079.2419402211385,-1.5701982826883976,0.05461267516573197,-0.0034014306961537284,0.7070863072853503,-0.7065979161912097,0.020513620139459676,0.018097797451105797
-1.6482203062674206,-1.6866189822826665,-1.4627522981024943,-1.641889800502236,1.4497811199285224,2.5331204035889847,-7.389494171097425,233.17713404323814,1079.2447075888992,-1.5701687266029971,0.06895253074895227,-0.0034279225763344657,0.7069490321167734,-0.7064219654669397,0.02559203603826576,0.023154273609833822
-1.6449120257310696,-1.6845854626626666,-1.468712568164762,-1.6563953293566516,1.4567011069804994,2.7958932352066723,-7.306068916432801,233.1736194159355,1079.2456762833747,-1.570155499986907,0.07393126491828486,-0.0032455978357209345,0.7068915595462071,-0.7063539205441436,0.027287374624925857,0.024977212821445733
-1.5505716378808534,-1.671491834061793,-1.533793938952657,-1.6578882524594973,1.472857343227077,2.8428453334282344,-6.947472433863158,233.14045596687106,1079.2508543920244,-1.5701124549197831,0.07614055864079874,-0.0013133938344051372,0.7068535059265301,-0.7063349382953252,0.027386305349277655,0.026439863502453136
-1.2109093732471274,-1.6702458332135672,-1.5295007624525112,-1.6558148077790282,1.5021247043289454,2.8524531779717703,-8.400838439102117,233.0953612683686,1079.2524251935129,-1.5701012133207586,0.07621855388623557,0.0051264344989085985,0.7067675572845485,-0.7064145064519703,0.025139558499376657,0.028743132096345846
-0.9278480190906981,-1.6878534974066992,-1.5385280103537737,-1.642785438902695,1.5033441824184728,2.8584715509525567,-9.781295462499376,233.05466675375996,1079.2485075824993,-1.5701105836984741,0.07594654785234949,0.010087423765717972,0.706694919111197,-0.706481174019123,0.023290933442128646,0.030400238130228067
-0.8040244027754013,-1.7749344553848116,-1.5634716176491417,-1.4642234687186777,1.5030834421735386,3.0218438637230607,-11.774295886851776,233.053897177794,1079.2267046901477,-1.5702212430975238,0.0745983894059033,0.012237474795070974,0.7066435911892747,-0.7065599166399051,0.022053164571521393,0.030685129318888584
-0.797894026426236,-1.9482004168324518,-1.6565773822816643,-1.1375362329827117,1.4992320918158724,3.0324898287487856,-14.333716402850145,233.08810866581265,1079.1768632736412,-1.57040917643072,0.06768584415504085,0.01226399253692004,0.7066786927219781,-0.7066985243183912,0.01959754575924441,0.028255215079320842
-0.8029748266993718,-2.0783428309183125,-1.6711606381521236,-0.9961914115923998,1.4976580622737303,3.032720837442502,-16.513005674655943,233.12028383578814,1079.1320118834055,-1.5705271110098453,0.06320760030331031,0.012140134308438496,0.7067001797644745,-0.7067811659498107,0.01805669878431597,0.026630715508566598
-0.8049919228758378,-2.217086679846927,-1.669143272753055,-0.7962105408213029,1.497320717491533,3.0671639756958364,-19.08890893381511,233.15718887456444,1079.0742613800355,-1.5706829131084203,0.05786370909112447,0.012089730626872552,0.7067143844945456,-0.7068815185518387,0.01618353463929755,0.02472631563579015
-0.8026290014738311,-2.2888212829791894,-1.6637548422817492,-0.7560974246835922,1.4944417703104214,3.093493864371389,-20.356998827686716,233.1741626083886,1079.0432783692909,-1.5707365894077867,0.05627779744430964,0.012077702561704989,0.7067149439800194,-0.7069130001250475,0.015626543063186928,0.02416214728489218
-0.7926648917941722,-2.340850048527089,-1.667553516244961,-0.7218843967178127,1.3131895792615271,3.0988906980347455,-20.941608702106734,233.18586599010087,1079.0201699603524,-1.5707768630002095,0.05493364131741306,0.009085930075440216,0.7067514316355018,-0.7069141179009941,0.01620841433396769,0.02263031370101938
-0.777582412358798,-2.3991467114735046,-1.6679258490158895,-0.6665984397653335,0.9760205459831738,3.092491392210414,-21.442316117256222,233.19801708597777,1078.9935516820149,-1.5708155657975345,0.05284644646839821,0.0034623717206370692,0.7068197482926749,-0.706898031085796,0.01745794143227591,0.019905711528396847
-0.775069231095248,-2.4172318909230373,-1.6624352488961898,-0.6726004333457796,0.4632083812285496,3.0592800037537056,-20.887050738065568,233.20062307091032,1078.9865414128456,-1.570807940333732,0.051959961210031026,-0.005443610124620561,0.7069114333447873,-0.7068196514323609,0.020292345393022528,0.016444648792372927
-0.7821149961186008,-2.4015677413607395,-1.6337087977287015,-0.7038604383942151,0.25411603013276207,3.0554636797709347,-20.436566146356746,233.199707086368,1078.9909401009577,-1.5708012875446804,0.052210927739591885,-0.00921558205800738,0.7069416397368772,-0.7067750525479152,0.021714098895053276,0.01520003326322258
-0.7837373225050509,-2.2551361879529668,-1.566639051817411,-1.0128212700640224,0.1744131122680166,3.0638041677423695,-17.987432036032324,233.16739086009642,1079.0426459325797,-1.5707790656374814,0.059133968109493486,-0.010633742322905282,0.7069049769503205,-0.7066704906046665,0.02466175612710628,0.01714552583485917
-0.7890210077587669,-2.106009732878112,-1.5028217536296862,-1.2869256141107717,0.1025812176463466,3.069032822887605,-15.526606949418033,233.1357564196813,1079.0862268166272,-1.5707749159521587,0.06549818142002402,-0.011979360565613663,0.7068611928708715,-0.7065687054507797,0.0273857994446916,0.018919209273994642
-0.8026033039248592,-2.0438934777191875,-1.4668004387945666,-1.31334135726448,0.09623625772586519,3.070844147343192,-14.729945910153534,233.12906349518835,1079.1036385735867,-1.5707746963697147,0.06644628031445987,-0.012327133149891551,0.7068555594719158,-0.7065507354819732,0.02784361405557987,0.019131371875830756
