ShruthikaS1/Robot-Gello/csv/output88.csv
shoulder_pan_angle,shoulder_lift_angle,elbow_angle,wrist1_angle,wrist2_angle,wrist3_angle,end_eff_x,end_eff_y,end_eff_z,end_eff_roll,end_eff_pitch,end_eff_yaw,end_eff_w,end_eff_xq,end_eff_yq,end_eff_zq
-1.5495647297326398,-1.6543020139980258,-1.5016556948911515,-1.6082662289410696,1.4929649188435214,1.6851087899225912,-7.073745976573365,233.14273400614547,1079.255216273109,-1.5701334862028322,0.05480742409796096,-0.0009599474586084054,0.707084729785846,-0.706597607839126,0.019720496157108264,0.019029123233073885
-1.6182180052329729,-1.6456100427035025,-1.4623233379342107,-1.6130586785318766,1.5832247046674728,1.6077654552699734,-7.14144525600341,233.1566341345893,1079.260333492945,-1.570105969143319,0.05300549428743053,-0.0005827714269230896,0.7071078399369612,-0.7066089348040622,0.018950441876637535,0.018525569017808954
-1.6258586775787827,-1.6461739487217804,-1.4598523332035007,-1.6135607942982353,1.5918210465418425,1.6113661869864944,-7.15464409105525,233.15842742747915,1079.2605066675533,-1.5701034503586462,0.053024046560761866,-0.0005659616025729657,0.7071084020509619,-0.7066080278860777,0.018951085364974585,0.0185380430297465
-1.627439929597341,-1.6477424958514868,-1.4605227970181096,-1.6136944869706078,1.592286084055703,1.8202139999842442,-7.168118062541529,233.15916796651476,1079.260168566574,-1.5701034809950565,0.056655786064584907,-0.0005829256795187228,0.7070737070337431,-0.7065723127275161,0.020241043786680922,0.01981514206043804
-1.625841736238642,-1.6447975423767693,-1.4492787247378816,-1.612289596242541,1.5936482161114702,2.721634867971292,-7.228833349714613,233.16044081718147,1079.2606152530282,-1.5701069127827412,0.0722192266892492,-0.0005206358443323318,0.7068959944172539,-0.7063955322166771,0.02572049036557976,0.025334986017627778
-1.582767222288479,-1.6405057501999527,-1.4580764767199017,-1.612067861618529,1.594137361564772,2.9683780922012724,-7.261202904261621,233.15096768445565,1079.2619103244704,-1.5701002036772662,0.07675019989844016,0.00024316519614337034,0.7068287755188314,-0.7063435012933619,0.027052195682490378,0.027205127971399925
-1.3934881976389586,-1.6165284909375894,-1.4823436781032553,-1.611007888571934,1.5998638048548512,2.999951377646202,-7.451350914838345,233.11132050769643,1079.2683325406754,-1.5700745740905142,0.07812439052204437,0.003648992731143183,0.7067707759017499,-0.7063615735037572,0.02633537329074442,0.028893700389047296
-1.0471695779754708,-1.5782531011856868,-1.4840466580469225,-1.6293627818957332,1.5987168161414995,3.0139749183617086,-8.199334950219527,233.04999904270943,1079.2769014017572,-1.570046535195332,0.07938687166115549,0.009675766554215457,0.7066706677958952,-0.706412411066572,0.024653406546194054,0.03146875138425874
-0.8241441839994196,-1.553699071419079,-1.5695595852512425,-1.632185604266308,1.597372602095337,3.0261062661641343,-7.972197491393371,233.00006672742703,1079.2823434603076,-1.569991948044964,0.08156815094839413,0.013549394374565246,0.7065914210633567,-0.7064137609598347,0.024057144659835755,0.0336067820099369
-0.765675816813518,-1.5668642753419075,-1.6319504136593854,-1.6174259702296856,1.5982929807711899,3.047948250520802,-7.9122508254701,232.987786725594,1079.279419945241,-1.5699745912235106,0.08255066251580112,0.014587648343594772,0.7065632258576364,-0.7064083127963157,0.024038032990837892,0.03432020465913166
-0.7215145255359741,-1.651276794238588,-1.64976606077981,-1.4601786999173472,1.5972293703524627,3.1043931348263407,-9.561284982257776,233.0001762174196,1079.2618705202694,-1.5700845337636353,0.07963053280606044,0.015331699054748573,0.7065613422881973,-0.7064899672056933,0.02274109781148335,0.03355351385365868
-0.712868204162056,-1.759230110617652,-1.7330327862432693,-1.165615246945257,1.5957009704283966,3.116857177473943,-11.118793410651827,233.01774659364082,1079.2350772244522,-1.5702410574401537,0.0742782931124014,0.015444041033310566,0.7065915709149614,-0.706604702617438,0.0208068526146419,0.03170522094422182
-0.7119004022973152,-1.8922124322727103,-1.7920450015064184,-0.8990920874185094,1.5955184919263168,3.1196853494915824,-13.207188213900517,233.04346832885543,1079.1966294554522,-1.5704071843902832,0.06838723615376308,0.01544593090291174,0.7066231998796624,-0.7067215872522106,0.018721157113818533,0.029627179748710875
-0.7117970133762512,-2.0452425375488796,-1.8104987842086886,-0.6639227137661243,1.594115360153769,3.140419655244937,-15.904155868118783,233.07701385749039,1079.143922813943,-1.5705875433173158,0.06229834854685007,0.01541157851626547,0.7066468778583724,-0.7068387156194931,0.016578325440411146,0.027465965120341843
-0.7117761416103066,-2.1740083901127485,-1.7878815009708449,-0.5527466146674377,1.5925258277254966,3.144062006034287,-18.348947951336633,233.10745666148995,1079.0928186073138,-1.5707153731350603,0.057781173276252734,0.0153765394362703,0.7066623894216638,-0.7069192484962598,0.014992225521225706,0.02585878296186907
-0.7103734200243923,-2.252887093513188,-1.7671563926243898,-0.5378335776466501,1.5877270901696487,3.1444771329775434,-19.811925822347607,233.12530755844065,1079.0598738599479,-1.5707710912383115,0.05579049682532968,0.01531410597053763,0.7066688689753199,-0.7069530595864465,0.014309905481771263,0.025133797317693336
-0.7073099915664777,-2.3031620234894192,-1.762025689991909,-0.5328808715119294,1.3816056949147435,3.140286393330967,-20.322951134883642,233.13968725720113,1079.038836820897,-1.5707998060585586,0.05466429391405201,0.011768489808486169,0.7067155016289877,-0.7069453778670054,0.015164753403345853,0.023483243472336456
-0.6951083962583907,-2.353840278639169,-1.758371552829675,-0.5403537670670446,1.0375236456691357,3.1307400903841196,-20.603468281515926,233.15078217288425,1079.0184411153577,-1.5708137699258633,0.05367994280471262,0.005975329238460061,0.7067860869929918,-0.7069118070028924,0.016864344714564904,0.021088343471891466
-0.692073419853693,-2.3957294454817815,-1.7342304401477795,-0.5472289889092895,0.5769904002947704,3.129458667970565,-20.680540301899,233.16175212796992,1079.000190673858,-1.5708164385341197,0.05262507065453309,-0.0020096555242251246,0.7068732414183503,-0.7068500707636101,0.019313710413867577,0.017893535655191216
-0.6929468736998016,-2.385436783118391,-1.7292678968623452,-0.6064601301983832,0.13364954921735486,3.131338743695537,-19.681232223954417,233.15480361916738,1079.0057543169803,-1.5707983534653833,0.053784591972675794,-0.009761689638789855,0.7069347739019584,-0.7067506039449499,0.022463207548477523,0.015563212337740296
-0.6853637774997324,-2.248218123610255,-1.6905675765406942,-0.856576819134724,0.10649334250173063,3.1413870777097945,-17.36704671383608,233.12424329637105,1079.0538919931078,-1.5707866122507146,0.06004478623943713,-0.010102637371818157,0.7068897653030447,-0.7066684631247485,0.02479586066930423,0.017655260643244165
-0.6753914210467612,-2.1417254095947187,-1.6013385794998902,-1.1464660343706954,0.10234975445776676,3.143528666743136,-15.95854073964937,233.10414787614792,1079.0819737033771,-1.5707773905765676,0.06544298612015736,-0.010000325415571954,0.7068417928186919,-0.7065970690515734,0.026667098947247746,0.019599177695020287
-0.6739531951260213,-2.0267021851970957,-1.4241180363892847,-1.489330040962543,0.10045781293812658,3.145802468816927,-15.04590481009317,233.09294864568224,1079.1032151351349,-1.5707691250595488,0.07038122233411645,-0.010007679731371788,0.7067942426808397,-0.7065260464358981,0.028414406770947285,0.02134164259687135
-0.6877000501248124,-1.9723066264625229,-1.3621512201321462,-1.6542299925066062,0.09770077012753393,3.146089395601929,-14.360078762476974,233.08899933586662,1079.1125241531518,-1.5707651721785072,0.07313213115810381,-0.010295436754036007,0.7067688180609283,-0.7064806639558515,0.029487892191039495,0.022212012231840786
