ShruthikaS1/Robot-Gello/csv/output4.csv
shoulder_pan_angle,shoulder_lift_angle,elbow_angle,wrist1_angle,wrist2_angle,wrist3_angle,end_eff_x,end_eff_y,end_eff_z,end_eff_roll,end_eff_pitch,end_eff_yaw,end_eff_w,end_eff_xq,end_eff_yq,end_eff_zq
-1.4871531579412296,-1.5940956434842628,-1.6149368458357145,-1.6047067376877138,1.5031273599475112,1.6679628836817741,-5.416256785829511,233.08480429805482,1079.2694850637608,-1.5700509773793425,0.05747283446154188,0.00031106335777193034,0.707075038992737,-0.7065545348294747,0.020214597820950943,0.02041931880012939
-1.5040088487487258,-1.5589257078852201,-1.6302049119641457,-1.6379622288477065,1.5821000001429264,1.591580637335967,-4.73344528823134,233.06656317854876,1079.2800552137912,-1.5699714419402513,0.05759882810384044,0.0013981540891579605,0.7070906207069003,-0.706536049497806,0.019875924001954225,0.020847362265595065
-1.5033332087951503,-1.557347586635041,-1.6309470870660527,-1.6355733628045985,1.5856040462539245,1.591793980193927,-4.714826537017264,233.06577816403825,1079.2805353118442,-1.5699696484823187,0.05760130484644978,0.0014711824785587654,0.7070904667130047,-0.7065361161509012,0.01985101978905489,0.020874038213051203
-1.501725957575809,-1.557118898144132,-1.6323318856025728,-1.6377943033656188,1.586091282176625,2.0544389207970313,-4.702802630279532,233.0651357466567,1079.280577502379,-1.569967123122305,0.06574287020480596,0.001514562655631219,0.7069999445307292,-0.7064491234889806,0.022714087931867615,0.02376519649867183
-1.4807344756312197,-1.5570893258695078,-1.632574432043843,-1.6381205588229797,1.586257490940887,2.680502936040783,-4.785356741010588,233.06331588543642,1079.2805872974134,-1.5699660991735376,0.07668018201737195,0.0018929487559505443,0.7068544286773276,-0.7063191070767678,0.02644664479316167,0.02776167532247788
-1.467577277532825,-1.5569700727939022,-1.636261548200433,-1.6413936591075922,1.5873502903844263,2.9259655372789335,-4.801524998035438,233.0612012952537,1079.2806045353327,-1.5699618053758577,0.08108780774597099,0.0021455428352394655,0.7067892901488986,-0.7062611731061463,0.027915331685219077,0.029407294170839118
-1.4211389105931733,-1.556588605695368,-1.637176663034254,-1.6330342523370682,1.5848527129264902,2.9823061248809686,-4.9866709535142455,233.05726029763784,1079.2805675682207,-1.5699664788006686,0.08194795025985843,0.0029129089105554575,0.7067634655777056,-0.7062615395644671,0.027948277352926605,0.02998224890870702
-1.185835355293515,-1.556045171195671,-1.6371048978663028,-1.6094113872460696,1.5835297482302915,2.9871047050603337,-5.974487397233494,233.03551544872715,1079.2806886515175,-1.569978391505607,0.08162781071857907,0.006995746331304845,0.7067016041615083,-0.7063255610602629,0.026393103898382377,0.031312114829005054
-0.9815740787083724,-1.5558322096323405,-1.6371278364356392,-1.6050518275862757,1.5832831792641509,2.9893418162428267,-6.808782102821464,233.0128081425666,1079.2807300620464,-1.5699805153754691,0.08159491532632214,0.010556335219179567,0.7066445253059268,-0.7063725925004697,0.025123933001035794,0.032558614987221984
-0.7457660566182698,-1.5593763329783359,-1.6384781727024198,-1.6047633276968531,1.5846216333295837,2.9938554991378954,-7.815654229035644,232.98337208272216,1079.2801126807033,-1.5699810250628201,0.08163036744133093,0.014695334418903735,0.7065748485576068,-0.7064228348093861,0.023674566079043703,0.03403346539267929
-0.7199510864639844,-1.656017816841941,-1.6488181956183487,-1.5468100221593009,1.5834617940025932,2.9929567404819437,-9.476919021270396,232.99943944337636,1079.260445699995,-1.570051550841361,0.07909794202037393,0.01511998177526557,0.7065854357726087,-0.7064819477435444,0.022628165692266448,0.03329032267677436
-0.7041370371478584,-1.824534136087111,-1.6544419314467733,-1.306297376662232,1.5832449056699323,2.99279834424527,-12.607287576466515,233.0345075524449,1079.2177694727584,-1.5702470334489307,0.07205712678566166,0.01537744268915906,0.7066252771067806,-0.7066287993423648,0.020045098817022305,0.030897438520843465
-0.70136746716301,-1.9995497411695349,-1.6496231054383637,-1.1168933960824725,1.583225856626701,2.9928156623812625,-15.789462565734917,233.07271638169658,1079.161806546221,-1.5704256960033183,0.06561546836494069,0.01541315969630584,0.7066575189789215,-0.7067530878414774,0.0177526397859791,0.02863682031444137
-0.6983389048685767,-2.120236349455138,-1.652164270301685,-1.0056076518212371,1.5811090361045648,2.996974049422679,-17.90061653158137,233.0975655732045,1079.1173476152435,-1.5705369751162637,0.061685256538830405,0.01542201953867562,0.7066729947186496,-0.7068259807110581,0.01635859983754806,0.027252664797802563
-0.6991052989193335,-2.230213033080891,-1.6504429271799226,-0.8380540061393561,1.4545371641708045,2.997463294459327,-19.743090067715833,233.12615390491862,1079.068382360213,-1.5706817147490852,0.05682205527512949,0.01319102448070553,0.7067140713330481,-0.7068980280804635,0.015426093529400709,0.024747422375710836
-0.6921020533229495,-2.305668875738386,-1.6427669922399073,-0.8100878674578509,1.3965295087955525,3.0077071325657125,-20.992281491627512,233.1409938305078,1079.0355852753496,-1.5707336240541008,0.055062509287216475,0.012297948873321453,0.7067279263912928,-0.7069229855192458,0.015119149743533712,0.023810542082286945
-0.6891699276018366,-2.32441116686658,-1.6386390313384545,-0.8045220832098827,1.3813765915165186,3.06773521755764,-21.32278300965578,233.14438981937852,1079.0269825970295,-1.5707462853506635,0.05561405529581057,0.012084015200639304,0.7067194214349382,-0.7069216214566086,0.015389576948909939,0.023929926977721876
-0.6820463942544427,-2.3256893091968984,-1.6419996690260232,-0.8036850174560937,1.026825155749128,3.1420767388949495,-20.7285158327741,233.14726996176736,1079.0255254967628,-1.5707587347082195,0.0569335625093213,0.006019624379643647,0.7067698042947449,-0.7068643863624908,0.01799926953661952,0.022253299209231733
-0.6800180725984784,-2.3257824566566256,-1.6449707822187978,-0.8035498961806903,0.6100720894334598,3.154237182516681,-19.98853324703824,233.14800412726413,1079.0242555992197,-1.5707734803890716,0.057193888862722655,-0.0012195061714862041,0.706837940877849,-0.7067971362518614,0.020649543859783886,0.019787113486136862
-0.6810497128266841,-2.32387650925393,-1.6469691573250722,-0.8023451300896131,0.3146229071933132,3.178424325409438,-19.425203066493108,233.1458622003292,1079.0240611591346,-1.5707842849418208,0.0576632387277962,-0.006394673397884692,0.7068787234018457,-0.706739861970058,0.02264412911044156,0.018124053662191057
-0.6882780730770384,-2.2827247584628334,-1.6496322874791591,-0.8118911357557992,0.1760182664987351,3.1826645949490335,-18.45714744825212,233.13806652290359,1079.0392684733981,-1.570786723434916,0.05866858683846324,-0.008940072116424686,0.7068916080296358,-0.7066994083819673,0.023898802771598195,0.017579758699631565
-0.692902194519369,-2.1070259030410816,-1.6587205081522831,-1.0238461029644312,0.17136668732296123,3.20361900218519,-15.172958823500014,233.1000884171669,1079.0986113313913,-1.5707662179129347,0.06595873494657652,-0.009100678157380198,0.7068316926885951,-0.7065982262750781,0.026531583436513337,0.020099251633833515
-0.6932971593337425,-1.9876976985023576,-1.6476757642294981,-1.203583065901615,0.17092772047392576,3.208038474830081,-13.043811706299568,233.07445011454092,1079.1305243676782,-1.570751251275979,0.07106275182512087,-0.009114204961116427,0.7067835308159691,-0.7065227373994053,0.028339736433799785,0.021897978076200707
