ShruthikaS1/Robot-Gello/csv/output78.csv
shoulder_pan_angle,shoulder_lift_angle,elbow_angle,wrist1_angle,wrist2_angle,wrist3_angle,end_eff_x,end_eff_y,end_eff_z,end_eff_roll,end_eff_pitch,end_eff_yaw,end_eff_w,end_eff_xq,end_eff_yq,end_eff_zq
-1.5171371905597117,-1.6752803642032792,-1.4905544018806087,-1.6059519194646745,1.4536935026757705,1.7213127762428369,-7.572300449477526,233.15015864001197,1079.2483014444422,-1.5701661636714357,0.0548396567796313,-0.0010805623891365088,0.7070740248224305,-0.7066076516521094,0.01977419412525622,0.0189981918823025
-1.5552208924794955,-1.6699303877367015,-1.4475033304966163,-1.6235517902914045,1.5317602674877666,1.637860667382292,-7.806291447960793,233.16216438978864,1079.2518351864965,-1.5701417835809277,0.053031554845608606,-0.00038275943980999125,0.7070930876448426,-0.7066232427108862,0.018888657171064523,0.018605829621621106
-1.5595409985751176,-1.6711699396624518,-1.4469721295797235,-1.6256754650583303,1.5351239330705657,1.6413304691053268,-7.815246138365067,233.1633182320964,1079.251664236273,-1.5701401790592853,0.05309823327867618,-0.000399345297777102,0.7070931878992002,-0.7066218888562786,0.018918105762382408,0.018623509070384233
-1.5598912097180795,-1.6781615762588094,-1.440879923485291,-1.6233703599237232,1.5342393495572253,1.9649324889437858,-7.9804089935955504,233.16794371510068,1079.2496856561572,-1.5701475614660179,0.05847767159713888,-0.0004176243118516234,0.7070380842690936,-0.706570900859857,0.02082627892797611,0.02051768888531219
-1.554933372759893,-1.6815809849983292,-1.4115118998974057,-1.6230582873622568,1.535509646557208,2.633239343490436,-8.310082910446605,233.17559455546032,1079.2478370265083,-1.570162076088712,0.06956432246029898,-0.0003023905135458939,0.7069068747731461,-0.7064512273654953,0.02470435241462521,0.02447506330988525
-1.5523204449701447,-1.6905205570847206,-1.4048276493300915,-1.6297288476040892,1.5398020952246096,3.001713217588805,-8.516920664878523,233.18033211180457,1079.2454919492886,-1.570164222733701,0.0758391486269872,-0.0001779843816689155,0.7068241383854119,-0.706372723447382,0.02687809559989295,0.02673538745129955
-1.369467889234211,-1.688915194256703,-1.4167633109056827,-1.6316518614575093,1.5406023200518144,3.0437685536210592,-9.13096018354739,233.14881678350744,1079.2464146542927,-1.5701565699893296,0.07684294426521428,0.0030284065000346647,0.7067689866135406,-0.7063992003477422,0.026100485005140135,0.02822293379214261
-1.092670574010393,-1.7341908866629667,-1.4483362066583219,-1.6269503438044859,1.6031657011660763,3.0446861319174316,-10.827359298886913,233.10987520975996,1079.2383663266983,-1.5701396224507873,0.07653715751251994,0.008952373579406191,0.7066929062470125,-0.7064710818195366,0.023900202256573664,0.030208064237547523
-0.9386321738541311,-1.77198709178984,-1.4416929702906442,-1.6230637395182554,1.6160514240860346,3.044890848886117,-12.144875963037416,233.0906130112208,1079.228242031373,-1.570158236543039,0.07569747028593761,0.011864276563036869,0.7066546588229883,-0.7065212390624691,0.022574483255441126,0.030940662939716115
-0.8764660330710595,-1.8331762838126962,-1.4419432630491817,-1.6091558833645399,1.6181389137117246,3.044934431739975,-13.402357832649482,233.09256471232237,1079.210600376691,-1.5701944567082913,0.07439240779867509,0.012982990113465983,0.7066447521063923,-0.7065608624377517,0.021717388977289837,0.030875508218081008
-0.8613639303439513,-1.9498580206077862,-1.4899644075881406,-1.3521533265672392,1.6183582983124516,3.0449303815336806,-15.36585804086722,233.1176102923157,1079.172999081632,-1.570355496528608,0.0687107130357212,0.013238886975656556,0.7066690512674177,-0.7066790733759666,0.01961612167517557,0.028961129185817468
-0.8472402901367605,-2.0731287630294903,-1.5543421031189,-1.123573075418073,1.6145152794674165,3.044952103081426,-17.233749694050562,233.14077691663852,1079.1298137938454,-1.5704983276735318,0.06369576103588237,0.01340887431193561,0.706686683964894,-0.7067779909139187,0.01778128667468021,0.02725120383725769
-0.8268975296808292,-2.1800790131173513,-1.5721059496734149,-0.987748739339186,1.6164850899612653,3.0461733900191192,-19.114621843838876,233.1604989554597,1079.0867393239605,-1.5706090130880692,0.059791452424537414,0.01379147631095191,0.7066944658896067,-0.7068535762021108,0.01626444957595496,0.026008102031513054
-0.8217575007290863,-2.24843095555285,-1.5875501791214024,-0.8871348302664059,1.6168225995820218,3.045202922367916,-20.271959265867824,233.17506676882314,1079.0570270670805,-1.570684727105593,0.05709612308211584,0.013882652290399814,0.7067009747540058,-0.7069022981447182,0.01527848033371483,0.02508866672715643
-0.8094342737018961,-2.3086458595594594,-1.5978191184058814,-0.8488640537256532,1.6062024332046612,3.0476956539516142,-21.24523952528259,233.18426268590926,1079.0312935293732,-1.5707286926746005,0.055600582622721766,0.013909905003201066,0.7067036641702598,-0.7069292596126063,0.014739643870674035,0.02457022284121338
-0.7949325828394063,-2.346087239124128,-1.6142877996298348,-0.8008909237010815,1.424762820357471,3.047981152854009,-21.529852872723865,233.1903504865183,1079.01468523268,-1.570766299240178,0.05440280770483326,0.01099422607855322,0.7067394118173039,-0.7069296263743359,0.015346393364075598,0.023116992648010527
-0.7933916513029083,-2.396263973305933,-1.6209652961918737,-0.7993509949729461,1.0052989772713972,3.0493709191350047,-21.55488302115368,233.20549451089812,1078.9931814267993,-1.570788950984724,0.05364129017564768,0.0036988744598204283,0.7068187964567756,-0.706883723782215,0.017655550152789138,0.020269967340545397
-0.7944697142349713,-2.4080438172805314,-1.6193252606284272,-0.752304389456035,0.6764178965091207,3.053593002256432,-21.26313112346764,233.2103059268172,1078.9867731431216,-1.5708038401259912,0.052659749080973095,-0.002060790758638564,0.7068778412099919,-0.7068447886628785,0.019344151523710065,0.01788759761007606
-0.7932596923888544,-2.4106332632218876,-1.617684248669537,-0.6983676715084839,0.4429835194287179,3.052750302400107,-21.01161696957186,233.21027051867594,1078.9849264143,-1.57080910654468,0.05162983750465083,-0.006114142566499704,0.7069191603961089,-0.7068165995880556,0.020412640863155,0.01609096966098445
-0.7943730113198685,-2.4096146815515116,-1.602147223967764,-0.6932613167717309,0.2001467624243051,3.0539007485871563,-20.710925408458806,233.2089417918423,1078.9843716369812,-1.5708032988926772,0.051307362069053564,-0.01037156904748617,0.7069562067017986,-0.7067730173690078,0.021803288297602884,0.014472053908262327
-0.7945990280802225,-2.3356428982266553,-1.507699793409145,-0.8961487012990499,0.1574939815486028,3.0541990162774737,-19.910440278463597,233.19816554291825,1079.0062333722672,-1.57079304974336,0.05449623657453735,-0.011119404192073622,0.7069416386346974,-0.7067251086975631,0.023194495966213972,0.015334785873297254
-0.7931958086592859,-2.218111424311939,-1.3169831567007848,-1.2830610068022958,0.14694754656510328,3.055537902443767,-18.981781793772768,233.18479043541737,1079.0325426408554,-1.570779199753671,0.0599951587053633,-0.011278190017200611,0.7069030671420261,-0.7066517720455456,0.025193748262322894,0.017222130489027123
-0.8005714780050345,-2.1515495033226486,-1.236465668177597,-1.372732305366359,0.14503547629815855,3.0517569529998965,-18.41888299472317,233.1797942731063,1079.0491970403082,-1.570776069983589,0.061250653820395184,-0.011440102376691874,0.706894650083034,-0.7066326336582419,0.02569458380094119,0.017608608590627843
-0.8304215561347382,-2.14639216783488,-1.2269968469746695,-1.3840670184816874,0.1461979989216826,3.0548753472329575,-18.27848064317315,233.18907920069506,1079.0501080129652,-1.570775594038617,0.061427657697892414,-0.011940765042680317,0.7068976585277806,-0.7066237187240569,0.02593401839900332,0.017494204589123694
