ShruthikaS1/Robot-Gello/csv/output52.csv
shoulder_pan_angle,shoulder_lift_angle,elbow_angle,wrist1_angle,wrist2_angle,wrist3_angle,end_eff_x,end_eff_y,end_eff_z,end_eff_roll,end_eff_pitch,end_eff_yaw,end_eff_w,end_eff_xq,end_eff_yq,end_eff_zq
-1.4276812267257217,-1.7365353525832934,-1.4639583756891088,-1.5570203874111639,1.283616965622151,1.813058780926118,-8.933937711345937,233.16997956086746,1079.2253388533752,-1.5702934434013747,0.054055981277961,-0.002492852421467976,0.7070494938484181,-0.7066463949726817,0.0199949508372019,0.01822327253339781
-1.531516262807818,-1.7537987831134725,-1.346462279791921,-1.6461940872131593,1.373270485271424,1.6380744951348807,-9.796540974474217,233.21653399089786,1079.2193062796828,-1.5702775215279887,0.050205721991777134,-0.0027414741744959522,0.7070910017192434,-0.7066756097810665,0.018721826221889313,0.016774714636984767
-1.5405425047187704,-1.756846338719758,-1.332122754793057,-1.6541165542695768,1.3798890902274201,1.6754414013314962,-9.92932973092152,233.22235724291957,1079.2179569277844,-1.5702789909093782,0.05069269671507157,-0.0027832588167950446,0.707086728682486,-0.706671157021532,0.01890873309757221,0.01693203377017786
-1.5375540721634418,-1.755910349925566,-1.3274175331104467,-1.6559963803238924,1.382014562481489,2.253415345197414,-9.96732957724166,233.22244342612663,1079.2180481567925,-1.5702787001599097,0.06074725771651759,-0.0026887846809610055,0.7069917568066472,-0.7065681694576149,0.02242957861329012,0.02051808275634846
-1.5221308359054757,-1.7581736604422027,-1.325142721650017,-1.6513033782857442,1.3813372027313415,2.6969729977927486,-10.092821280137743,233.22144671602067,1079.2172307038163,-1.5702825923733768,0.06832773768166778,-0.0024276850685968,0.7069044570790188,-0.7064827688467249,0.0250165846050263,0.023288546094210508
-1.393841149838922,-1.7607482241546037,-1.3469770679440152,-1.6504802710935513,1.4012479351665226,2.773896895177908,-10.504807376811378,233.19474176075946,1079.2184505542787,-1.570267242429689,0.06999181738641705,0.00016057955572341224,0.7068587558424336,-0.7064888386420626,0.024690613930062204,0.024791001327761217
-1.187325617957977,-1.7902927254320657,-1.366486148196784,-1.650362221334426,1.4035747957719245,2.7888666753189826,-11.65464836602001,233.16167709097795,1079.211193152075,-1.5702707112920813,0.07007590963238983,0.003805452244720122,0.7068100789053924,-0.7065329043311509,0.02343272007811399,0.02610890815186513
-0.9565527761112181,-1.8339491469485123,-1.371963711905462,-1.6457407525616183,1.40246660426203,2.83158235157981,-13.25114729937519,233.12386881838208,1079.1986374470414,-1.57028945033158,0.07007466659401787,0.007812932708361616,0.7067497413414868,-0.7065850746397336,0.022016268302185227,0.027524885833547088
-0.7993147342282079,-1.9085061798013294,-1.3725908351436744,-1.5363584283019083,1.4009173365388239,3.008307777546253,-15.26589510713282,233.1058753412018,1079.1744067906036,-1.5703684113156955,0.0699606769686568,0.010526133278433762,0.7066854755484037,-0.7066433907692226,0.021016278053977086,0.028444208335970354
-0.7646275696763816,-2.0111930956146056,-1.3749880741995097,-1.4235260309295652,1.3980209246533897,3.0547473927505413,-17.220482815722868,233.12091619130499,1079.1379954407664,-1.5704603258239416,0.06705265010418869,0.011075009666885897,0.7066860711796634,-0.7067111210832937,0.019793139805077936,0.027611949487536692
-0.7751585410524717,-2.1591862064478473,-1.5335177378344378,-1.0507892375359489,1.3949150110214714,3.0358951249602795,-18.827386643138688,233.14652993999536,1079.0901149338474,-1.5706153759177093,0.06040392309236677,0.010827044573031437,0.7067223125549776,-0.706825607399835,0.017528556456573835,0.02517704052003872
-0.7774015931046533,-2.2715114598136306,-1.5758810194085213,-0.868651028173296,1.3917970526832293,3.025431930603193,-20.56284258078111,233.17107097504623,1079.0439910778805,-1.5707228649082106,0.0558226363665107,0.010727211671697733,0.7067413213390242,-0.7069010836954562,0.01594315344878221,0.02352399711503571
-0.77767755141532,-2.358788730136936,-1.5724630217693814,-0.8392196469469947,1.3498577100927047,3.0293098131695775,-21.96536067927169,233.19196713278242,1079.005083161341,-1.5707745478374664,0.053794347481731154,0.009987588667778427,0.7067549340317562,-0.7069294717389504,0.015487035240327681,0.02254632892782504
-0.7763622457979226,-2.416020629748546,-1.5733110790992129,-0.7550462695305495,1.1802830539104345,3.029513610799096,-22.73050564976775,233.2082673903763,1078.9765332726029,-1.5708278841406915,0.051345298948925915,0.007048104304737659,0.7067942623739162,-0.7069445013603606,0.015659817203405604,0.020642499771566753
-0.7776303034798607,-2.467847902734049,-1.578796058442538,-0.6330368654944102,0.8941204591216995,3.0220892327319793,-23.222013938828116,233.22451717988017,1078.9506754392037,-1.5708661345030093,0.04827764702605196,0.0020296121585968827,0.7068584233697205,-0.7069424099909705,0.01634907160469358,0.017784997191347622
-0.7763117465355245,-2.4774570321758738,-1.577613027672939,-0.6259623467743733,0.4878406756928128,2.9308504618275353,-22.69728289785341,233.2253177811366,1078.9491944671565,-1.5708370700688217,0.04637302698126341,-0.0050367559659812615,0.7069413582048611,-0.7068875883700642,0.018173803813884348,0.014613908537942725
-0.7723690764290437,-2.4232018055344677,-1.5634367576742512,-0.6626349416128948,0.439705329890554,2.903428662664644,-21.81978831757626,233.21238669180548,1078.9725857588942,-1.5708227599464837,0.047233921649791906,-0.005807371176858742,0.7069457558383512,-0.7068674693266059,0.01875053713779661,0.014645697900283144
-0.7717151270993682,-2.3322380497145843,-1.5365545516353427,-0.8572414442670842,0.4227489045464338,2.9066326146199573,-20.23021939768412,233.19091249613973,1079.0108673158086,-1.5707883889913243,0.05180466886626702,-0.00609020278872477,0.7069248794188309,-0.7068077346715606,0.020466133762820936,0.01616101593125798
-0.7741792500179657,-2.247489953684646,-1.4404923004667036,-1.0552344892734218,0.09598381027217719,2.9095794830998782,-18.776734473789485,233.17484877621283,1079.03395632475,-1.5707890577504555,0.0551142858616431,-0.011836358693016615,0.7069438066798398,-0.7067080578442927,0.023666262366803553,0.015299777794159457
