ShruthikaS1/Robot-Gello/csv/test1/output.csv
shoulder_pan_angle,shoulder_lift_angle,elbow_angle,wrist1_angle,wrist2_angle,wrist3_angle,end_eff_x,end_eff_y,end_eff_z,end_eff_roll,end_eff_pitch,end_eff_yaw,end_eff_w,end_eff_xq,end_eff_yq,end_eff_zq
1.32879016968457,-1.36673360019713,-1.32073160693577,-1.31699763164518,1.31641862980253,-0.008371481200834,-15.9254776114361,232.566946652403,1079.30518933431,-1.57028661532166,0.022031092975916,0.046173180698979,0.70687582822665,-0.706875137110548,-0.008529165047234,0.02411135308167
1.52421495558054,-1.55399688919176,-1.47289489290978,-1.46355935238151,1.49290990385658,-0.021877085730621,-18.4592921055515,232.457434584648,1079.27688142575,-1.57016758663754,0.023738413704957,0.052666105720235,0.706813098689488,-0.706810652142875,-0.010218636451758,0.027009720609346
1.58688478928427,-1.61967407528927,-1.52140993202521,-1.51079008712274,1.54928937880738,-0.026043658964688,-19.3632848006917,232.416502126115,1079.26570727093,-1.57012965220999,0.02418966683605,0.054744477364821,0.706791778601805,-0.70678870295778,-0.010793035866919,0.02790378915008
1.61328187202175,-1.64708792577767,-1.54258154767299,-1.53064360910274,1.57238906246066,-0.027790610056219,-19.7326532615864,232.399074940961,1079.26088736263,-1.57011319264653,0.024396378281657,0.055608614456271,0.706782554354099,-0.706779302264816,-0.011025084348774,0.028282260621416
1.62557875943467,-1.66069639439024,-1.55242006583276,-1.53900267323935,1.58234292912913,-0.028602092136556,-19.9184719392672,232.390500125215,1079.25837768495,-1.57010665642915,0.024462160778812,0.055997059329525,0.706778422910566,-0.706775205190475,-0.011139000919976,0.028442800398709
1.63019202635366,-1.6658035687755,-1.55609760762059,-1.54296946476531,1.58526388563616,-0.028905981187435,-19.985470541863,232.387380951231,1079.25739788126,-1.57010415796405,0.024501086542064,0.056128597910198,0.706776879177378,-0.706773806079811,-0.011171684038847,0.028503045021173
1.63232788395665,-1.66908570743916,-1.55687889275274,-1.54296067392146,1.58571523189774,-0.028130835635462,-20.0407208024914,232.385286448373,1079.25666437488,-1.57010517353722,0.024470825154238,0.056173735165572,0.706776308146662,-0.706773743005634,-0.011198350799552,0.028508303698234
1.63309850134904,-1.67029506813158,-1.55714459063004,-1.54038059578462,1.58670472244329,-0.027765610266045,-20.0671147060217,232.384305853842,1079.25641657319,-1.57010644621597,0.024415710312025,0.056204422768317,0.706776206322045,-0.706773711138841,-0.011228703839182,0.028499677719926
1.63247936850628,-1.66989489709279,-1.55719966236079,-1.53805062925125,1.58623224134434,-0.020170332344841,-20.060965088338,232.384649128563,1079.25647979133,-1.57010755563869,0.02451557101977,0.056185437277267,0.706774661616387,-0.706774770172755,-0.011186696622617,0.028528227476741
1.6322259152735,-1.66593326390742,-1.54639659140258,-1.54199938199177,1.58726667261567,0.156107827773474,-20.0842154740827,232.383996232375,1079.25727075577,-1.57010845084188,0.027541724651698,0.056201156043672,0.706730149860866,-0.706791153981213,-0.010122111575962,0.029602411874503
1.63217767047097,-1.66232877396658,-1.54754678444024,-1.54559802314409,1.58842189783684,0.456911644025136,-20.0122408982921,232.386002785176,1079.25820409072,-1.57010379569525,0.03293746345919,0.056224232913841,0.706649014921776,-0.70681420522642,-0.008222017920417,0.031515828111351
1.63215089332219,-1.66109026205392,-1.55353886436618,-1.54872785689172,1.58975772793025,0.751848393269599,-19.9377685920057,232.388066643675,1079.2586721906,-1.57009806321208,0.03826581727768,0.056250854284683,0.706564139983376,-0.706831550226719,-0.006346922240887,0.033406470506666
1.63132636041577,-1.66235602292167,-1.55149537400251,-1.54734617123481,1.59024943490582,1.15686423478512,-19.9754643608339,232.387161005462,1079.25835697281,-1.5700999170431,0.045252828808302,0.05624989034595,0.706442500478185,-0.706850148069983,-0.003875538029871,0.035872578615877
1.62827739705368,-1.66474115119306,-1.54952667494092,-1.54230587205241,1.59046101759565,1.53995099783165,-20.0272794543479,232.386388995988,1079.25774912938,-1.57010415920083,0.051775054802058,0.056204798466541,0.706321129725034,-0.706860642813649,-0.001552943618215,0.038158638748594
1.60704662781388,-1.67696920138112,-1.53345594502761,-1.51582922767655,1.58637625563427,2.02313895904303,-20.3136560921712,232.383540613335,1079.2541832801,-1.5701321542851,0.059252678646061,0.055767137386711,0.706172545816425,-0.706871236142561,0.001245821297471,0.040642821982876
1.59333237413042,-1.67640313320616,-1.53676336190593,-1.5211310882553,1.58997375473116,2.1957377876849,-20.2176090651093,232.389347239259,1079.25458014998,-1.57012606909727,0.062425132285606,0.055592924778714,0.706112973184806,-0.70686605617676,0.002429520661944,0.04170066132065
1.58748135444761,-1.67786954565007,-1.53630024733887,-1.52658101823823,1.59046705278913,2.33648488533507,-20.2126789795632,232.390865771764,1079.25427197997,-1.57012404507067,0.064943045124024,0.055501186829063,0.706062580385376,-0.706861604950329,0.003352493817601,0.042556607146155
1.58585567365542,-1.68021886651365,-1.53440386395324,-1.52304780058445,1.58648607308891,2.58210418229204,-20.2591771747416,232.390161215897,1079.25347326722,-1.57012930725252,0.069094240599532,0.055405864184324,0.705972961999364,-0.706854810215395,0.004854204605786,0.043987394772237
1.58512513090479,-1.68048199508335,-1.53177498230552,-1.52219052389042,1.56557178824346,2.76242461887565,-20.248186531404,232.391641959719,1079.25247024098,-1.5701397466323,0.072176253968696,0.055029536675624,0.705909113316719,-0.70684908942931,0.006076960022642,0.044941729675682
1.58387460543143,-1.68336629364459,-1.529695616988,-1.51993463240177,1.55310618244736,3.00011405038626,-20.2893875031172,232.391394247926,1079.25119368964,-1.57014820262464,0.076198899802156,0.054792279264585,0.705819791413437,-0.706837585881407,0.007583235725946,0.046276816769976
1.58342658312603,-1.69488962263224,-1.53774877615031,-1.51993642019403,1.55115214160393,3.08588937871417,-20.3993657821055,232.388554568612,1079.24850931722,-1.57015058931475,0.077635471010547,0.054751147260339,0.705786484348057,-0.70683265384944,0.008105754362699,0.046768950276646
1.58243423642577,-1.7110611798197,-1.54244971119835,-1.51835024534623,1.54866274067346,3.12608569285463,-20.6120851060221,232.383037223297,1079.24454290966,-1.5701577774491,0.078109256290702,0.054690281416487,0.705774271759877,-0.706833005474038,0.008294647822906,0.046914587409966
1.58091085305509,-1.74790668587327,-1.54027915650555,-1.50773649844911,1.54723035881929,3.14875549474491,-21.2298267525674,232.366432824744,1079.23502682018,-1.57018184406313,0.077639048061951,0.054637075127009,0.705778021113946,-0.706843205406317,0.008146604038741,0.046730083736724
1.56229085477687,-1.79845715617583,-1.53828163759402,-1.46526022482745,1.54666560333377,3.15662663367166,-22.0528891844362,232.34883863301,1079.22109073722,-1.57022702393007,0.076118551097342,0.054298851477499,0.70580518142705,-0.706863820158394,0.007727391275475,0.04607464645427
1.49781798177759,-1.83494353152864,-1.53668556854868,-1.42139089588902,1.54652213025282,3.1598720368038,-22.4647799098757,232.355906730854,1079.21028831242,-1.57026583849229,0.074745389605822,0.053168189979264,0.705848594409569,-0.706878432789525,0.007640531130514,0.045191429620059
1.44024170152881,-1.8482229605778,-1.53971796989435,-1.40505600968742,1.54645512774312,3.16177343006971,-22.4459545283639,232.372969789625,1079.20639824795,-1.57027843143691,0.074314803280519,0.052161204785395,0.705876445094989,-0.706880640861044,0.007843890825693,0.044684194215118
1.3964872793596,-1.85462785286288,-1.53513563878807,-1.39834312519249,1.54642764955427,3.16165497310516,-22.4219039678255,232.386304530246,1079.20420469998,-1.57028681093059,0.074003923696231,0.051396444650139,0.705897414056147,-0.70688179652555,0.008004067873749,0.044304643855104
1.36853470474776,-1.86171745301856,-1.53208962213779,-1.39520786612071,1.54723938866773,3.16158996844582,-22.4549356322519,232.393679954213,1079.20194237805,-1.57029282230056,0.073771246115529,0.050922300893701,0.705910903526109,-0.706882944150369,0.008089237588091,0.044055235642343
1.35198174084212,-1.89104217159867,-1.52919921133424,-1.37619151180336,1.54774106748007,3.15939921012035,-22.9156141439358,232.387677005489,1079.19271859167,-1.57031690489337,0.072839174681832,0.050640369138093,0.705929005125604,-0.706894026406079,0.007858759912367,0.04362699905352
1.34227448036871,-1.94957038744623,-1.52558084174058,-1.33457758303211,1.5478912013837,3.14974097349622,-23.9161189929186,232.367183292734,1079.17341933628,-1.57036596148415,0.070860305049817,0.05046996728824,0.705958145097755,-0.70691813906559,0.007218172968963,0.042868869931113
1.32640878833031,-2.00973255380624,-1.50001074271954,-1.31195206525353,1.54792789927257,3.14568531623307,-25.0729464914363,232.34551978986,1079.15095320472,-1.57041721341,0.068899011552073,0.05019009201784,0.705987627280547,-0.706942031420405,0.006622481794825,0.042078225638113
1.31879431511855,-2.06191853547458,-1.47775872479181,-1.30144301327147,1.54699617859653,3.14368431199602,-26.0844009942883,232.324897693788,1079.13028897884,-1.57045759403479,0.067382029123376,0.050038172286459,0.706008222010105,-0.706960629393295,0.006138929536349,0.041489426196492
1.29771348496256,-2.11296057457755,-1.47071179187979,-1.25260654462194,1.54750509292502,3.10649898668214,-26.9616300332406,232.312646796861,1079.10939002048,-1.57050804007649,0.064867500395781,0.049675587700794,0.706049346960089,-0.706984616785984,0.005376934732967,0.040474187553124
1.28604831369622,-2.15495424724922,-1.46810517240862,-1.21449166055782,1.54775617480891,3.08065093651927,-27.6750944020812,232.301040681341,1079.09180076249,-1.57054709705693,0.062973240724906,0.04947375820919,0.706077572869433,-0.707002691431753,0.004777703118373,0.039734480643142
1.26477103488607,-2.20776058689499,-1.47156814535814,-1.15537619846263,1.54698057269269,3.06492593861908,-28.5051726482433,232.291107346617,1079.0691544933,-1.57059845186044,0.060806518044556,0.049085625730983,0.706109601680087,-0.707024781255441,0.00414777953516,0.038832782939315
1.25773199113247,-2.23286986946976,-1.47495120741835,-1.11994800878638,1.54962252620462,3.06280642547703,-28.915406105032,232.284850188569,1079.0580245124,-1.57062515000861,0.05977234890571,0.049007265507799,0.706121655951109,-0.707036104920844,0.003809303399211,0.038440116321851
1.24338549911296,-2.25095780876726,-1.47777755214914,-1.10904606082703,1.54858012731057,3.06218107182169,-29.1394258220674,232.286007466683,1079.0504168824,-1.57063763187824,0.059304964466518,0.048737934518275,0.70613135533201,-0.707040884076595,0.003739021387098,0.038180059982038
1.23781550746336,-2.27664934947055,-1.47688815939718,-1.09904167636021,1.54719239579349,3.06193913688036,-29.5503595308941,232.279537221986,1079.0390133337,-1.57065505014215,0.058662444425024,0.048615472281005,0.706139749658275,-0.707047980373668,0.003554804037083,0.037910035219241
1.23620085795706,-2.29183440687669,-1.47818892999595,-1.07478187695276,1.54595801072404,3.06023254024492,-29.8155678558994,232.274563596973,1079.03171037777,-1.57067315941383,0.057967164296162,0.048564688131702,0.706147440263138,-0.707055481266723,0.003326583510683,0.037646684616934
1.23546270915133,-2.30493300724489,-1.47877948280699,-1.06478630768955,1.48177416888838,3.06024065945654,-29.9229357770812,232.275515978972,1079.02523957649,-1.57068844767265,0.057574810117264,0.047430713560023,0.706170560487348,-0.707059596305363,0.003588465939197,0.037107811653144
1.23511293368874,-2.32073484106459,-1.47728278927792,-1.05666460586293,1.43303124244382,3.05939146259939,-30.1165684614527,232.273648885087,1079.01750072574,-1.57070311182369,0.057116551100572,0.046573048912929,0.706189639022016,-0.707064042524428,0.003729381533101,0.036643215202118
1.23386777060767,-2.33334999013546,-1.477444953586,-1.05241724430188,1.32366968807821,3.0599784213097,-30.129356437995,232.2784931856,1079.01116324044,-1.57071696961339,0.056835568133278,0.044641821446622,0.706224839156205,-0.707065617538741,0.004312536737759,0.035862112043714
1.23051376700598,-2.33910771063653,-1.47552938584769,-1.05016529329309,1.23131202360768,3.06016584460572,-30.0678026056808,232.284866824227,1079.00777062361,-1.57072623493199,0.056665774479371,0.042970821421503,0.706254271841163,-0.70706545295841,0.004843093294368,0.035212117036167
1.22846239945296,-2.35131535308918,-1.47481905892268,-1.03066988004834,1.12871461401556,3.06022567557511,-30.1165376793278,232.288393504968,1079.00119963613,-1.57074323785643,0.05610132839453,0.04114340543458,0.70628986705434,-0.707068257477078,0.005289287347074,0.034367519608664
1.2276900908217,-2.35604952343045,-1.47367260032666,-1.02146522463572,1.01177992264731,3.0602490349678,-30.0118612412344,232.294773262356,1078.99819688783,-1.57075339433192,0.055838591864797,0.039088469256399,0.706325628535306,-0.707066820526128,0.005922713583948,0.033549057350087
1.22736548948799,-2.35611901782216,-1.4750779159374,-1.02038109557422,0.807921850071571,3.06127323576118,-29.647352980619,232.308353133475,1078.99746135359,-1.57076198183567,0.055860997130984,0.035524341152307,0.706380895805896,-0.707058095678861,0.007190524413845,0.032298231129523
1.22722738962848,-2.35396687349258,-1.4756153063719,-1.01786439332145,0.593506008249462,3.06800808022257,-29.2396246703183,232.321706451544,1078.99749598262,-1.57077106485605,0.055981669990414,0.031779175354891,0.706435057100908,-0.707046084490654,0.008557056984797,0.031018079905618
1.22719222789676,-2.35323180537052,-1.47016081261146,-1.0147742715159,0.364292245571758,3.07025102414277,-28.881640767501,232.332721149904,1078.99619900805,-1.57078168897283,0.055884598616275,0.027777444862414,0.706493386237684,-0.707031783729059,0.009937268825085,0.029570300769763
1.22718610381644,-2.34981468040431,-1.47420935067952,-1.0151100977913,0.239629521214789,3.064315334883,-28.5750082728621,232.340434647783,1078.99754974386,-1.57078612769779,0.055917188140553,0.025601319787212,0.706523103818748,-0.70702194632568,0.010718014539918,0.028813110704875
1.2271824875354,-2.34825412236537,-1.47273498069946,-1.01761302653091,0.159304954599274,3.06217316192843,-28.4187479232295,232.344269711743,1078.99769467648,-1.57078942061468,0.055925000492445,0.024199148379372,0.706541855951059,-0.707015377807243,0.011216409965733,0.028320548737539
1.22718446241676,-2.34744493437956,-1.47364509276473,-1.01802861734532,0.099627729964048,3.06195089658813,-28.2935707842261,232.347184874445,1078.99786011724,-1.57079194283546,0.055958387886429,0.023157480994786,0.706555152066833,-0.707010137586808,0.011596413272556,0.027964363688622
1.22718455537047,-2.34710762805254,-1.47241997526869,-1.01737789193134,0.071309920120101,3.05853882952944,-28.2506103925215,232.348178568837,1078.99774932457,-1.57079322240253,0.055871985429863,0.022663173415026,0.706562789546776,-0.707008209806127,0.011740591665301,0.027759218324056
1.22628522783046,-2.34565106719107,-1.47197083769421,-1.01632587800303,0.057149379800168,3.05948799589631,-28.2047450075684,232.349553295649,1078.99823568023,-1.57079383963982,0.055887773945077,0.022400295475186,0.706565995463438,-0.707006785148915,0.011839092764021,0.027671929652303
1.22594367672478,-2.32057495065567,-1.47430442691085,-1.02180138816286,0.054637478055183,3.05736542435706,-27.7684148689648,232.359033518782,1079.00850861833,-1.57079340069038,0.056424683221444,0.022350518031765,0.706559389727728,-0.707003126757188,0.012046494580316,0.027844021108065
1.22660844596723,-2.28568287549839,-1.47948470472695,-1.0325297844016,0.053558639221996,3.05558125450922,-27.1480983561461,232.372052803726,1079.02263178295,-1.57079262816266,0.057280183586367,0.022343335061459,0.706547788958189,-0.706997591952357,0.01235146511316,0.028143706248841
1.227789513109,-2.26022306378445,-1.48625191735248,-1.04137385457021,0.053918090789485,3.05479951860258,-26.6728740423348,232.381780337387,1079.03292528149,-1.57079192749189,0.057983365206678,0.022370262430694,0.706537715561685,-0.706993127683034,0.012590530334955,0.028401627483669
1.23102537795302,-2.21419151591982,-1.49764553715969,-1.07657523724412,0.054147343733059,3.05434647669269,-25.7911879245894,232.399501555173,1079.05063852793,-1.57079037787174,0.059592095672015,0.022430831091763,0.706514311790294,-0.70698262246574,0.013137821349196,0.028991316236914
1.24355717404443,-2.1594539288149,-1.52169288544487,-1.10096097585582,0.0542131270203,3.05422367959075,-24.7178860270554,232.418256990786,1079.07138586035,-1.57078866303683,0.061390619597563,0.022650803955461,0.706485298634461,-0.706971427299366,0.013695850532409,0.029704334260625
1.26133138594223,-2.09752818924485,-1.53291816892745,-1.15325627565626,0.056146854480329,3.05416269049536,-23.615619302967,232.436431746112,1079.09193728572,-1.57078623879182,0.063579005190075,0.022994922355064,0.706447975890814,-0.706957641266769,0.014347809735718,0.030598875307548
1.27873743445237,-2.04498831995493,-1.53689912203847,-1.2024800541688,0.057681079157977,3.05501508430487,-22.7287940766842,232.45061590499,1079.10779673702,-1.57078410001878,0.065439472510805,0.023325628857033,0.706414784056816,-0.706945704967492,0.014888583715058,0.031372809388652
1.29803060729903,-1.99485742602556,-1.53927969637383,-1.2393790333365,0.058319329181514,3.05537892047933,-21.9217706504404,232.46300786104,1079.12209097661,-1.57078237161934,0.067006328396975,0.023673611346275,0.70638503415629,-0.706935889878518,0.015319454043258,0.032049109964283
1.30786896911859,-1.9642628533026,-1.54050403323619,-1.26711341933086,0.058615066547888,3.05646227000244,-21.414120186248,232.471740952483,1079.13024300327,-1.57078123415419,0.068064636884425,0.023850561259013,0.70636550690134,-0.706928668773963,0.01563100824152,0.032485373737099
1.31931708830086,-1.94659226241535,-1.54200514314777,-1.27900524643681,0.058744302629333,3.05874690822828,-21.1446012892247,232.474734283905,1079.13491257364,-1.57078064315772,0.068646671863388,0.024052664952356,0.706352924918996,-0.706925478080992,0.01576531290134,0.032762307724938
1.32483603532453,-1.93481851879056,-1.54279686377633,-1.28465452806909,0.058809607677271,3.06095346394631,-20.9621760138781,232.477433161079,1079.13801356711,-1.57078029829048,0.069003090628269,0.02415015272768,0.706345593068239,-0.70692330938641,0.015856842876934,0.032922611275855
1.32754777420467,-1.92792740235728,-1.54764420083328,-1.28627886009927,0.058831204392325,3.0615969098346,-20.8185710415181,232.480023664801,1079.13993731211,-1.57078005211262,0.069247545352929,0.024197875571478,0.706340862889815,-0.706921659314902,0.015926385425162,0.033025796747786
1.33024355904956,-1.92525103820046,-1.54986141976268,-1.2866477026352,0.058837304759367,3.06173951342284,-20.7670427681256,232.480494429852,1079.14068997277,-1.57077995578542,0.069341880858563,0.024245039061202,0.706338558599154,-0.706921249483978,0.01594306101587,0.033075768615788
1.33185253486086,-1.91661515711932,-1.55397678241645,-1.28674541805499,0.058838769098314,3.06177758263976,-20.5999601290718,232.483947511572,1079.14306425436,-1.57077972429715,0.069566801815546,0.024273162616823,0.706334449917268,-0.706919595592026,0.0160126262101,0.033165132744075
1.33263351809057,-1.90601626720413,-1.56106437082523,-1.28678576085734,0.058838207815974,3.06179808189405,-20.372707718077,232.489026998695,1079.14596333026,-1.57077940564107,0.069876550826292,0.024286805755881,0.706329190602293,-0.706917104675245,0.016117294674272,0.033279339432478
-1.2434038671415941,-1.2936412658068517,-1.269387111255599,-1.2961682039954252,1.2838910502807557,1.2669631867342592
-1.2492054777427761,-1.2964633570870883,-1.2739677305513732,-1.2997187285112026,1.2891585937005188,1.2717097213925195
-1.2722397302706188,-1.3167861004900618,-1.2948429935608736,-1.3263894289116822,1.3211721753579668,1.2992505299893204
-1.2868582896710727,-1.336991231105437,-1.3101445538799144,-1.347795602794012,1.3436575903177244,1.3180715608713103
-1.3001856895142627,-1.3564302614356718,-1.324580570207645,-1.3677390774132565,1.3644057461864827,1.3354229569464822
-1.3109879088334917,-1.3722916206860332,-1.3363307046973165,-1.38393708936853,1.3812337330725453,1.3494973900418015
-1.3251737089333357,-1.3930807323285719,-1.351738711801471,-1.405171643208948,1.4032973540348328,1.3679559030824051
-1.3485507685890783,-1.4271347340559037,-1.377017404856617,-1.4400204989379741,1.439538350337116,1.398288656781096
-1.3641378433815878,-1.4496816239348669,-1.3937804884190523,-1.4631442835184887,1.4636155055028661,1.4184491282156917
-1.3715493440587474,-1.4603554824907234,-1.4017225740478096,-1.4741055021142715,1.4750389284378402,1.4280164389644852
-1.3792121937033919,-1.4713584802520092,-1.4099131913167773,-1.4854142838995972,1.4868326571700758,1.43789523629414
-1.3883986700448896,-1.4845286151174242,-1.41972343732134,-1.4989659723116113,1.500976633217307,1.4497457288616988
-1.3938458659695243,-1.4924464858821236,-1.4256226135616792,-1.507121035040365,1.5094968405324998,1.4568842905295523
-1.4007965422547,-1.5023348450955234,-1.4329853381963802,-1.5173021331418197,1.5201428320678216,1.465803125164116
-1.406493097913856,-1.5104002425771632,-1.4389943286724802,-1.5256169079457573,1.5288446575732686,1.4730951973250828
-1.412135030004491,-1.5183666638346298,-1.4449293921376336,-1.5338347082778938,1.5374534559081237,1.4803097892413943
-1.416751678727525,-1.5248692343759993,-1.4497731370929259,-1.5405458264552208,1.5444908737519525,1.4862077915035206
-1.42132301415845,-1.5312931357674233,-1.4545571253492053,-1.5471785653777723,1.5514531036728754,1.4920430085276126
-1.4250630094824341,-1.536537231839043,-1.4584612258107619,-1.5525950913905477,1.5571542215520535,1.4968133352517607
-1.429395875951578,-1.542599285852839,-1.4629723912665469,-1.5588585862551465,1.56390482979069,1.5023358223070202
-1.4320806193639612,-1.546347975542123,-1.465760611805882,-1.5627327825100625,1.5679807436662678,1.5057555595634435
-1.4350487254578363,-1.5504849208607543,-1.4688361658108429,-1.56700911693311,1.5726197173453973,1.509534072036954
-1.4379328590433667,-1.5544977274352596,-1.4718175090686634,-1.5711577846197193,1.576967219177604,1.5132039916434235
-1.4396710651051996,-1.5569121431753985,-1.473610260064715,-1.5736542360121684,1.5795839213351222,1.5154146909691342
-1.4420294967822944,-1.5601830948837305,-1.4760374687682423,-1.5770365795127415,1.5831425284342417,1.5184129946695841
-1.4444437464475768,-1.5635252870432115,-1.4785154364806874,-1.5804928525417716,1.5869623737030882,1.5214808549749521
-1.445378343293541,-1.5648176746891582,-1.479472927965053,-1.5818293578188758,1.5883597041300086,1.522668324463375
-1.4468163387523347,-1.566803245000567,-1.4809431379535327,-1.5838827107324287,1.5906420283524487,1.5244944683992352
-1.4482389421752229,-1.5687536880513608,-1.482542858642645,-1.58590557241957,1.592765808728873,1.5263008251404049
-1.449729322774682,-1.570807828684295,-1.4842306833162138,-1.5880288487829701,1.595154204966635,1.5281923064855756
-1.4506520935853024,-1.5720789568786506,-1.4852741613299523,-1.5893421790033175,1.5966353223870242,1.5293634642029217
-1.4517584917231565,-1.5735880324347253,-1.4866941993969929,-1.590907345541152,1.5982447963981867,1.5307679721380292
-1.4529664898784094,-1.575232610144955,-1.4885035804938165,-1.5926134607847622,1.5999904969874232,1.5323002851343157
-1.453471347164067,-1.5759231635169488,-1.4893406329366006,-1.5933283938774674,1.6007188653485516,1.5329396320611341
-1.4550428049509994,-1.578110296600135,-1.4919826110556458,-1.5955831238216656,1.6030140481808313,1.5349555270648847
-1.455305971314071,-1.5786027712727055,-1.4925810632051322,-1.5960942728786662,1.6035354006478917,1.5354138941424091
-1.455705873580894,-1.5793760451758787,-1.4935128792907832,-1.5968894817176975,1.604348567008174,1.5361271440922757
-1.4560320533053066,-1.5800068191547199,-1.4942724205088076,-1.5975375454767518,1.6050121123304422,1.536709127024349
-1.456168886452657,-1.5802712423336933,-1.494591310630235,-1.5977867330335898,1.6052901727250566,1.536953025803739
-1.4564224913716464,-1.580761394200819,-1.4951810674955182,-1.5981457619043753,1.605805856342173,1.5374053350698391
-1.4566949844114299,-1.581285571340184,-1.4958125167134657,-1.598528289888758,1.6063596718707664,1.5378910566677082
-1.4568788209792256,-1.5816383947779922,-1.4962376948495626,-1.598785709250224,1.6067331046658886,1.5382185722279678
-1.45702881647705,-1.581925813251979,-1.4965841116317946,-1.5989953443096474,1.607037691976364,1.5384857056798185
-1.4571336434980113,-1.5821264227407257,-1.496825930128462,-1.5991416242721124,1.6072505009541123,1.5386723452695688
-1.4572000906273672,-1.582253467887274,-1.4969790859550531,-1.5992342448503947,1.6073853695238645,1.5387906283503476
-1.4572631635683029,-1.5823674338347717,-1.4971745368556413,-1.5993176061499152,1.6075149323717468,1.5389041990366106
-1.4573985769783435,-1.5826205884303857,-1.4976113302208058,-1.5995041092538116,1.607787914838335,1.539143587971859
-1.4574408531482137,-1.582701432355727,-1.4977489623389333,-1.599563026439803,1.6078735194916272,1.5392186719900265
-1.4575215582459946,-1.5828562775458184,-1.4980120802179473,-1.5996756337337927,1.6080371358665253,1.539362175932538
-1.4576217883774785,-1.583048659873849,-1.4983388459739273,-1.5998153820820584,1.608240413392447,1.5395404616625672
-1.457680445831401,-1.583161122930018,-1.4985299387592426,-1.599897045296705,1.6083593627825798,1.539644785722716
-1.457736221696623,-1.5832679450294165,-1.4987115215327915,-1.5999745983326277,1.6084724495582174,1.5397439673001845
-1.457819821589079,-1.5834278213978492,-1.4989834428546076,-1.600090644682172,1.6086419099895466,1.5398925894966693
-1.4578687524799163,-1.5835212572255044,-1.4991424525521369,-1.6001584512060594,1.6087410709204781,1.5399795560195366
-1.4579243079704238,-1.5836272100331512,-1.4993228515297365,-1.6002353280217532,1.6088536341787465,1.540078275962335
-1.4580016428855487,-1.5837843788832897,-1.4994521270055576,-1.6004719951903394,1.609010140571535,1.540215584132212
-1.4580178573831162,-1.5838158325914131,-1.4994775875498503,-1.6005004402356777,1.6090430326452603,1.5402444481576685
-1.4580575121916064,-1.5838961092648585,-1.4996171059797956,-1.6005546282968686,1.609137529399979,1.5403278748294933
-1.458036840642423,-1.5839534475573318,-1.499664626303818,-1.6005943134747538,1.6091968231686178,1.5403812898903968
-1.4579805069128149,-1.5840714810637044,-1.4997383165954792,-1.600659939131455,1.609310070563832,1.540480336631889
-1.4579620834276157,-1.5841408174746654,-1.4997609460312695,-1.6006810177665156,1.609350250457459,1.5405154498161002
-1.4579394125820726,-1.584194262260335,-1.4997919371029849,-1.6007051802714263,1.6093890895548273,1.540549642374603
-1.4579394125820726,-1.584194262260335,-1.4997919371029849,-1.6007051802714263,1.6093890895548273,1.540549642374603
-1.4579394125820726,-1.584194262260335,-1.4997919371029849,-1.6007051802714263,1.6093890895548273,1.540549642374603
-1.4579394125820726,-1.584194262260335,-1.4997919371029849,-1.6007051802714263,1.6093890895548273,1.540549642374603
-1.4579394125820726,-1.584194262260335,-1.4997919371029849,-1.6007051802714263,1.6093890895548273,1.540549642374603
-1.4579394125820726,-1.584194262260335,-1.4997919371029849,-1.6007051802714263,1.6093890895548273,1.540549642374603
-1.4579394125820726,-1.584194262260335,-1.4997919371029849,-1.6007051802714263,1.6093890895548273,1.540549642374603
-1.4579394125820726,-1.584194262260335,-1.4997919371029849,-1.6007051802714263,1.6093890895548273,1.540549642374603
-1.4579394125820726,-1.584194262260335,-1.4997919371029849,-1.6007051802714263,1.6093890895548273,1.540549642374603
-1.4579394125820726,-1.584194262260335,-1.4997919371029849,-1.6007051802714263,1.6093890895548273,1.540549642374603
-1.4579394125820726,-1.584194262260335,-1.4997919371029849,-1.6007051802714263,1.6093890895548273,1.540549642374603
-1.4579394125820726,-1.584194262260335,-1.4997919371029849,-1.6007051802714263,1.6093890895548273,1.540549642374603
-1.4579394125820726,-1.584194262260335,-1.4997919371029849,-1.6007051802714263,1.6093890895548273,1.540549642374603
-1.4579394125820726,-1.584194262260335,-1.4997919371029849,-1.6007051802714263,1.6093890895548273,1.540549642374603
-1.4579394125820726,-1.584194262260335,-1.4997919371029849,-1.6007051802714263,1.6093890895548273,1.540549642374603
-1.4579394125820726,-1.584194262260335,-1.4997919371029849,-1.6007051802714263,1.6093890895548273,1.540549642374603
-1.4579394125820726,-1.584194262260335,-1.4997919371029849,-1.6007051802714263,1.6093890895548273,1.540549642374603
-1.4579394125820726,-1.584194262260335,-1.4997919371029849,-1.6007051802714263,1.6093890895548273,1.540549642374603
-1.4579394125820726,-1.584194262260335,-1.4997919371029849,-1.6007051802714263,1.6093890895548273,1.540549642374603
-1.4579394125820726,-1.584194262260335,-1.4997919371029849,-1.6007051802714263,1.6093890895548273,1.540549642374603
-1.4579394125820726,-1.584194262260335,-1.4997919371029849,-1.6007051802714263,1.6093890895548273,1.540549642374603
-1.4579394125820726,-1.584194262260335,-1.4997919371029849,-1.6007051802714263,1.6093890895548273,1.540549642374603
-1.4579394125820726,-1.584194262260335,-1.4997919371029849,-1.6007051802714263,1.6093890895548273,1.540549642374603
-1.4579394125820726,-1.584194262260335,-1.4997919371029849,-1.6007051802714263,1.6093890895548273,1.540549642374603
-1.4579394125820726,-1.584194262260335,-1.4997919371029849,-1.6007051802714263,1.6093890895548273,1.540549642374603
-1.4579394125820726,-1.584194262260335,-1.4997919371029849,-1.6007051802714263,1.6093890895548273,1.540549642374603
-1.4579394125820726,-1.584194262260335,-1.4997919371029849,-1.6007051802714263,1.6093890895548273,1.540549642374603
-1.4579394125820726,-1.584194262260335,-1.4997919371029849,-1.6007051802714263,1.6093890895548273,1.540549642374603
-1.4579394125820726,-1.584194262260335,-1.4997919371029849,-1.6007051802714263,1.6093890895548273,1.540549642374603
-1.4579394125820726,-1.584194262260335,-1.4997919371029849,-1.6007051802714263,1.6093890895548273,1.540549642374603
-1.4579394125820726,-1.584194262260335,-1.4997919371029849,-1.6007051802714263,1.6093890895548273,1.540549642374603
-1.4579394125820726,-1.584194262260335,-1.4997919371029849,-1.6007051802714263,1.6093890895548273,1.540549642374603
-1.4579394125820726,-1.584194262260335,-1.4997919371029849,-1.6007051802714263,1.6093890895548273,1.540549642374603
-1.4579394125820726,-1.584194262260335,-1.4997919371029849,-1.6007051802714263,1.6093890895548273,1.540549642374603
-1.4579394125820726,-1.584194262260335,-1.4997919371029849,-1.6007051802714263,1.6093890895548273,1.540549642374603
-1.4579394125820726,-1.584194262260335,-1.4997919371029849,-1.6007051802714263,1.6093890895548273,1.540549642374603
-1.4579394125820726,-1.584194262260335,-1.4997919371029849,-1.6007051802714263,1.6093890895548273,1.540549642374603
-1.4579394125820726,-1.584194262260335,-1.4997919371029849,-1.6007051802714263,1.6093890895548273,1.540549642374603
-1.4579394125820726,-1.584194262260335,-1.4997919371029849,-1.6007051802714263,1.6093890895548273,1.540549642374603
-1.4579394125820726,-1.584194262260335,-1.4997919371029849,-1.6007051802714263,1.6093890895548273,1.540549642374603
-1.4579394125820726,-1.584194262260335,-1.4997919371029849,-1.6007051802714263,1.6093890895548273,1.540549642374603
-1.450612576974103,-1.5847274603480555,-1.5002028771938822,-1.599742744731038,1.6095951156744623,1.542024617248662
-1.445685499248374,-1.5851460767484358,-1.5004314964772043,-1.599237369000522,1.6097151666933456,1.5428594982429662
-1.4407613136456745,-1.585515722309213,-1.5006362242282691,-1.5987911977340692,1.6098203112780745,1.5436001696735118
-1.436140883362273,-1.5857798385491901,-1.5007857566449234,-1.5984570641179354,1.6098980945666608,1.5442783255073256
-1.4356871240684965,-1.5858078503959252,-1.500799611106842,-1.598425168009802,1.6099060405455528,1.5443441912092961
-1.428681838324982,-1.5861312677510142,-1.500988305706773,-1.598017308891052,1.609999058051502,1.5452471928440772
-1.4244192416866497,-1.5863028033753435,-1.5010806105187888,-1.5978063682475476,1.6100491711154274,1.54580272572396
-1.4156930471563138,-1.586571896769342,-1.5012388093681541,-1.5974576203809858,1.6101281950486586,1.546735803380362
-1.4120756901922669,-1.5866857047499492,-1.5012910071720664,-1.5973287715229592,1.610161241537149,1.5470667740306152
-1.4039836041078082,-1.5868440064058744,-1.5015492900105563,-1.5970955990062425,1.6103778828687207,1.5476818294930408
-1.3927866239674251,-1.5870989391650603,-1.50165047760878,-1.596832840258269,1.6106457107982364,1.5483879404998584
-1.389055203384891,-1.587200646692591,-1.5016807071774918,-1.5967538521014526,1.6107175890817138,1.5485893293057273
-1.3794628105585394,-1.5874853605334278,-1.5019024534569614,-1.59658170353733,1.6108829036910772,1.549036428866799
-1.3670544578717014,-1.5878415917413806,-1.5021597108328535,-1.5964027595984767,1.6110659439714798,1.5497225051922319
-1.3577229819237833,-1.588067979797763,-1.502323645009962,-1.5962884921059393,1.611180106103913,1.5502153522143238
-1.34990532811094,-1.5883523095503727,-1.5024357694900072,-1.5961981006556951,1.6112669563098547,1.550803693813017
-1.3398976429153362,-1.5888316343123299,-1.5025458537597174,-1.5960991023105096,1.6113624421480341,1.5514566658256679
-1.3301354988022187,-1.5897177251480143,-1.502486785013696,-1.5960039710520972,1.6114526331745698,1.552036424471737
-1.3213373832307285,-1.59083385146451,-1.5024298193227448,-1.5957838161659041,1.6115232639627022,1.5525133502478905
-1.3097551134328558,-1.5925843514264246,-1.5023824598302045,-1.5955263357661207,1.6116035836026459,1.5530668698577559
-1.29495015467094,-1.5951225357288683,-1.5023444756293622,-1.5952432432827952,1.6116990458711271,1.5536842714808394
-1.2863326148488643,-1.5966891628438689,-1.5023163499820231,-1.595095291821211,1.611743824979748,1.5540048623160634
-1.2763887733967039,-1.5986869032001092,-1.5022815972131098,-1.5949441512935532,1.6117881964856848,1.5543219419163303
-1.2652215695689866,-1.6008716571730615,-1.5022756150374457,-1.594811653356773,1.6118309694280382,1.554630210776839
-1.2571629552942818,-1.6024162987763941,-1.5022741123820054,-1.5947223953279424,1.611866446192975,1.5548317908462732
-1.2484887456502636,-1.6042003206171151,-1.5022577624072462,-1.5946250344861055,1.6118994139491911,1.5550379955408253
-1.2384651273157457,-1.6063374295956794,-1.5022505958900216,-1.5945258415514143,1.6119354831517885,1.555258817217704
-1.2296752523710486,-1.6083719464814872,-1.5022373127307718,-1.5944404751141679,1.6119655409407017,1.555438400876532
-1.2264782380094483,-1.6090650061920013,-1.502244257514165,-1.5944180651858786,1.611971743054183,1.5555026854139264
-1.2172663335251355,-1.6108355421429525,-1.5022529705030212,-1.5943561551060013,1.61199122524599,1.5556630797938227
-1.2098793051472607,-1.6121705655746823,-1.5022576919527275,-1.594308327319777,1.6120100897229355,1.555777421634141
-1.1996622383384443,-1.6139094753724097,-1.5022613915041871,-1.5942451352602327,1.6120370742918528,1.5559227651258662
-1.1923758319558162,-1.6151001878975078,-1.5022647999333452,-1.594202336349771,1.6120549603100576,1.5560228548574977
-1.1791610552115641,-1.6171409355484534,-1.5022675057892534,-1.5941789232076906,1.6120846846547416,1.5561961098333363
-1.1719315343235999,-1.6181754133793567,-1.5022682831606935,-1.5942995761841352,1.6120991798454547,1.5562851385936511
-1.1629540351255745,-1.619186957662335,-1.502268077781091,-1.5942375622925453,1.612106560152441,1.5563833116274481
-1.1566981158014593,-1.6198619121722868,-1.5022619853722052,-1.594190673141925,1.6121187611549148,1.5564381748408866
-1.1536265270619142,-1.6201743691237365,-1.5022002414579432,-1.5941774344578412,1.612121313314383,1.5564665784560852
-1.1495044961865966,-1.620590538735392,-1.502097495688432,-1.594149192626965,1.612128838214462,1.556500005454722
-1.1429551835147558,-1.6211572293527283,-1.501951795855199,-1.5941102537001908,1.6121339603984353,1.5567070495209634
-1.1350820288225432,-1.621858501767165,-1.5017750663010705,-1.5940596186432692,1.6121444792343826,1.556944564584228
-1.1266283745971928,-1.6227145763125856,-1.5016087214884384,-1.5940128109383216,1.6121537754802182,1.5571788913630285
-1.1197922753388119,-1.62336350687849,-1.5014909137127728,-1.5939818853230632,1.6121585543886754,1.557357195432379
-1.1130595587414354,-1.6239311125939573,-1.5013813904598694,-1.5939508700575395,1.612166019264686,1.5574988543056718
-1.1079735764609762,-1.624311713740696,-1.50130940381521,-1.593932267536569,1.612167585395248,1.5574496817928953
-1.1043223673019706,-1.624568506441268,-1.5012592526085375,-1.5939180122685277,1.6121705610534114,1.5574231929284226
-1.0988908208806867,-1.6249147603024274,-1.50119134648685,-1.5938992660105702,1.6121740722856408,1.5575356985850985
-1.0938916385247703,-1.6252330800518173,-1.5011314115976178,-1.593882362077959,1.6121787894722825,1.5574740722527416
-1.0894570439114712,-1.6255234603654647,-1.5010766061520242,-1.593866801141629,1.612183534136744,1.5574161799502
-1.0864742865528165,-1.6258201735646254,-1.5010314855040032,-1.593851793197445,1.6121864318701702,1.5573774375443985
-1.0816075400685294,-1.6269547861193403,-1.500896817375248,-1.5938203072536679,1.61218978918046,1.5573178311671791
-1.0769403947216967,-1.6286181641954274,-1.5006053852280272,-1.593802665556755,1.61219082282588,1.557266122286284
-1.0741615551894792,-1.6296672068079974,-1.5004553683908484,-1.5937992447776859,1.6121927951008466,1.55723575877404
-1.0721026185894238,-1.630451076860292,-1.5003348498743319,-1.5937988740720226,1.6121938410161305,1.5572137070870566
-1.0694536875297187,-1.631531193600546,-1.5000261598544058,-1.59379590711516,1.6121935924380324,1.5571887006944343
-1.0665608231891295,-1.6326638900523989,-1.4997108888845054,-1.5937918915276745,1.6121949085328708,1.5571615968046175
-1.0482370211390188,-1.639863150764941,-1.4975634014586348,-1.593697352538071,1.6121308883143282,1.5569223690196288
-1.049451736395461,-1.6393552893314074,-1.49742153531259,-1.5935645220494732,1.6119944922398273,1.5567768600501108
-1.0557003182189384,-1.6384415208795178,-1.4968707232296568,-1.5933116677976809,1.6117777651880005,1.5565084669858307
-1.0629909983973393,-1.6381769160761357,-1.4965081459422749,-1.5932028129362499,1.611837686866652,1.5562410228879473
-1.074754269660892,-1.637590723644875,-1.495895375394063,-1.5930887612958737,1.6118946610768394,1.555751995713616
-1.081881751770163,-1.6372868112456338,-1.4954882197298474,-1.5930269594368265,1.6119232758748607,1.5554126759257898
-1.093664061279786,-1.6367794832783378,-1.4948927140729038,-1.5929404808421401,1.6119530363142742,1.554932000139129
-1.1068931899277263,-1.636128874591813,-1.494161700545388,-1.592860653692292,1.6119850211192825,1.5544621465723345
-1.1259976693600087,-1.6349292132793583,-1.493201032585452,-1.5927527544266902,1.6120072354851838,1.5538743013172223
-1.1398282798667294,-1.634195878744083,-1.4926508069284647,-1.5925199832638604,1.6120412764582397,1.5535074162622684
-1.1528790067782357,-1.633372925205115,-1.492209152523544,-1.5923282446296982,1.6120549146608085,1.5530721219288168
-1.1674639122672816,-1.6325550845043115,-1.491759141486174,-1.592131681929333,1.6120743649373017,1.5524628673812284
-1.1834180901005287,-1.631764980560367,-1.4913306927610919,-1.5919442293112191,1.6120911882653477,1.5516612721911465
-1.1919952565300136,-1.6313666184981759,-1.4911304130557925,-1.59185762708713,1.6120939687342453,1.5511915440291746
-1.2068693997427697,-1.6307632402564463,-1.4908072881859227,-1.5917176198775405,1.6121058155161505,1.5504418900492225
-1.2213629170719313,-1.6302027646632766,-1.490526154731437,-1.5915963079158177,1.6121118758944348,1.5496195718353265
-1.2343077254958252,-1.6296147536496493,-1.4903065383524996,-1.591502333218921,1.6121179094139975,1.5489548674408817
-1.2513552601296989,-1.6286779962541513,-1.4900374563430607,-1.5913879640679283,1.6121234163833276,1.548337893104034
-1.2579311128871093,-1.6283323783774015,-1.4899358992448481,-1.59134407031058,1.6121262750223437,1.5480369536367635
-1.2709076017268537,-1.6277011969735997,-1.4897507071688028,-1.5912643514506464,1.612131751842791,1.5474848597881496
-1.2782301220340286,-1.6273559484151903,-1.489656827443288,-1.5912246311459715,1.6121313059792928,1.5471956033704943
-1.289505059798748,-1.626872673114013,-1.4895158893187121,-1.5911646082061592,1.6121354717492993,1.546775832355119
-1.3002602413120972,-1.626426890804172,-1.4893936656158804,-1.5911130422255477,1.6121357141318442,1.5464035701689165
-1.313118835490856,-1.6257569679689579,-1.4892676413808332,-1.5910607353703432,1.612137507440702,1.545984398403834
-1.3223775226693724,-1.6251237307910575,-1.4891792122499226,-1.5910249190408645,1.6121376926764308,1.5456952408112445
-1.3302275954034726,-1.6245795710722262,-1.489098227301045,-1.59099102382718,1.612137842344858,1.5454588803378344
-1.3353740760617143,-1.624227056957978,-1.4890536699719639,-1.5909667165900565,1.6121385245104944,1.5453065209623724
-1.3429265337883016,-1.623711801993461,-1.4891322421569988,-1.5909316030092129,1.612128830206116,1.5450887277960057
-1.3519661314564868,-1.6230944245476622,-1.4893134768487641,-1.5908903000819068,1.61191708368935,1.5448284302123967
-1.3568201537835227,-1.6227782577412957,-1.4894943754940595,-1.5908714854223533,1.6118043274651501,1.5446887518249848
-1.3649954163263893,-1.6222573918031848,-1.4897993695339482,-1.5908434236684754,1.6116162933689286,1.544458270111763
-1.3718828159126768,-1.6218571616573587,-1.4902553973444697,-1.5908125374249864,1.6115244540365405,1.5444383361928888
-1.3744824654278383,-1.6217299584929588,-1.4904175147015768,-1.5908067799418495,1.6115619890441641,1.5443663492884807
-1.380229457393844,-1.6215254023341859,-1.4907073556480905,-1.590792412195462,1.6114807578479031,1.544227617693787
-1.3854234072401934,-1.621371135172478,-1.4909261593379464,-1.59078266605494,1.611548013630856,1.5441257413020697
-1.3912287432405173,-1.6212015565844797,-1.4911428386999812,-1.59077380864432,1.6116151773885672,1.5440275058892925
-1.3968984556663662,-1.6210390398346552,-1.4913370541299127,-1.5907661518276486,1.6116734307800022,1.5439413593321678
-1.4071452228225987,-1.6207329964473733,-1.491957773221718,-1.590747517990691,1.611770276366313,1.5437970928840707
-1.4120082345663874,-1.6204583126824461,-1.492263300990896,-1.5907486286784938,1.611815072245795,1.5437305569109763
-1.4166610426878494,-1.6199127482002307,-1.4925050174617325,-1.5907619988041228,1.6117902669242026,1.5437349225186574
-1.4189325234904397,-1.6194799973890843,-1.4925453107545257,-1.5907622642578143,1.6117111658774033,1.5438039028691326
-1.422625857413966,-1.6186285496310533,-1.4926028054933005,-1.590758715464104,1.6115881868598374,1.5439111421503902
-1.4261638537581878,-1.6176171683958012,-1.4926521065544607,-1.590753114317213,1.6114702787456514,1.5440140044060915
-1.4281225502469086,-1.6170367770344931,-1.4926814808291307,-1.5907444818789687,1.6114052331047646,1.5440707522291122
-1.4309845451652363,-1.6161811448948313,-1.4928908494861775,-1.590781573773261,1.6113104763133508,1.5441533831275942
-1.4323753374385844,-1.61577159414009,-1.492998348196764,-1.590869462081554,1.6112644633089201,1.5441935158459432
-1.434196673591,-1.6152357263442605,-1.4931491589761494,-1.5908626013387959,1.6112042506411455,1.5442460292075224
-1.4359984760764681,-1.6147015950115948,-1.4934397536604993,-1.5909864842236823,1.6111450035273334,1.5442976751018889
-1.4380221048264712,-1.6142966711734745,-1.4937214140027684,-1.5910023397510895,1.6110785344465854,1.544355608933172
-1.4391729952682348,-1.6140842008182108,-1.4937904504130157,-1.5911096000614715,1.6110406487546802,1.544388629750607
-1.439998276629084,-1.6139307705717063,-1.4938403934559727,-1.5910910637574807,1.6110135364067586,1.544412274591292
-1.4414810424222082,-1.6136481608979043,-1.4939480985279716,-1.5910344914403256,1.6109650238625077,1.5444778129414418
-1.442238981403453,-1.6134990103690618,-1.4941054380380365,-1.5910047710096804,1.6109403400538282,1.5446156168963818
-1.4432657662197572,-1.613320323511399,-1.4941640429220502,-1.590975574570324,1.610906665538988,1.5446466546303277
-1.4441019304956972,-1.6131646861213793,-1.4941997300337422,-1.5909457139762382,1.6108794987449726,1.544814049504327
-1.444975850208775,-1.6129969410598286,-1.4942390692894534,-1.5909149954651847,1.6108509822246158,1.5449926686266315
-1.4455126383840473,-1.6127952362002638,-1.4942696803147173,-1.590900002366551,1.6108334723075832,1.5451031321443394
-1.446116234945741,-1.612667362352334,-1.494284433247491,-1.5908729976376679,1.6108141391892252,1.5452251893665785
-1.4466896462849328,-1.6124343077581396,-1.4943207811431944,-1.5908577579210519,1.6107953443635812,1.5453437502242429
-1.4471220400181084,-1.6122294061676796,-1.494338176925359,-1.5908417565092328,1.6107814409505297,1.5454320437779367
-1.4475125289834179,-1.612052337203899,-1.4942282685454074,-1.5908313371326392,1.610768836691827,1.5455118829489383
-1.4478989257279176,-1.6118569316137636,-1.4942490404762088,-1.5908114695506759,1.610756546618447,1.5455907129792217
-1.4482737639302483,-1.611689352480135,-1.4941155654286478,-1.5908036470858131,1.6107445158203315,1.5456673558834468
-1.4485525799658707,-1.6115548691749588,-1.4940048802064012,-1.5907923215532598,1.6107356313934693,1.5457244240764634
-1.4488282751450872,-1.6114214232233213,-1.4938952714967606,-1.5907810767070045,1.6107268652315814,1.5457808627337983
-1.4494438139478973,-1.61130813367726,-1.4937956219496658,-1.5907668318967336,1.610731916239636,1.5458320568540065
-1.450853775613087,-1.6112148591919249,-1.4938691196619365,-1.5907525650439185,1.6109001732078716,1.545866302573513
-1.453097246181326,-1.6111454277259065,-1.4939749218368075,-1.5907387939028708,1.6110543195175187,1.5457321028574964
-1.4558742052647475,-1.6110559443631367,-1.4942204829817636,-1.5907317382291,1.6111844119149834,1.545606635411926
-1.4585920860642116,-1.610965992794277,-1.494645148654705,-1.590718186527098,1.6112904883187262,1.5453548491495184
-1.4606282089626803,-1.6108906491132862,-1.4950963328273645,-1.5907113654471299,1.6113669491669034,1.5451682111896528
-1.462088597317329,-1.6108429772826964,-1.4954749111726955,-1.5907108815868678,1.6114218438788257,1.5450342809685953
-1.4645380658505418,-1.6107705704847701,-1.496113630843474,-1.5907117739200678,1.6115142205237305,1.54480916959761
-1.4653969827730922,-1.6107456852344506,-1.4963378543515027,-1.5907120494245852,1.6115467079652717,1.5447300997180093
-1.4672882708750494,-1.6106913498594733,-1.4968318306952033,-1.590712440609224,1.6116184285502366,1.5445557364116642
-1.4688300438336837,-1.6106475294283118,-1.4972347740723277,-1.5907125062830714,1.611677100886652,1.5444133112296121
-1.4699697988696447,-1.6106198515545898,-1.4975116745715962,-1.5907160737358972,1.6117205744453158,1.5443079042012704
-1.4711187620634445,-1.610601447056791,-1.4976369168223933,-1.5907231520127667,1.611764481948364,1.5442014734391627
-1.472541909028687,-1.610566444366324,-1.4976241905196037,-1.5907239497877363,1.6118191891013443,1.5440692200833868
-1.473352682935416,-1.610533786838903,-1.4974054513026387,-1.5907403846507653,1.6118503238858728,1.5439936905544032
-1.4740939822138648,-1.610415373122805,-1.496946568713527,-1.5907113814012064,1.6118790552452371,1.5439244549975535
-1.4750527310917438,-1.6102546161836053,-1.495627167041274,-1.5901508491563772,1.6119159994830432,1.5438351897002063
-1.4755177911924404,-1.6101562345673424,-1.4948072486481756,-1.5894994111202667,1.6119340936006388,1.543791664853606
-1.4761804805062222,-1.6098902434325875,-1.4933496069688614,-1.58756257885148,1.6119600927727988,1.543729146396018
-1.4768161533373718,-1.60932958677756,-1.4914402306183872,-1.5841037347694482,1.6119852066594855,1.5438360945550798
-1.4774707807646585,-1.6081065410423463,-1.4890482410195947,-1.5788707682423495,1.6120115250337796,1.5439537956952312
-1.4777963178287765,-1.6074085500868895,-1.4880481945512292,-1.5761795208448688,1.6120223069039339,1.5439988234663258
-1.4782365931996504,-1.60583369861954,-1.4861745532322332,-1.570605921223332,1.6121915626515748,1.5440765990029248
-1.4785273117841224,-1.6049398018450578,-1.4851416103262958,-1.5672128911788292,1.6122821820018278,1.5441142587526857
-1.4787511325710807,-1.604061618307064,-1.4841715425599569,-1.5639520804281903,1.612352517133164,1.544212340416229
-1.4790853328615516,-1.602302029439505,-1.482257758942301,-1.5577943226366757,1.6124579393536047,1.5443722131209978
-1.4792455523477128,-1.6012902988095614,-1.481093974349469,-1.5544695241978406,1.6125077910537584,1.5444570797151513
-1.479481324825631,-1.5997112385725358,-1.4790372487912657,-1.549329621851496,1.6125789416411367,1.5446506496103745
-1.4797158148680256,-1.5981897465548227,-1.4765823620278231,-1.5443141998840249,1.6126457117718005,1.544753834311584
-1.4799405316461305,-1.5967761498834612,-1.4735784671133805,-1.53951331392458,1.6126272735550091,1.5449243863005606
-1.480111781008794,-1.595653604343108,-1.4706425358133592,-1.5357054146037168,1.6126050811299368,1.5450661334374716
-1.4803806450843473,-1.5943952589984447,-1.466547079874302,-1.5314755364986261,1.6125812495263707,1.5452258022204146
-1.4806929926363241,-1.5930022574680587,-1.461112935477371,-1.5268564362729768,1.6125538843133038,1.5454014561599134
-1.4809498164538317,-1.5919011215009558,-1.4558684485388105,-1.5232597037871474,1.612603830057593,1.5455424247395435
-1.4811441363634101,-1.5910186743985248,-1.4510867398588696,-1.5204747790136888,1.6125860012542348,1.5456536663664429
-1.4813737520781032,-1.5900742708218252,-1.444879419130159,-1.517320695590032,1.6126437904502822,1.5457799036892426
-1.4816217285090347,-1.589079058140139,-1.437052553610198,-1.5139918997377748,1.6127170737589949,1.545917555321667
-1.4817823361990548,-1.588406983829043,-1.4310823241236144,-1.511813381343212,1.6127660449032422,1.5460103846895203
-1.4819659701522503,-1.5876336836470666,-1.4236088178626405,-1.5093440106169502,1.6128219711151264,1.5461154747315147
-1.4821703617732613,-1.5867899415606175,-1.4145100124817853,-1.506745462629671,1.6128833377838903,1.5462300378394114
-1.4824140827665029,-1.5858826072509526,-1.4022627290256062,-1.5037136071671322,1.6129558477511021,1.5464186981329175
-1.4825812422120914,-1.5852257560300784,-1.3924562008968036,-1.5015886216027736,1.6130079190002335,1.5466173553973004
-1.4825812422120914,-1.5852257560300784,-1.3924562008968036,-1.5015886216027736,1.6130079190002335,1.5466173553973004
-1.4827465215296376,-1.5846612444042338,-1.3826285427833411,-1.4996000100488707,1.6130568090084112,1.546802272189904
-1.4828744988750617,-1.584223500746326,-1.3742757430798307,-1.4980005189078993,1.6130958997649623,1.5469607146718265
-1.4849806080661139,-1.5775101292173752,-1.2349309250089753,-1.473553838531919,1.613544798480938,1.5508209656511835
-1.4851757508138013,-1.58124868404445,-1.2344236867928933,-1.4819816614709451,1.6126140886071225,1.5507051274187178
-1.485138721564116,-1.591620034168619,-1.2376897672531364,-1.5006254524339528,1.6106626239999282,1.5504650309202581
-1.4851105575410841,-1.594074091387378,-1.2393613694494559,-1.5049050644791528,1.6102089348309334,1.5504613042330568
-1.4850808631274854,-1.5973731209954583,-1.2420063357021658,-1.510545621731082,1.6096103539135511,1.5504887764551154
-1.484965326622363,-1.603105337409859,-1.249101429660833,-1.5203667665383263,1.6085327991746017,1.5505386992316317
-1.4846990177503547,-1.608837234070633,-1.258190897955003,-1.5297535879352133,1.6076143975855806,1.5505871048947797
-1.4845112595296703,-1.6126401178992176,-1.2646152600784721,-1.535873089668486,1.6070752790487455,1.550618938516784
-1.484170220111228,-1.6161977331468238,-1.2719680828681375,-1.5415172005327917,1.6064082165749516,1.5506492435642305
-1.4838149784047634,-1.6193741478046826,-1.27872639022717,-1.5464819076116383,1.60598465557522,1.550676211719795
-1.483496643127517,-1.6213439389348805,-1.2831130877819934,-1.549557955944836,1.6057239175124565,1.550692316421834
-1.4831356597131329,-1.6235199651102772,-1.2881163438531482,-1.5529537681844061,1.6054357285769876,1.5507101973308517
-1.4826698935934817,-1.625456663723774,-1.2927504239463334,-1.5559888929085155,1.6051774100392397,1.550726548876348
-1.4821539756498976,-1.627482307669592,-1.2978011913725862,-1.5591630621508898,1.6049073489364187,1.5507433699417754
-1.481582012591555,-1.6291178500428694,-1.3021053371761033,-1.5617386039815655,1.6046878997262761,1.550756870614541
-1.4810759999182086,-1.6305879752472687,-1.3062115522399569,-1.5640188284013603,1.6044943250433426,1.5507681905274386
-1.4806063006053292,-1.6319212224589597,-1.309569485450235,-1.565882179176196,1.604334788018257,1.5507786997122504
-1.480408519784659,-1.6323767813807668,-1.3107025063417221,-1.5665105917530195,1.6042814514659816,1.5507819035266648
-1.4798945976539861,-1.633543797091986,-1.3135844241066064,-1.5681054151794434,1.6041453698163295,1.5507901336936223
-1.4792900092674777,-1.6345906896890379,-1.3160163033663534,-1.56938465732729,1.6040230539178355,1.5507979422277753
-1.478883367568258,-1.6352743133984866,-1.3176150816397072,-1.5702216411409191,1.6039430525972689,1.5508024571476706
-1.4780912868275378,-1.6365577881811302,-1.3206072372057547,-1.5715309794659762,1.6037915539236445,1.5508122039355723
-1.4771730099484026,-1.637618917394167,-1.322700945043353,-1.5722549528747007,1.6036850933957287,1.55081889465597
-1.4763622472245697,-1.6385904089270602,-1.3245190109935383,-1.5728736813431277,1.603594198267915,1.550823474975015
-1.476219454866246,-1.638907647594244,-1.3248425183510095,-1.5729403449341253,1.6035766931577145,1.5508241010936148
-1.475788957179346,-1.6401290473599952,-1.3258189575111499,-1.573120748701796,1.6035257156381044,1.5508270952708907
-1.475205926148423,-1.642016660204992,-1.3271385595994598,-1.5728818476304485,1.6034599734293649,1.5508308889386688
-1.4749937454824606,-1.642849710511536,-1.3277259699335708,-1.5719651977822364,1.6034339729599187,1.5508313020471187
-1.4749478462960084,-1.6434175905963566,-1.3281363775120367,-1.5708441774771238,1.6034175405615898,1.5508314858827987
-1.4746440998987533,-1.644641041464023,-1.3290381745631732,-1.566178336900172,1.6033776005979279,1.5508364270059507
-1.4743739317645232,-1.645655960254868,-1.3297683037722354,-1.5601514422437528,1.6033481358065338,1.55082789941536
-1.4743162988546725,-1.6470245905838647,-1.3307417852207455,-1.5491946391939089,1.6033089839981391,1.5506576934424425
-1.474277301923707,-1.649012641908953,-1.3321535801775015,-1.5281519999659936,1.6032576602082247,1.5503930645481152
-1.4742737127148573,-1.6506633769079884,-1.332924235757879,-1.5102452513527822,1.6034214463046752,1.5500529747013705
-1.4742675885903138,-1.6521416514426843,-1.333472418475246,-1.4943045685065093,1.603537130919209,1.5498154428362823
-1.4742397055008458,-1.6541789444262855,-1.3342068443655837,-1.470188928364151,1.6036928625484328,1.549466158243125
-1.4742327684690464,-1.6552675880325811,-1.3346944330867203,-1.4540291442849038,1.6037645138546324,1.5489296733018338
-1.4742181775789847,-1.6567151843144572,-1.335369163566591,-1.428231451028059,1.6038580414461514,1.548223160247778
-1.4742171181156278,-1.6580454119641557,-1.3362304438670272,-1.4046510774286298,1.6039280933421602,1.5476936261014689
-1.474211868411452,-1.6590424389371379,-1.3370673714408299,-1.387045069621879,1.6039743974569431,1.5473435568987968
-1.4742072535521082,-1.6595164794815596,-1.3376392695924353,-1.3776217573711147,1.603996068971865,1.5471792326798812
-1.4741921123528088,-1.6608503004416533,-1.3396248775372501,-1.3476633082725953,1.6040563228786688,1.5468909663047168
-1.4741761823101054,-1.6618923812524515,-1.341716506373643,-1.3185914830283478,1.6041100010396243,1.546652861432544
-1.474172069515644,-1.6631048251245553,-1.3438451548582704,-1.2866792952871091,1.6041647251735667,1.5465975452194953
-1.474166688271641,-1.6637358315048818,-1.3449322896140525,-1.269770142440435,1.604192702176693,1.5465708038689974
-1.4741680069087626,-1.6645630044034088,-1.3461627193881942,-1.2499033264545096,1.6042247169860222,1.5465402849806764
-1.4741630489779434,-1.6654966539461866,-1.3474881516754007,-1.2281720000443548,1.6042590443668459,1.5465075404534538
-1.4741588976637916,-1.666279320357251,-1.3484153408241795,-1.209951625699807,1.6042871456821015,1.5464906791052748
-1.4741598028029632,-1.6671022707357621,-1.3490822689271478,-1.193183276954842,1.6043122226187772,1.5466243106485744
-1.4741620281671586,-1.6681928730175024,-1.3496106059105497,-1.1716231077157129,1.6043423256098794,1.5467880680468586
-1.4741683635885707,-1.6692946661965615,-1.3495433612095917,-1.154987887045974,1.6043630974060459,1.5469697738798407
-1.4741661825853885,-1.6697705648585905,-1.3494267788534817,-1.148184892766853,1.604371006981825,1.547085718565317
-1.4741579100968696,-1.6711488803198342,-1.3490915178849132,-1.126948124894797,1.6043940196856472,1.5474197422609492
-1.4741547334649898,-1.6716060945175508,-1.3489854735381663,-1.1194391026455779,1.6043920610897362,1.5475316209890195
-1.4741522898299413,-1.6720975436200722,-1.3489562726098714,-1.1109603886758703,1.6042997022306758,1.54765376799185
-1.474150713449508,-1.6726233987237127,-1.3489292172320007,-1.101967448834213,1.6041981341672702,1.547783296674347
-1.4741476918298946,-1.6735258340906187,-1.349452900590602,-1.084858265769731,1.6042394596336615,1.5480803930251108
-1.4741458979754218,-1.6747797082115858,-1.3506850489976379,-1.0603662179842486,1.6043057765051474,1.548721764227996
-1.4741441700757565,-1.675434955016073,-1.351400238246854,-1.0468351641097595,1.6042738172037867,1.5490586079578554
-1.4741447407486614,-1.6758150964032095,-1.3518529662831602,-1.038660382509448,1.6041390412646228,1.5492477397700435
-1.474143949972535,-1.676063217174961,-1.3520815494692713,-1.0332573519672605,1.604050002943961,1.5493726564193748
-1.474144202039292,-1.676469708365735,-1.3524600930549693,-1.024229144010477,1.6039013182586437,1.549581313058041
-1.474145026585816,-1.6767082285114607,-1.3526823798166687,-1.0189270660574445,1.6038808551787918,1.5497039970043773
-1.4741451824219678,-1.6769239845430501,-1.352883438411786,-1.0141344494943638,1.6039200696999452,1.54981464014412
-1.474145266098583,-1.6770627537711915,-1.3530126285432607,-1.011056347616335,1.6038579890991902,1.549885723590255
-1.4741457992035352,-1.677262157383663,-1.3531982026139933,-1.0066383959182832,1.603767015021876,1.5499878322269445
-1.474146761324161,-1.677456157815124,-1.353378602221401,-1.0023470516228177,1.6036882268711958,1.5499197247147252
-1.4741473373500558,-1.6775871116030094,-1.3535003597732425,-0.9994532267999937,1.603748377233655,1.5498677918789725
-1.474147333176485,-1.6777857209404679,-1.3537263951173164,-0.994911455288731,1.6036759653940875,1.5497863509583163
-1.4741487652693446,-1.6778705165783707,-1.3539241786163436,-0.9929014451151098,1.6037417345578373,1.54975029159012
-1.474149513728964,-1.677946212824326,-1.3539872348681397,-0.9915043067923975,1.6037879460157662,1.549725135958379
-1.4741488923944615,-1.678029367760684,-1.3540504985184607,-0.989762082874071,1.603835744150189,1.5496937738112109
-1.4741487909785227,-1.6781203235549849,-1.3541210316240253,-0.9877720407453742,1.6037579530877433,1.5496579623805333
-1.4741487520260017,-1.6782072189337287,-1.3541993259646476,-0.9858106277122416,1.603687345439567,1.5497761696184509
-1.4741504798488452,-1.6782742733977785,-1.3544135148049778,-0.9842007569787876,1.6037727552925745,1.5498898548097928
-1.4741465522505721,-1.6783351220896643,-1.354718439999378,-0.9827224285064595,1.6038249369363133,1.549807556114743
-1.474146407250953,-1.6781759220048065,-1.3550118495564296,-0.9820627199893537,1.6036729964730851,1.5497186597014814
-1.4741469299324899,-1.6780757891034623,-1.3552007539179947,-0.9822142672845829,1.603595500500434,1.5496965392098534
-1.474149881185053,-1.6779521792832628,-1.3557457638489028,-0.9832712356065303,1.6035325541051442,1.5498172011992473
-1.4741534723854532,-1.6779037700605066,-1.3561994243463806,-0.9843939228228418,1.6034957272845007,1.5498882131226286
-1.474158149285555,-1.6777759607232174,-1.3575481731273575,-0.9881175337335245,1.6036056598098378,1.5499986113475506
-1.4741598032520913,-1.677652122342339,-1.3591581039111265,-0.9933457676125328,1.603694610836567,1.550080541489994
-1.4741663137980368,-1.677566197876162,-1.3614022226558944,-1.0012103304193767,1.6037825596246156,1.5501619328187086
-1.474161124697838,-1.677324157798515,-1.3644535127114676,-1.0124626984783496,1.603867897735038,1.5502407271210055
-1.4741654554643369,-1.6771514917410721,-1.3669141569450374,-1.0231389860424909,1.603925565962735,1.5502939607802282
-1.474167738252126,-1.676937189471385,-1.3707217532941502,-1.0437391607078037,1.6040051978625949,1.5503675165005955
-1.4740320609573119,-1.676662513316646,-1.376805226389431,-1.088269263963678,1.6040728892324172,1.5503815898783226
-1.4734252384765396,-1.6763228093317248,-1.3793620437853478,-1.1176185925843465,1.6039290198135492,1.5500404788034068
-1.4729453984537146,-1.675901412259873,-1.3808366683925204,-1.1394627077605948,1.6038468697998958,1.5498352589500808
-1.4717702008396805,-1.6747176062230391,-1.384082725683897,-1.192051715638528,1.6036709234404831,1.5490947381470304
-1.4713078505140311,-1.6741468473308634,-1.3856184917797665,-1.2176216143183995,1.6035878009297502,1.5487450619926357
-1.4711204301236334,-1.6732676694235649,-1.3870720572017328,-1.242978771893908,1.6035119180445445,1.5484149197362482
-1.4711168632597793,-1.672778872872138,-1.3878050805525879,-1.2559439797175949,1.6034714029415844,1.5482473708055433
-1.4711094506886444,-1.671906924434069,-1.3890347160774048,-1.2776027129307663,1.6034033605144165,1.547967709379531
-1.4711073743564334,-1.6714084934926323,-1.3896128160167982,-1.2878770705210323,1.603371289285757,1.5478348541824447
-1.4711115732022713,-1.670974206740672,-1.3901979909731021,-1.2984764187587399,1.603337971536472,1.5476978183353685
-1.4711053052240697,-1.6703998664618753,-1.3908641032666538,-1.3101994441002804,1.6033012158010445,1.5475463484961471
-1.47110507877738,-1.6702970736097624,-1.3909756088512488,-1.3121932778188325,1.603294971990056,1.5475205635973397
-1.471105763868184,-1.670051835353746,-1.3912417841340867,-1.3170036811101082,1.6032799672497957,1.547458289203897
-1.4711105311441663,-1.669830000617352,-1.3915362855581959,-1.322459219367787,1.6032628747355546,1.54738763786197
-1.4711110399741951,-1.6695265753328075,-1.3920023663064307,-1.3308548585039794,1.603236490753453,1.54727906408568
-1.471109452773398,-1.6692197054508722,-1.3926137667894143,-1.3391558009310747,1.6032106312774166,1.547325032973239
-1.4711081359489553,-1.6689574841793537,-1.3931738465358652,-1.3465893348057325,1.6031873544308912,1.5473839979755404
-1.4711075814929349,-1.668890908393535,-1.3933160607020372,-1.3484771978278887,1.60318151295981,1.547439030489976
-1.4711067717937485,-1.6687634120808057,-1.3935877272590877,-1.352085305428703,1.6031701936232448,1.5475498971621193
-1.4711059193159632,-1.6686235843220312,-1.393884257140539,-1.356027026031605,1.6031578143590401,1.5476711882036813
-1.4708392008309474,-1.6682671933736413,-1.3946240002721157,-1.3655933330036396,1.6028528273976712,1.548330165700347
-1.4708133156819352,-1.6682359063350725,-1.3946902890419954,-1.3664374718637453,1.602824938479439,1.548421304384706
-1.4706573757197934,-1.6680468829147999,-1.3950877914756663,-1.3713992740339889,1.6026564836454893,1.5490963459150937
-1.4705503514144982,-1.667916926636223,-1.395360038582926,-1.3746546871079055,1.6025413708328178,1.549839600122495
-1.4704332794358066,-1.6679272477893985,-1.395485515412981,-1.3782298729813516,1.6024079394755208,1.5509115624094179
-1.4703166065911504,-1.6679684372484525,-1.3955988986559051,-1.381578340963498,1.6022828731498935,1.5521753169594998
-1.470280627546761,-1.668028645931979,-1.3956208332002986,-1.3826618584147117,1.6022432686862629,1.5530979524504311
-1.4702018038725797,-1.6680797769477287,-1.3955601600860472,-1.3846845141326545,1.6021695675908454,1.5563759254145106
-1.4701104520313388,-1.6680972696712222,-1.3954630506212578,-1.3871809066112188,1.6020778202598447,1.563458698782687
-1.4700529034342893,-1.6680969187526875,-1.3954492262273446,-1.3887535629965395,1.6020199006446034,1.5700590426502707
-1.4700183184710955,-1.668097878410874,-1.395508217278521,-1.3897660043816722,1.6019822217510862,1.5753800347609166
-1.4699628893175571,-1.668107416596366,-1.3956032830051448,-1.3913551349794888,1.6019238233899855,1.5859840345951814
-1.469889429086565,-1.6681204206549816,-1.3957326830071135,-1.3937493840921762,1.6018444173841189,1.6039136852296638
-1.4698255839212784,-1.6681335986588337,-1.3958403254876506,-1.395473135884774,1.601780435819308,1.6267619296994438
-1.469819741770508,-1.6681347264264097,-1.3958508847259392,-1.3956262864602773,1.6017745492692004,1.6292402669618493
-1.4697916840176832,-1.6681338847852012,-1.3959337950871409,-1.3962439150647759,1.6017459562391512,1.6421809279874267
-1.4697640540756218,-1.6681335672050346,-1.3961703310621687,-1.3969356797247265,1.6017118070268426,1.6585303449152438
-1.4697406707307563,-1.6681404510688151,-1.3963504024041777,-1.3973150547361814,1.601687217585383,1.6726545279292393
-1.4697113963699693,-1.6681476858254092,-1.396590903307953,-1.3978216228120073,1.6016536180975887,1.6944356874230473
-1.4696595780958999,-1.6681451667469467,-1.3966547160461256,-1.3979547407981796,1.601644944538654,1.7011966670502012
-1.469564338156624,-1.6681447703823982,-1.3967261340591668,-1.398095900747797,1.6016356991898604,1.7094452434862952
-1.4694270357948802,-1.6681492734612164,-1.3968262812554009,-1.398176867537171,1.6016231036255455,1.7234690440288387
-1.4692620197192667,-1.6681572439847097,-1.396949932000085,-1.3979090220106476,1.601599459011919,1.7432785561563628
-1.4690036068772159,-1.6681652905697757,-1.3971035009015345,-1.3966150556122268,1.6013434632752157,1.7743124910997314
-1.468831964988241,-1.6681671667032067,-1.3971582041254467,-1.3957774070612359,1.601248801075113,1.7874519978365244
-1.4685807887374533,-1.668178384180655,-1.3972417358686553,-1.3936405688715574,1.601114383964894,1.8096826783929232
-1.468515599890824,-1.66818484681002,-1.3972666520892676,-1.392776540988417,1.6010812057147534,1.8162282695457788
-1.468332726767877,-1.6681877711808113,-1.3973773069199977,-1.3898859977485112,1.60098591927255,1.8362640701345094
-1.4680255199096568,-1.6681999266732312,-1.3975929484112461,-1.3833735614039984,1.6008145043852782,1.876918647474251
-1.467964253620333,-1.668199716241893,-1.3976046719380537,-1.3819471455272556,1.60078095965304,1.8855328378375986
-1.4678552980637054,-1.6682006005264436,-1.3976250379632054,-1.3792372787827647,1.6007253161572574,1.901051189861802
-1.4675623834043863,-1.6681900131854939,-1.3976470440943083,-1.3751699701409075,1.6006436281284955,1.9244211831395028
-1.4671749441567647,-1.6681832470938083,-1.3976753794875088,-1.3697371315837057,1.600541530573229,1.9547073650099829
-1.467024082075347,-1.6681804255188348,-1.3976859007787603,-1.367540256957605,1.6005021032321953,1.9664162745470526
-1.4668302254823389,-1.6682071646414767,-1.397690734302103,-1.364654875843211,1.6004508126340826,1.9817692974722458
-1.4667231357061863,-1.6682812924935926,-1.397694129277372,-1.3630581866365028,1.6004224839385843,1.990263350992311
-1.4665866969838939,-1.6683882906975505,-1.397704357947663,-1.3610782990879846,1.6002769169639952,2.0007052985606517
-1.4663861139814125,-1.6685502693306062,-1.39772153699873,-1.358184882401988,1.6000608743950868,2.0159590718175604
-1.4663021828666527,-1.6686184392556689,-1.3977288975149003,-1.3569724814109592,1.6000528965402416,2.0223511637181324
-1.4663080672598057,-1.6686443372925455,-1.3977486073673653,-1.3542467139233965,1.6000445858374894,2.036732738697183
-1.466329085370212,-1.6687349084534484,-1.3977537860799147,-1.3526418027663247,1.600038735940961,2.0451788711682695
-1.4663569414481812,-1.6688838250913705,-1.3978610490798353,-1.3501304822508013,1.5999339366994558,2.0582916923207413
-1.4663654881624715,-1.6688956721298256,-1.397892907553605,-1.3498798063436197,1.5999047415268666,2.059587485474466
-1.4665837245770805,-1.6688288077985178,-1.3981142171706256,-1.3481568278670915,1.5997021900409198,2.0685155532006734
-1.4666834600516938,-1.6687830051577122,-1.3982008991385335,-1.3474346655012737,1.5996171624672697,2.072241183325215
-1.4669324259201852,-1.668666335370207,-1.39841654215463,-1.3456311918877477,1.5994052267854215,2.081541998962396
-1.4670854354643807,-1.6687610272089006,-1.3985309345126864,-1.3445619513206344,1.599280403761408,2.0868252459626238
-1.4671766253810696,-1.6688517227596689,-1.3986134489057898,-1.3438912108889083,1.5992017943616281,2.0901609751313797
-1.467257582311341,-1.6689306201336411,-1.3986907821620382,-1.3432860614616309,1.5991308566372646,2.0931859085519076
-1.4673327645890761,-1.6688821397533746,-1.3987757614481409,-1.3426928319766864,1.5990609804565998,2.0963163990551776
-1.467428079535725,-1.6688086304524756,-1.3988496222472313,-1.342015594684262,1.5989823843633462,2.0996452072620793
-1.467492320113819,-1.6688629682800133,-1.3989058263345249,-1.3415477793626425,1.598927835844897,2.101947464214978
-1.4675350784299206,-1.6688195910898944,-1.398954481401314,-1.3412072216635764,1.5988879896769477,2.103659491432622
-1.4675869374405175,-1.6687535816275552,-1.398991294510746,-1.340827844612995,1.5988438889389383,2.1056977873733715
-1.4676289801901543,-1.6687065415107303,-1.3988889959945896,-1.3405200668370072,1.5988175717053594,2.107386548109154
-1.4676735739993858,-1.668653783604326,-1.3987883547058033,-1.340236668720144,1.5989386268090906,2.109191857233013
-1.4678610108127168,-1.6686052775788125,-1.3986894595523627,-1.3399565948323209,1.5992099677295672,2.111131586457779
-1.4680564854287383,-1.668551792499436,-1.3985931566040788,-1.339684621113217,1.5994756185979118,2.113019586126903
-1.4682141099958914,-1.6684972572812564,-1.398501865897533,-1.339425157441167,1.5997283069514123,2.1148608051807996
-1.4682058238610622,-1.6684690338853032,-1.3984563261833396,-1.3392984495870084,1.599851426842287,2.115839790026434
-1.468229264831424,-1.6684619463652108,-1.3984371421471404,-1.3392465008933236,1.5999029006089927,2.116237824392987
-1.4683090739868099,-1.668440277456685,-1.3983911215137819,-1.3391355033506782,1.6000145679763136,2.1171229018113475
-1.4682886486861375,-1.6683040505525577,-1.3982074818296928,-1.3389957185970147,1.600160198151602,2.1182842176613583
-1.4682795714074208,-1.6682235541108907,-1.39795371859743,-1.3387747258962044,1.6004040118360656,2.119912484566568
-1.4683600916898876,-1.6681255539358386,-1.397950025315251,-1.3386947357985282,1.6005863907480795,2.1205461264526275
-1.468453616104633,-1.6680079111104107,-1.397942399540472,-1.3386081966131982,1.6007891421228866,2.1212179665614195
-1.4687622826112174,-1.6677641114004715,-1.397924395167795,-1.3384272179058445,1.6014545804491274,2.1226107653445627
-1.4687858143106336,-1.6677523714402087,-1.3979236445059127,-1.3384186850647677,1.6014862674194783,2.1226769820087306
-1.4689003557448719,-1.6676947622352694,-1.3979198110712892,-1.338377181838581,1.6016399462462458,2.122998235338532
-1.4691133597587944,-1.6675891054318632,-1.397903393391836,-1.3383018682476773,1.6019153129615626,2.123594015715059
-1.4693230999069415,-1.6674952744485811,-1.397734156360684,-1.3382316779469832,1.6020401411849425,2.1241933767577796
-1.4695265236382193,-1.6674025212184254,-1.3973944104523972,-1.3381623924446082,1.6021580083633007,2.124937240691125
-1.4697062151003764,-1.6673166999791291,-1.3969266729368839,-1.3380985231036353,1.6022623311663304,2.1256088076626583
-1.469839948008591,-1.6672404015679723,-1.3965802220813255,-1.3380447847982786,1.602340020622818,2.126245601201584
-1.4699720708796733,-1.667149354080193,-1.39640835448119,-1.337983553016266,1.602416713384004,2.1268983469797877
-1.4701614036065394,-1.667009895981446,-1.3969875480117757,-1.3377867174696827,1.6024147999702631,2.1282953526214192
-1.470189741531159,-1.6669966973801913,-1.397104705302863,-1.3377347623732498,1.6023885775364368,2.128505518550839
-1.4706360002768248,-1.6669436352211338,-1.39767888346228,-1.3374199255175176,1.602261055581497,2.129390689706674
-1.4706711173267195,-1.666916897247514,-1.3978998397117337,-1.337221584917394,1.602211271849223,2.1295873150737648
-1.4705615869770194,-1.6669164209197318,-1.398004680979232,-1.3367780438205201,1.6021387543324437,2.12987096276224
-1.4703491394311963,-1.6670244285629927,-1.3977333914011547,-1.336263920633804,1.6020861187044164,2.130089710846516
-1.4701223607719034,-1.6671409496873104,-1.3974561903951235,-1.3349386411366098,1.6020339659410838,2.130443336205621
-1.4699050764847394,-1.6673706783653681,-1.3973229890264867,-1.3322202514499435,1.6019822303423432,2.130796653641993
-1.4695942009053866,-1.6675901828423785,-1.3973742090483272,-1.3285463222606784,1.6019386474045256,2.1310867050308264
-1.4695122287125475,-1.6676808745469447,-1.3974548529585016,-1.3265743723775352,1.601924548841193,2.1311415344527456
-1.4694052564654092,-1.6678248101668485,-1.3976000094860355,-1.3230687120872178,1.6018986227826149,2.1312082870564515
-1.469160012117558,-1.668159493239382,-1.398181996585382,-1.3125834009065236,1.6018358623946158,2.1309053762965555
-1.469048643402808,-1.6683088458961959,-1.3984436045244732,-1.3074096473719186,1.6018072496071616,2.130540905466295
-1.4690381245054613,-1.6683229522391247,-1.3984682900911578,-1.3069105322474892,1.6018045461424,2.1304965942428855
-1.4689873899881025,-1.6684007570814636,-1.3985246195641774,-1.3044939673564486,1.6017916817262194,2.13034855153349
-1.4689288792111133,-1.6684801345252849,-1.3985748323886071,-1.3017447246570018,1.6017864931928496,2.130190299500428
-1.4688151901829025,-1.668628303905421,-1.3986704773609884,-1.296328123437461,1.6019417966286933,2.129878757993975
-1.4687304162034274,-1.6687387162687228,-1.398742142109388,-1.2922693516697852,1.6020606179101962,2.129615759148541
-1.4686550725909138,-1.6688965867255818,-1.3988608896462784,-1.287108325537187,1.602212145485864,2.1284934572598146
-1.468681869573936,-1.6689531754033984,-1.3989158275249938,-1.286218761336345,1.6022375095630683,2.1280408004482054
-1.468776803243092,-1.6691861252061106,-1.3991224659594823,-1.2830656574014647,1.6023244962297276,2.1251274068183705
-1.46887293235067,-1.6694296594945135,-1.3993268039943538,-1.2798376226888386,1.6024063142620535,2.118630404871138
-1.4689722227746533,-1.6698155507000443,-1.3995124963691206,-1.2767404039209571,1.602482965359603,2.1060027826356156
-1.469041394974771,-1.6701636712527526,-1.3996709644410932,-1.274233444688085,1.6025485365680556,2.090982276089436
-1.4691402050171258,-1.67085510650641,-1.399834047885491,-1.2716578951909083,1.602745249784705,2.062057088264085
-1.469144175066595,-1.6709051883176167,-1.3998446919205672,-1.271518022159073,1.6027640127034564,2.060156049544812
-1.4691889800062508,-1.671050006854795,-1.3999100559250373,-1.2711408756454843,1.6028544455332967,2.0535496891951004
-1.4693141387835291,-1.6713811921850317,-1.4000825103675052,-1.2703309693075113,1.6030786631920484,2.0383989118412718
-1.469425009021485,-1.6716705112460197,-1.4002351478791177,-1.2697001950864535,1.6032555389872585,2.0253494966939596
-1.469624389738672,-1.6724598625597873,-1.4006453581462137,-1.2686760430899644,1.6035831981976583,1.9965998749119307
-1.4697805394608463,-1.6731407961518765,-1.4012014991153767,-1.2677958382800159,1.6038474704530998,1.9693489113637408
-1.4699926321426056,-1.6741259197791942,-1.4022899299718803,-1.2663857061377095,1.6043366077510015,1.926366172723093
-1.470003158131596,-1.6741761636275851,-1.4023537176558962,-1.2663149302275152,1.6043700848776916,1.9240864117182477
-1.470086323759275,-1.6745494318780014,-1.40294711904203,-1.2658785954095413,1.6046240987129317,1.9052113362631313
-1.4701513935816188,-1.6748573386750132,-1.4034679876447707,-1.2655331121337443,1.604830449144731,1.889631580397391
-1.4702803542331193,-1.6754276331682691,-1.4050503682644775,-1.2648689472414034,1.6052256335452093,1.8560999802073692
-1.4703825216757498,-1.6757138845227535,-1.4067475108168608,-1.2643106743587023,1.605563639589876,1.8229953273516475
-1.4704215265427885,-1.6756993448700803,-1.4077427727745042,-1.26415500794204,1.6056841959294763,1.8091122352536984
-1.4705138460856513,-1.6755821213117135,-1.411146392935417,-1.263752684189171,1.6059753048540546,1.773911534722151
-1.4705672879992122,-1.6752880444761424,-1.4146041316902496,-1.2635647357260449,1.6061497673712606,1.75133609755386
-1.4706255604161331,-1.6748207193845892,-1.4197123803884653,-1.2633544627412026,1.6063590989208631,1.7242123689418014
-1.470715638034979,-1.673902307223749,-1.4297408034288446,-1.2631585844697666,1.6066127235790155,1.6911795155565108
-1.470737078987068,-1.6736814411643357,-1.4322967173715997,-1.2631257601143147,1.6066721001152424,1.6833742896536061
-1.4707817023887797,-1.6731394695074915,-1.4390498612310016,-1.2628047849058925,1.6069697045248021,1.6681830081665712
-1.4708260772488548,-1.672982430908578,-1.4450944570499293,-1.2625905242370992,1.6072186550144274,1.655833583358125
-1.470856658725102,-1.673039565713642,-1.4492556504352052,-1.2624512372374181,1.6073864591970002,1.6475062774242883
-1.4708819716851702,-1.6732752326496863,-1.452633569112917,-1.2623502075624433,1.6075229953235957,1.6407142183857164
-1.4709157050701054,-1.673924227558881,-1.4574721114308304,-1.262493159317261,1.6077366806017908,1.6300728212521673
-1.470930499783696,-1.6744572698967006,-1.460276654086147,-1.2628390189928114,1.6078717042753248,1.6233804158732832
-1.4709408640065937,-1.674940372527873,-1.4627023418289127,-1.263259129512403,1.607993627460618,1.6174506203692143
-1.4709521468256448,-1.6754090418052208,-1.4650974856168575,-1.2636716190697108,1.608114125837913,1.611732226208759
-1.47096419513589,-1.676012535028319,-1.4672298277391818,-1.2640825954456025,1.6080637029259361,1.6063584758367795
-1.4708369066897122,-1.6764958566259887,-1.468542254440448,-1.2645316287963422,1.6080183004408068,1.6025156024573768
-1.4706968631809387,-1.676967949190763,-1.469671392356508,-1.2649732760687835,1.6079745809750285,1.5990114087891525
-1.4705607258755096,-1.6774165163083599,-1.470592547643479,-1.2654099229630331,1.6079318703241205,1.5956338062649063
-1.4704165750598062,-1.6776941715895815,-1.4713552964867052,-1.2660428003900233,1.6078882618075392,1.5925737935850688
-1.4703892301276003,-1.6777336945682988,-1.4715389719836516,-1.2661621379040557,1.6078798290029368,1.592055008516154
-1.4702987943137986,-1.6778811063185222,-1.4721930349086223,-1.2665785042521138,1.607850690976315,1.5903814648661163
-1.4702244204169106,-1.6779971624296028,-1.4728610969455442,-1.2669170452103649,1.6078270867481317,1.5900980113649401
-1.4701496330048116,-1.6780985661517775,-1.4738261906153514,-1.2672444179902198,1.6078045717853322,1.5911693719962947
-1.470065974361922,-1.6782380070782768,-1.4749778657441412,-1.267623986808007,1.6077787538832715,1.5946249461986028
-1.4699948803042477,-1.6782999818153463,-1.4761383017608427,-1.2678676676354197,1.6077574521393558,1.5992823553684303
-1.4699671528209586,-1.6782689423640855,-1.4766831067006752,-1.2679139010898088,1.607747925748837,1.601758159076322
-1.4699446618623462,-1.678242729406677,-1.4769879188781765,-1.2678830310145983,1.6077542545687067,1.6033689869700376
-1.4698377453950273,-1.6781792446886508,-1.4777428331405205,-1.2677272281433773,1.60786955185542,1.6080522561424662
-1.4697225251926718,-1.6779701884121203,-1.4787999143957038,-1.2674870120242416,1.6084327969220151,1.617409879907941
-1.469640100843948,-1.677876806410352,-1.4791976140505143,-1.2673910671364597,1.6089564212519185,1.6215007677220508
-1.4695477649126067,-1.6777773656903452,-1.4796143410027465,-1.26728663027129,1.6100381582690693,1.6264449081766674
-1.4694593323044463,-1.677696747194425,-1.4798996057270721,-1.2672026690679237,1.6114964831188334,1.6304091957786788
-1.469129575139035,-1.6775041814400062,-1.4805283838159324,-1.2670098536332306,1.6164476183200305,1.6390130012202815
-1.4689292982676174,-1.6773793844106748,-1.4810214847021816,-1.26688823771479,1.62136535157733,1.6440766126340618
-1.4686374514531328,-1.677205484907436,-1.4819218731917185,-1.2667166158161305,1.6324509983174842,1.651229407370474
-1.4684956650270142,-1.6771276173946872,-1.4823645563510937,-1.2666362671828397,1.6400045794329732,1.654471052854319
-1.4682508484259265,-1.6770740329189284,-1.4837011183532898,-1.2663839712407745,1.6712846775844457,1.6631206464817614
-1.4682270314275205,-1.6771168917513097,-1.4840582447048776,-1.266320245625343,1.6806111000052508,1.665364740597277
-1.4680575543210026,-1.6771735490231494,-1.4843623067229483,-1.26624258947098,1.695456977788322,1.6681692140070365
-1.4676105600261955,-1.6772746408283299,-1.4840909040574557,-1.2661868902773077,1.7108922798357715,1.670933820277209
-1.4668271469858563,-1.6774147308623846,-1.4836546517552849,-1.266128807211864,1.7216650129796294,1.6729107628554072
-1.4652246289376112,-1.677575785234558,-1.4830269857482221,-1.2660652716569951,1.7338618543455466,1.675242392916593
-1.461627106247661,-1.6777666176587505,-1.4822209263873183,-1.265977795388822,1.7504613200668437,1.678872882437401
-1.4605652076902116,-1.677763858290274,-1.4821013642495766,-1.265907960740023,1.7545273147249076,1.6798593811179336
-1.4590307541454728,-1.6777426740764778,-1.4819503671504335,-1.265815142923761,1.7602269881122428,1.6812316746090106
-1.455204567574552,-1.677738540001533,-1.4814250819921775,-1.2655388030720822,1.7776678264864165,1.6852160621367618
-1.4513649250713379,-1.677740053395706,-1.4808291481763576,-1.265106491813183,1.7988824709073312,1.6902427530661417
-1.4493235434186527,-1.6776932201558408,-1.4804289954946126,-1.2648787984770824,1.813261554072424,1.6939356213588352
-1.4478597067556527,-1.6775914844431916,-1.4801455679183921,-1.2647015928348038,1.8247519385689674,1.6970259232439715
-1.4457654340937967,-1.6774238236149703,-1.47987396841863,-1.2642988385088594,1.8439688080441696,1.7026085366040133
-1.4438965465349813,-1.6772828515363873,-1.4796281323614546,-1.2639398072530685,1.8643056060191585,1.7090895007496174
-1.4422082997156762,-1.677163050618986,-1.4792652673987503,-1.2635999518249494,1.8856994987378155,1.716312510727262
-1.4407006961114284,-1.6770521935583647,-1.4789601689267133,-1.263192402918169,1.9052442971347567,1.7231126432307329
-1.4390905008527377,-1.6771031449034133,-1.4782780313902324,-1.2627606679897931,1.9289070157457384,1.731499508918606
-1.4376017568547077,-1.677193512797393,-1.4771744437391026,-1.2623209377960773,1.9563802216096688,1.7415927398324882
-1.4366450831450122,-1.6772396162700736,-1.4763886495063374,-1.262058785329363,1.973762498892774,1.7481215640431724
-1.4354039418836557,-1.6774950599663794,-1.474707211805278,-1.261559906655362,1.998843077407966,1.7574191268010984
-1.4348771203556538,-1.677600731372839,-1.473800775596043,-1.2613415137340853,2.0100221711344366,1.7615143485150648
-1.4345059637098334,-1.6776813703641902,-1.4730778622582938,-1.2612160631997975,2.017470748764449,1.7642700304464545
-1.4329993033331225,-1.6779368157664578,-1.4699309685001365,-1.2606896443515836,2.046709379691761,1.7753971417647683
-1.4325271536274715,-1.678054622735171,-1.4684443909640024,-1.2605438993491005,2.0564454056019463,1.7797877583767956
-1.4317233042381612,-1.6781850476996905,-1.465653485272303,-1.2602500734982414,2.072956945534363,1.7875918771675643
-1.4306605427601666,-1.6786365927430433,-1.4613122529685802,-1.259745693657834,2.091481531486051,1.7982625148673197
-1.4302442448541908,-1.6790864773592056,-1.4591048955540349,-1.259533145479063,2.0986524045213732,1.8028416385228452
-1.4295178537262456,-1.6809413443797976,-1.4531327175784485,-1.2591810513772024,2.111752057826529,1.8118841521035245
-1.429084532390308,-1.6829870612855267,-1.4473342764971735,-1.2589201740075142,2.12150727059603,1.8186512746781385
-1.428569542109996,-1.685359562982793,-1.4412476934006928,-1.2587957323383385,2.1301890857730443,1.824767144732523
-1.4281605632369332,-1.688579791228711,-1.4343318167956052,-1.2584706634613445,2.1394934651512525,1.8313225501498662
-1.4275827169434245,-1.6941246579865392,-1.4245424961214028,-1.2577524082740166,2.1521691089946238,1.8403672881390751
-1.4270360130266722,-1.6996490340665968,-1.4157776842390024,-1.2567840388219265,2.162996763006724,1.8484286555074787
-1.426739721796962,-1.7026587308778056,-1.411368304905784,-1.256274149974985,2.1684947315114624,1.8527478315169548
-1.4264146839471812,-1.7059842139443013,-1.4078830069910975,-1.2559564887032006,2.171950120545901,1.8573095620810511
-1.4262099440152187,-1.708146258991718,-1.405767432549979,-1.2557920558322555,2.1726694632094623,1.8601367396649389
-1.4261590585319182,-1.7086760172019444,-1.405159091400178,-1.2557527353052327,2.1718028332577424,1.8607716902524005
-1.426098889758527,-1.7091064785788326,-1.4046319614320022,-1.2557236510362422,2.1705667082933533,1.861230181408049
-1.4260510669478865,-1.7094000593346734,-1.4042799700970503,-1.2557020697844845,2.169677814810931,1.8615287085510046
-1.4258577956371137,-1.7104175134132966,-1.4031391099881727,-1.2556405155113302,2.1658834132969296,1.8625465957580358
-1.4257475329889566,-1.7108792904795334,-1.4027338930863564,-1.255643859158861,2.1631256874074585,1.8629954028005635
-1.4250391938297085,-1.7122505553423464,-1.4016474447884308,-1.2562153838477736,2.1525188424642723,1.8642601536334227
-1.4209693608237228,-1.715256402873072,-1.400056396371927,-1.2586423143904135,2.1228571853613154,1.8665440437784082
-1.4191579267916825,-1.7158710123013743,-1.3999320913507036,-1.258921833035753,2.1155874085452178,1.8669492029151893
-1.4168869761870102,-1.7166335843144058,-1.3998079260260383,-1.2592159102452798,2.107255188218974,1.86740062272158
-1.4140465528706299,-1.717382398144205,-1.3996933045830589,-1.259493155765784,2.0991557662262843,1.8676692644477424
-1.4082146731198513,-1.7189032833162956,-1.3995130920348167,-1.2599820256784608,2.08430125751933,1.8678166392066513
-1.400821718449195,-1.720519961997683,-1.3995049406528632,-1.2602748261951853,2.070969116868028,1.8656125718369923
-1.3956831247113837,-1.7216438775255025,-1.3996091223661062,-1.260555839951978,2.062842147991757,1.8626348404678523
-1.3859459643421141,-1.723605384276439,-1.3996199592256613,-1.261100546260838,2.048428246324302,1.8506143285929706
-1.3819527870689388,-1.7244239238705323,-1.399602642446737,-1.2613120924488803,2.0428213597877263,1.8438444108391183
-1.3760825722741201,-1.725499178464713,-1.3994538049059129,-1.2617229312038227,2.03546749315931,1.8318304900051587
-1.3735453625010312,-1.7258852013142225,-1.3993539870049756,-1.2618873044861358,2.032718280305587,1.8263880556859913
-1.3703316006448174,-1.726358307795203,-1.3992081801028644,-1.2620656392926601,2.0294484158456565,1.819694861659061
-1.3623327616087537,-1.7274009239457335,-1.3988894268505627,-1.2625287162693608,2.0221579592139687,1.8036061153443057
-1.3584048159762878,-1.727840094250799,-1.398768695846322,-1.2627443146965975,2.0193097462369534,1.7964256518956276
-1.3540742256461247,-1.7282491756699105,-1.398719105262153,-1.2629514124090293,2.016472893940159,1.78897312980368
-1.3474108454104865,-1.7288015791364164,-1.398665688304588,-1.263232100718014,2.012665019973726,1.778048035719422
-1.3414505683317504,-1.7292727150477953,-1.3986186083164776,-1.2634547654774821,2.0091454866855423,1.7684152228479277
-1.3353439734425157,-1.7297186877986659,-1.3985773435881534,-1.2637477383586198,2.0049141833803987,1.7584176199009742
-1.326519429710721,-1.7302398409023132,-1.3984560585233228,-1.2643419581622122,1.9964109468856126,1.745062173842991
-1.3157840573762356,-1.7307370502819606,-1.3983987697831728,-1.265629964895623,1.9821443926328135,1.730780023139821
-1.3133549311899524,-1.7308350050867873,-1.3983821381065993,-1.2660769893472295,1.9781743522828805,1.727750936827302
-1.30728434072573,-1.7311080770802043,-1.3983368638824623,-1.2675904999005878,1.9662195114446772,1.7203936871232515
-1.3002347686910383,-1.7314547911260214,-1.3981762374669664,-1.2705625508857021,1.9481955884341005,1.7118267154150852
-1.2900486689346717,-1.7318783544464864,-1.3975925840673276,-1.2769151773734653,1.9166559982865916,1.6993890402002538
-1.2761781066273388,-1.7324016940879876,-1.3961411636135408,-1.2881289330141377,1.869436510256809,1.6824392542781343
-1.270954104631008,-1.7324828815382605,-1.3954426696854414,-1.2930314224851658,1.8512102638264316,1.6764186532515342
-1.26105583289482,-1.7324168020013957,-1.3936965207812524,-1.3029196683283912,1.8187294430160286,1.666311715448811
-1.2488834458942366,-1.7320205805930449,-1.3912709232069893,-1.3149839633805556,1.7821422749214815,1.6551300449275073
-1.2403706136020438,-1.7315386590165966,-1.3895427717548448,-1.323067610104122,1.7579898284232016,1.6476233930540918
-1.230604062804308,-1.7309382273371507,-1.3873856136830003,-1.332151884641787,1.7306921374156066,1.6388903638401042
-1.2152391149185664,-1.7299437849060515,-1.3837779127201932,-1.346211874186277,1.6881358695384028,1.6246365263493832
-1.2136527837142803,-1.7298399836576193,-1.3834085256668476,-1.3475988803562582,1.6838815102259395,1.623112069264691
-1.2103928927452152,-1.7296325765047937,-1.382652839411928,-1.3502518097034515,1.6756258453206,1.619963427771876
-1.2048183955625602,-1.7292913791093805,-1.3813725046809124,-1.3546234055042092,1.6619612452090546,1.6146732507072652
-1.194906011287029,-1.7287604379931598,-1.3792402818131482,-1.3607570918593732,1.6423401064328844,1.6063312327812418
-1.1764889179540243,-1.7279958899918364,-1.3759631882585064,-1.3694122238258568,1.6145842630921887,1.593299444767528
-1.0534374068558208,-1.7228925066955634,-1.365187893423817,-1.4153425309049397,1.4791981111960908,1.5163135441714795
-1.0530841957822357,-1.694443994206438,-1.3997326039250102,-1.4308973784347045,1.4997129710596715,1.5069911634770845
-1.053444172399105,-1.6837599114894373,-1.4103550242629193,-1.4363840344601944,1.5063956500526612,1.5040090129524233
-1.054670221144531,-1.663583744516585,-1.429140938517965,-1.4480165568196337,1.5187918448784747,1.498476583350877
-1.0566762286000486,-1.637437306897052,-1.4511117988709918,-1.463982003841447,1.5341620091860262,1.4916420991953032
-1.0578087040225441,-1.6235144931015995,-1.4614994235901957,-1.47266716504142,1.5420146564680792,1.4882551145459966
-1.0591026453457437,-1.6069575267649545,-1.4722011279576452,-1.4829142125008998,1.5508378053508687,1.484530490401561
-1.060396825427674,-1.5900334354310297,-1.4816143536371849,-1.4931499001745077,1.5595567659505738,1.480855187732157
-1.0618682226625542,-1.5710344515624985,-1.491705780940901,-1.5045714651497781,1.5693389307650534,1.476731876374447
-1.062877450778042,-1.5580053369264408,-1.4988578654964897,-1.512311262852961,1.5761098305202428,1.4738779026794389
-1.0642820007516596,-1.5395576572125347,-1.5104496015435183,-1.5231129067966287,1.5855617015651353,1.469715483314373
-1.0650143351945165,-1.529893996464035,-1.517102389916403,-1.5287651146370342,1.5904628642683156,1.46743859670263
-1.065213425073334,-1.5273223335484298,-1.5194917463761946,-1.5299999699126499,1.5916342289372563,1.4667987425462445
-1.0657446733692837,-1.5218049412697967,-1.5259218974022237,-1.5327161020441595,1.5941935362723887,1.4653108592126354
-1.0661597083813015,-1.5175276084521936,-1.5311740633689663,-1.5349555355653328,1.5962451854756943,1.4641165097231856
-1.066411312859374,-1.5147304749383868,-1.5353800836156324,-1.5360213525191593,1.5975462581068314,1.4633069225418
-1.0670203980759392,-1.508490393102415,-1.5461506077911882,-1.5381174335830592,1.600576296665425,1.4614007366438901
-1.0680527598496092,-1.4983366780069025,-1.5686750753617797,-1.5376466846886854,1.6057892571094496,1.4582877824732838
-1.068097897698317,-1.4978957698415059,-1.5698149405179027,-1.5373883020344417,1.6060233935123385,1.4581740278757156
-1.0683292265641864,-1.4958711609031554,-1.5755632156521602,-1.5357420348451793,1.6071589482619792,1.457670365062977
-1.0688115777827802,-1.491677915356721,-1.5884763135740125,-1.5317853876153216,1.6096692380937527,1.4565851527811762
-1.0692500985775604,-1.489192300579884,-1.6008531199747764,-1.5232678205822547,1.6119343569217324,1.4558490582113055
-1.0695980364783215,-1.4877184121069902,-1.6124973409671914,-1.5133286246146946,1.614094865014641,1.4551559763702817
-1.0698809404747978,-1.4869200246958982,-1.6222408579534304,-1.5033035489786553,1.6159841099482226,1.454466391147534
-1.0702771140675946,-1.486695880944258,-1.6323836311576687,-1.4906857677460743,1.618173000773258,1.453565650162943
-1.0704144449541366,-1.486730542694033,-1.6376477607073863,-1.4838077850222289,1.6193346480665884,1.4530865142704417
-1.0705980409114548,-1.4867962262567267,-1.6416437010129774,-1.4783066392849613,1.6202678844504443,1.4527009328422795
-1.0709706585838745,-1.4868669706702442,-1.6482343909893173,-1.4690468020622864,1.6218381599307754,1.4520291703589379
-1.0714467533506031,-1.4869225004538262,-1.652284716014269,-1.4630382285698058,1.6228571412673423,1.4514833151790132
-1.0726295505452723,-1.4869641032531233,-1.6573285816193524,-1.4556642032924785,1.6238395109944206,1.450800295631507
-1.074989316684942,-1.4870019181022152,-1.6625617133546822,-1.448494440418477,1.6248032471316765,1.4501310738733812
-1.0777752862276886,-1.4870207825101485,-1.666755795954234,-1.4432918644754746,1.6256537803070423,1.44963595165763
-1.081659907134951,-1.4872979560056159,-1.6717647072504225,-1.4376821877543573,1.6265700508859637,1.4491049786124364
-1.0847593698400169,-1.487715857171927,-1.6760310322160268,-1.4334182433964695,1.6272490144816967,1.4487129091371886
-1.0878480798074956,-1.488728722176301,-1.680747636909536,-1.4288950693472227,1.6279865684589403,1.4483259584549315
-1.0913005465382375,-1.490860915053862,-1.6863090050257818,-1.4237273093495686,1.6289323499908805,1.4478916544937102
-1.091972310479293,-1.4913885173014105,-1.6874111898832294,-1.4227171549031805,1.629118107669291,1.4478063693470393
-1.0932640754445493,-1.4925284345606302,-1.689505087212343,-1.4207799372675247,1.6294733597574131,1.4475611160016548
-1.0954165396170823,-1.4945598268251568,-1.6930589350706557,-1.4175355444102635,1.6300711571301896,1.4471337198232475
-1.097319958643384,-1.4963845495260772,-1.696239451324494,-1.4148081813286204,1.630452484985581,1.4467515324807214
-1.0988837502662139,-1.4980098152543475,-1.6990847982819188,-1.4125226528171726,1.6307954713565975,1.4464192618921272
-1.10015310305021,-1.499221936237105,-1.7014157282256848,-1.410793825967651,1.6312119958078186,1.4462826319472037
-1.1014088166086073,-1.5002746600400585,-1.7035731648691887,-1.4091021629265879,1.6316273473078695,1.446150555041007
-1.1028713061387425,-1.5014357201670854,-1.706077153465716,-1.4072675081468804,1.6321234063050247,1.445993357681253
-1.1033991214096919,-1.5018390791850722,-1.7070402088483214,-1.40650118831362,1.632330949348723,1.4459272532972465
-1.1045260006106028,-1.5024712648996636,-1.7090920088614578,-1.4048595304230262,1.6327876187444055,1.4457848944400247
-1.104932492421874,-1.5027649219246604,-1.7096651020367655,-1.4043680985368598,1.6331235955943528,1.4457194449391988
-1.1053212361050966,-1.5030320353158868,-1.7100763421580611,-1.4040214737490986,1.633467126564523,1.445652679182401
-1.1054971435552525,-1.5031236039290443,-1.7103777418955033,-1.4040078595056418,1.633717675570029,1.4456042010628831
-1.1056933508971454,-1.5032072559111609,-1.7107149799615124,-1.404114678579576,1.6340047032262273,1.4455479415841017
-1.105931637811056,-1.5031201548312514,-1.7111956396028232,-1.4045287136057,1.6344066715140435,1.4454698304952844
-1.1059436877965207,-1.5029998201781232,-1.7117821901413661,-1.4050300245387723,1.6346192435073625,1.4454062673611052
-1.1059451903831108,-1.5029874098140454,-1.7118851167969134,-1.4050931660809942,1.634630264526507,1.4453984999427927
-1.105977934369482,-1.5029683670012486,-1.7120691316456786,-1.4051804564245387,1.634684639051158,1.4453864013808893
-1.106052873892458,-1.50294075908975,-1.712383218334249,-1.4053277534475168,1.6347839842200864,1.4453680204107484
-1.1061530728429396,-1.5029056046182439,-1.7129773103750696,-1.405565876785993,1.6349501693041975,1.4453383865387512
-1.1061459557041176,-1.5030222147025947,-1.713975888766074,-1.405853135172101,1.635150425774476,1.445301920681982
-1.1061191867488598,-1.503228802336126,-1.7148006316034017,-1.4060450405370786,1.6352849523918442,1.4452778337259158
-1.105716736926163,-1.504109623738617,-1.7174146517303492,-1.4064156763602216,1.6355897219681554,1.445222826319481
-1.1054289516598543,-1.5047546726546845,-1.7188439655401626,-1.406433433769803,1.6357071033569395,1.4452011569638024
-1.10503248380923,-1.505616942929194,-1.7204907753036134,-1.4064415717550143,1.6358194423543413,1.4452491062550423
-1.1047730801620317,-1.5060559131264906,-1.721228779877228,-1.406448938631943,1.6358625573606156,1.445313710551421
-1.10377567165024,-1.507286555756138,-1.7234869939452673,-1.4064290840840687,1.6359785442311885,1.4454900978073348
-1.1026784615284289,-1.508147586856122,-1.7252640408070894,-1.4062826555736738,1.6361263346397343,1.4456132721245394
-1.101620942532215,-1.5088144736023654,-1.7265867738676763,-1.406189067557764,1.6363286167566298,1.445756503437844
-1.0994116345305507,-1.5099894538589438,-1.728211152015594,-1.4060375734063915,1.6367093415600302,1.446220193216355
-1.098888910671962,-1.5101260595903663,-1.7281634597936586,-1.4059963817220458,1.6367995800348787,1.4463295734285373
-1.098560620698974,-1.5102144655913126,-1.727982837264844,-1.4059748503385507,1.6368565097641081,1.4463990986281983
-1.098015199793849,-1.5103301925556574,-1.727610479229598,-1.4059386721564937,1.636951013314817,1.446514041612124
-1.097255834730566,-1.5102528751551827,-1.7262089326178582,-1.4060665637212064,1.6370496439596252,1.4467160735222249
-1.0968032026707726,-1.5100172757567534,-1.7245905435526208,-1.406140600559154,1.6370203447062872,1.446967708683149
-1.096027293053293,-1.5093025577582126,-1.7210298250688338,-1.4064769992987238,1.636968011885282,1.4474084915789935
-1.0958049326658035,-1.5091117113678778,-1.7196424161015442,-1.4066522185980574,1.636952180609576,1.4475386244924207
-1.0955211938166347,-1.5088338842583093,-1.717744539044921,-1.4068892787056653,1.6369329278124725,1.4476903116426882
-1.0951947281887926,-1.5083954137141773,-1.7153179563846748,-1.40716341940881,1.636910890857424,1.4477311387222114
-1.0948517486126697,-1.5078860663680282,-1.7125143472308004,-1.4074488019583022,1.636887585987292,1.4479288937220351
-1.0943716120684328,-1.5072507688115488,-1.7082446892636685,-1.407840095079417,1.636979347856769,1.4479599842847104
-1.0942426005526864,-1.5071339087131725,-1.707158431828911,-1.4079386703858672,1.6370537443578845,1.448004907612706
-1.094102848764662,-1.507011113138105,-1.7060358973114242,-1.408051421941688,1.6371348689030045,1.4481146608424766
-1.0939087322024303,-1.5069754027298563,-1.7044278327008866,-1.4081998595344447,1.6372513112655296,1.4482727743702137
-1.0937656452582158,-1.5070842607197115,-1.703359525223884,-1.4081856987303003,1.6373374193504524,1.4483896847500655
-1.0935060874236282,-1.507559501611034,-1.7015688069971227,-1.4081661046011595,1.6374874693381851,1.4485941403850364
-1.0932738108475628,-1.5079225243368692,-1.7006924757709312,-1.4081520843917654,1.6375790743108112,1.4487212262126903
-1.0929974425310465,-1.508307272595036,-1.7002292831083101,-1.408144639208687,1.6376487093364813,1.44891217535884
-1.092965968994615,-1.508338801638074,-1.7002060701523125,-1.4081336544260108,1.6376542611732936,1.448935082698031
