ShruthikaS1/Robot-Gello/csv/test2/output72.csv
shoulder_pan_angle,shoulder_lift_angle,elbow_angle,wrist1_angle,wrist2_angle,wrist3_angle,end_eff_x,end_eff_y,end_eff_z,end_eff_roll,end_eff_pitch,end_eff_yaw,end_eff_w,end_eff_xq,end_eff_yq,end_eff_zq
-1.513486931988204,-1.6792180257170575,-1.4857740405314088,-1.6098016805664628,1.5085695157046615,1.6660122844878478,-7.779830452719669,233.15229996404582,1079.2496018333666,-1.5701446576002107,0.05378892897937565,-5.883005118422415e-05,0.7070819049563655,-0.7066201532476998,0.01904194571306652,0.018987970163642003
-1.53300750497685,-1.6850023464910362,-1.457627141980462,-1.6251533589335663,1.554676202629493,1.6265945831295268,-8.087903606142756,233.16316460590758,1079.2493876820367,-1.5701335890561539,0.05277627371268357,0.0004050805243257506,0.7070910050365098,-0.7066300994694249,0.018520125762058276,0.018794096467955018
-1.5338181605401136,-1.6827155296034584,-1.4628587497975085,-1.6281554637166185,1.5565814061376175,1.6421621711050722,-8.001213221969696,233.16095613562987,1079.2502161407049,-1.5701277676683998,0.05323150726292085,0.0004246630388935161,0.7070885772176984,-0.7066239932710598,0.018674209210370205,0.01896180403547061
-1.5351787961838637,-1.680548908052347,-1.4692214154662728,-1.6263535542423895,1.556996405987688,1.8960156465659501,-7.910269373540675,233.15883754083612,1079.2509544442669,-1.5701242257723047,0.05777945183909812,0.00041131824955728655,0.707044990639037,-0.7065783430677561,0.020286828534535988,0.020563825224863087
-1.5365978960016304,-1.6526756400226315,-1.4853144745560167,-1.6270576956172276,1.5583639615501639,2.262170668104419,-7.321699779351003,233.1433352040699,1079.2581822028355,-1.5701020983920861,0.06494940269132131,0.0004161257141890717,0.7069744385881531,-0.7064933576728839,0.022820019079166143,0.023098170409940857
-1.5365905967840048,-1.6095289615780093,-1.5040520964034705,-1.6227507203620455,1.558375168689958,2.732721436693769,-6.47830027807131,233.12070875578215,1079.2684197120868,-1.5700742522859525,0.07416660182507219,0.0004241857145371472,0.7068701366911394,-0.7063710243474571,0.02607549156057717,0.026356300128203704
-1.5306336636534275,-1.6074550405965546,-1.495015712960645,-1.6161170375981326,1.5559139914021332,3.0445983675302495,-6.5541894439555435,233.1215304543377,1079.268629763601,-1.5700815649542224,0.07937270096937508,0.0004885512797719707,0.7067955959556471,-0.7063042873636652,0.027892614170904526,0.028217747325396232
-1.0869186200531975,-1.6135877855383343,-1.4521765297285274,-1.6150178951183305,1.5556699786303392,3.0931758501705455,-8.826680669808354,233.07266111673425,1079.2664250706478,-1.5701054704199744,0.07934695898414336,0.008227281171853073,0.7066730754188107,-0.7064156966247273,0.025149994618084155,0.030943590790852172
-0.8146458185025363,-1.7310580786513718,-1.4746750418894234,-1.6109007208116828,1.5582135263174914,3.0989114481817936,-11.63196379671461,233.0521061658624,1079.2382802919458,-1.5701515857145028,0.07771824646476029,0.013020166802094682,0.7066069585411623,-0.7065090812829413,0.022880573335728793,0.03206249475275803
-0.761981808338074,-1.9552995646768043,-1.4732146654402698,-1.3162456756354204,1.5572812690277105,3.0917772893336015,-15.95737831222274,233.09603868207577,1079.1675010761048,-1.5703997540027663,0.06851516362699189,0.013904865089680776,0.7066465822068504,-0.706703093836134,0.019311033120337974,0.029127804888780556
-0.7609230184656417,-2.1546881982310166,-1.4932619947040726,-1.0201187560124014,1.5559767804251239,3.0924187565377097,-19.4922576330165,233.14269627804865,1079.0883533231197,-1.5706260277450486,0.06023094602181422,0.013886025042722573,0.7066814818770435,-0.7068567735886996,0.01638616831006315,0.026196913786815854
-0.7581234358272079,-2.2963490255842043,-1.5130939920044018,-0.8324569383003294,1.555514758590773,3.101758590240522,-21.925096287739244,233.1738072273969,1079.0243424389002,-1.5707729806891682,0.054994318772160565,0.013918377259948548,0.7066953223210932,-0.7069494054504505,0.014521801809287532,0.024359327062798836
-0.7575746529622441,-2.3624313436096513,-1.5202707517857408,-0.763986791630443,1.5174684395193059,3.1048454047781044,-22.975693718942782,233.1892332221122,1078.9927238636071,-1.5708325086613066,0.05282586333637784,0.013260713451347607,0.7067079960564111,-0.7069812076063571,0.013987057893039695,0.023361134666053444
-0.7551002453904438,-2.3978634282126525,-1.544236602997381,-0.7512435900486064,1.2786053418249712,3.095926881539643,-22.953731743365022,233.19795013614186,1078.9802084174999,-1.570836254731026,0.05224763781297801,0.009134766775843472,0.7067596642285474,-0.7069566082579968,0.015241088072394918,0.021698854676451378
-0.7485175307109759,-2.4051881494610394,-1.5544285567040839,-0.7478602634254571,0.9699516610764722,3.0524112683832256,-22.479544198222722,233.19929476414111,1078.9791654716582,-1.5708267687194686,0.05147895197729085,0.003863160929171229,0.706825327217953,-0.7069171496162167,0.016832836267782786,0.01956415101402073
-0.7419359014704756,-2.419839376931539,-1.569400548694268,-0.7575966108679981,0.5700686798563412,3.0499458932217927,-21.900077220170402,233.19820256920173,1078.9760755408638,-1.5708124703337127,0.0516112756640362,-0.003000494773659811,0.7068922235960232,-0.7068488900325486,0.019305638582183832,0.01718497012386513
-0.7373201754038602,-2.42297448802418,-1.569768770668885,-0.7617514071938531,0.19158142852654397,3.0508759621133463,-21.30068956209338,233.192855474677,1078.9758895217951,-1.5708016710958994,0.05165166070365611,-0.009525218167532568,0.7069480411250354,-0.7067778928941689,0.021625880395149955,0.014892903098073946
-0.7288440771325025,-2.413316138659258,-1.5271067647570964,-0.8307479693665649,0.11631256094625189,3.052327642842771,-21.296023504683816,233.18955516304425,1078.975899312627,-1.5707982945280383,0.0523051850947702,-0.010690795556468645,0.7069530241782979,-0.7067567371438241,0.022268745425957207,0.014711868818346005
-0.7231852456626576,-2.303824987003537,-1.4774643552914597,-1.0412346534263515,0.10174341904002618,3.0643442006402757,-19.602346729997237,233.16582954302342,1079.0156495487806,-1.5707896563406052,0.05723314895739438,-0.010845836908939076,0.7069189541850905,-0.7066948052636235,0.02406496306382458,0.016398840812807545
-0.7252772890276129,-2.2327761884468553,-1.4337533320671483,-1.2876603046679558,0.09792628187903668,3.255653179253004,-18.397208644356997,233.15140843973927,1079.037026372699,-1.5707817197187934,0.06535018713956264,-0.01094844889891535,0.7068503682630779,-0.7065871299364301,0.02696923914414459,0.019231350304533594
-0.7361709331335876,-2.158427472139389,-1.3984201495210893,-1.3369627295792317,0.10135558788177342,3.283146861366166,-17.387111376736634,233.14248226376924,1079.060681390864,-1.5707784732905596,0.06737147828059947,-0.011078505696603434,0.7068330132355237,-0.706556563989406,0.027729323513999444,0.019899696010997073
-0.737654448046044,-2.107356908625609,-1.371631392163106,-1.383922035901153,0.10299708064407122,3.2875763367407718,-16.7152616409568,233.13435480311924,1079.07587568017,-1.570775942190468,0.06869217665902883,-0.011075576557596115,0.7068205823802556,-0.7065372459159973,0.028194890823435466,0.02036743942003095
