ShruthikaS1/Robot-Gello/csv/test2/output28.csv
shoulder_pan_angle,shoulder_lift_angle,elbow_angle,wrist1_angle,wrist2_angle,wrist3_angle,end_eff_x,end_eff_y,end_eff_z,end_eff_roll,end_eff_pitch,end_eff_yaw,end_eff_w,end_eff_xq,end_eff_yq,end_eff_zq
-1.5765682719370455,-1.6075648472074329,-1.5906442779701433,-1.60855280615371,1.384804971105966,1.6855489957817078,-5.264131008227056,233.1039828481837,1079.2611023336124,-1.5701239719106113,0.05718948060500719,-0.0033177916666356994,0.7070878442915338,-0.7065455375838104,0.021395689072006823,0.01903702352496406
-1.689057083813309,-1.5412990822779582,-1.6168293605961563,-1.6377830042258295,1.4282778739128468,1.5768709309990854,-3.5465959415134125,233.0748615606407,1079.2755465939304,-1.5700498595047725,0.05741524653872079,-0.004519760535031628,0.7071232312419967,-0.7065038824663027,0.021900809686551975,0.018691025466565387
-1.6952634543693326,-1.5323717130819439,-1.613226858082683,-1.6419590756679718,1.4295265965739903,1.579816203832129,-3.40438740792312,233.0717285546341,1079.277253905207,-1.5700450558160994,0.057632405873714536,-0.004605983005442884,0.7071237011797802,-0.7064988552984541,0.022008081941641673,0.018737209531653965
-1.6825706281082944,-1.5321905213263667,-1.6001103182280838,-1.6429844509150855,1.4334659103462806,1.9846651529086095,-3.5707501515015987,233.07416768773462,1079.2777138352455,-1.5700478785990435,0.06449049630449806,-0.004310611937288344,0.7070511068074979,-0.7064238819350583,0.024328027100221687,0.02126448897824688
-1.67833256136604,-1.5364962883907167,-1.5915920019157352,-1.6656614364168711,1.433301515845297,2.357723032318017,-3.6902208149833595,233.0769055188968,1079.276859214443,-1.5700433141685846,0.07117349651982226,-0.004234325460337749,0.706976753856355,-0.7063381034217571,0.02666328190835253,0.023652115321085215
-1.6444344896319785,-1.5390400721309014,-1.5682605238198615,-1.6665839860622889,1.5394373219768969,3.0372981218314745,-4.251853028121837,233.08205863170753,1079.2821511625418,-1.569998589238195,0.0825975210003496,-0.0017784918531502036,0.7068112678563747,-0.7061957415660841,0.029833968821926123,0.02855416833887909
-1.51948202259689,-1.4957587625419164,-1.6470507239440055,-1.6589643388312842,1.5361860467646016,3.0535491314851555,-3.399222425423882,233.03628316474052,1079.2884078462923,-1.5699464017011104,0.08487804056610389,0.0003502189906982764,0.7067649998527425,-0.7061750597499914,0.02988900044091225,0.030110921986753997
-1.080835066879252,-1.4605486708513429,-1.7372614662917178,-1.6581230734535428,1.5431522913303086,3.0620598116638376,-3.8590672905599743,232.97812336634868,1079.291066175832,-1.5698836312907836,0.08720000795137409,0.008133096142820935,0.7066259854552108,-0.7062318929976202,0.027962466323824285,0.03367982288461625
-0.7821924579737809,-1.5610434953503316,-1.6849521964135892,-1.6544105385606998,1.5558931112096843,3.0521465129040877,-7.158892562730943,232.9827182283763,1079.2772567958564,-1.5699507247864057,0.08429606600934082,0.013561748042611071,0.7065592451683195,-0.7063659191817911,0.025017764697544655,0.034573584355346784
-0.7394346741583937,-1.796400549226891,-1.6734822082807734,-1.3688437860233618,1.5581673427242726,3.0537000298563917,-11.697718224965211,233.03353893470438,1079.2255407147318,-1.5702034057287522,0.07503456980132833,0.0143276021864061,0.7066105664589186,-0.7065716143509594,0.021469220999124215,0.03157742408392361
-0.7419597168755402,-2.126857154947658,-1.7005678668613102,-0.8438205376907262,1.5555073553631238,3.0471899769245003,-17.650585892339336,233.11140466912957,1079.1134205045557,-1.5705981498827668,0.06046810657981397,0.014210340490218841,0.7066839520003991,-0.7068476371659739,0.01635574747257187,0.026395062844986803
-0.7313233854800195,-2.3021698612056256,-1.6775532043660475,-0.7109569856838086,1.4582690615634826,3.0546686147345996,-20.757909426932926,233.15168113729328,1079.0373727669469,-1.5707579196558121,0.05482045980664066,0.012689671087899137,0.7067175549619358,-0.7069363260048687,0.0148948398465069,0.023863617272074727
-0.7159813790825743,-2.3921676015816167,-1.6628443403331363,-0.6244491525139195,1.1129466891323745,3.0528629326724794,-21.93637301922714,233.17353067802514,1078.9941500612736,-1.5708319263807857,0.051452456563455214,0.006926488267033851,0.7067929827934788,-0.7069441339387048,0.015740639332781338,0.020637423214804686
-0.7150891477751566,-2.446585763296614,-1.645323484018991,-0.6111965756898183,0.7254600379430236,3.049265573800853,-22.310265510645518,233.18861718730898,1078.9695093336313,-1.5708383801420909,0.049902717567144116,0.000178838815531943,0.7068702367851776,-0.7069031187110777,0.017577862623495963,0.017705023281784117
-0.7162049183801581,-2.461704964572702,-1.6317935177745457,-0.6082582961972203,0.3295186925845662,3.0533032013361825,-21.98051968465768,233.19132332296107,1078.9636855268648,-1.5708186027236999,0.04942168061534333,-0.006750091312780083,0.7069379714164106,-0.7068357844910527,0.019856941552869496,0.01508576165574624
-0.7215321706604044,-2.4122232616192716,-1.6105032053486876,-0.6256545293566796,0.19257420894964877,3.050412185890582,-21.08185404664978,233.1834061809589,1078.9835022833352,-1.5708066680300432,0.050166830396958906,-0.009232592474745293,0.706955027219454,-0.7067985996628199,0.020997705282715343,0.014471536776652569
-0.7250384659214002,-2.243184163593318,-1.5932038632144407,-0.9188265811635569,0.1722530080356606,3.0550651903429973,-17.966877996892734,233.1455689675695,1079.0493933001444,-1.5707821963914965,0.05801317800546211,-0.009647140103233212,0.7069050197086518,-0.7066971907026731,0.02391709298777374,0.01709814102978867
-0.7255741356485872,-2.110289374064225,-1.5609235392109084,-1.0546486066598093,0.16843594917513843,3.0569019685245458,-15.873068581300041,233.11926756401624,1079.0924407646567,-1.5707703516698295,0.062171814157035286,-0.009722396176369783,0.7068728215536659,-0.7066407901842419,0.025413208727164575,0.018541214057841007
-0.7328068548500285,-2.008929345563217,-1.5711543989315988,-1.1344520124697144,0.1663873992985855,3.0589709246563235,-13.991996768491651,233.09759622756476,1079.1234833879355,-1.5707609409937886,0.06554837167288609,-0.009883781298875752,0.7068454252116808,-0.7065914042111704,0.026663319191163257,0.01967739215227839
-0.7645226126637634,-1.976785037972727,-1.601626763634208,-1.2192398340321218,0.16624680349824403,3.213410459895763,-12.939415629943984,233.09298236532902,1079.1321074312361,-1.570753475294435,0.07081653304496004,-0.010439165503469697,0.7067997300599972,-0.7065081348497437,0.028720782428974138,0.021342765399997306
-0.7744788374545262,-1.9742317754481826,-1.6077928150648237,-1.2217635425322582,0.1649257561913513,3.232961073202294,-12.79844945533791,233.0938759078218,1079.132878866842,-1.5707532479585318,0.07135398354540452,-0.010635957726641044,0.7067961644869265,-0.70649746313122,0.02898016529479433,0.02146314224912983
-0.78216464055215,-1.975070777373087,-1.6136254630223117,-1.2197701825840144,0.12221558758994143,3.237258840417658,-12.659770015549071,233.09431028365083,1079.1317062983949,-1.5707642916319973,0.07148138639497359,-0.011516235245405309,0.706800292762821,-0.7064866749907247,0.029336008305623617,0.02119723632063868
