ShruthikaS1/Robot-Gello/csv/test2/output33.csv
shoulder_pan_angle,shoulder_lift_angle,elbow_angle,wrist1_angle,wrist2_angle,wrist3_angle,end_eff_x,end_eff_y,end_eff_z,end_eff_roll,end_eff_pitch,end_eff_yaw,end_eff_w,end_eff_xq,end_eff_yq,end_eff_zq
-1.5191301715268297,-1.6773846201922715,-1.5501992931486395,-1.5701172401313594,1.4233808769417733,1.6644500073782162,-7.095604456089626,233.13931829667547,1079.247603449431,-1.570169900498012,0.05422626745603249,-0.001645062652754226,0.7070837747034174,-0.706609452303452,0.0197567500961811,0.018581934566123882
-1.622791573835649,-1.671576510469765,-1.4927826293116542,-1.606248838790655,1.5089924600849094,1.4297578789909402,-7.159574707852522,233.16172746065138,1079.2516316464958,-1.5701395025878084,0.04985912426868956,-0.0019616035149397724,0.7071361191155247,-0.7066372435232211,0.01832490399730917,0.016926694941066918
-1.6293908677656381,-1.6713759783662816,-1.4926359636233932,-1.6118992878369718,1.5146015986528683,1.4473680177226538,-7.130686528280977,233.16223537471862,1079.2519332538823,-1.5701344141843918,0.050265938940282605,-0.001978458450261256,0.7071346006763185,-0.7066315489866902,0.018474731806460226,0.017064430482554196
-1.629115143010923,-1.6726985923734723,-1.4817055898988103,-1.637394661948869,1.5170092580680001,1.9203024194703042,-7.206593031843666,233.1642172496655,1079.2515112594199,-1.5701269278889884,0.05875121380295426,-0.001925743645324317,0.7070579023122582,-0.7065447750568107,0.021455975570758557,0.020080954410010968
-1.6291157147292163,-1.671495326490097,-1.4821274341839887,-1.6380149471131353,1.5198045973765826,2.6014836572016264,-7.187503821830595,233.16354565611073,1079.2519360260505,-1.5701241344201022,0.07067920957324558,-0.0018688424167546858,0.7069257750676541,-0.7064040697334797,0.025652158684494233,0.024314719077119913
-1.6290893040639354,-1.672683519569183,-1.4807926206723758,-1.6366954908924398,1.5189096635180954,2.9959075382096954,-7.218811618912222,233.16447096567177,1079.251573888081,-1.5701259725741976,0.07749617389065645,-0.001879523730133775,0.7068382272977619,-0.7063130870595978,0.028065137426711843,0.026718748850163974
-1.6252674307911332,-1.6726783469783857,-1.4766108714748805,-1.63657240585026,1.517388439457855,3.080316104319895,-7.267741932238791,233.16500605209134,1079.2514020696717,-1.5701285631596935,0.07889438187147037,-0.0018385811252325465,0.70681789015189,-0.7062948065674155,0.028544753955713254,0.027227071064209466
-1.5918388039215803,-1.6723270745314505,-1.4831202772047907,-1.6378577938903913,1.5170253402583953,3.096065746813473,-7.3394253070054924,233.15895442690538,1079.251637573576,-1.5701249262163102,0.07931139482929966,-0.0012610059103244629,0.7068055433279058,-0.7062958144123597,0.02848820024871266,0.027578413861477982
-1.30143271221434,-1.6758882757278708,-1.528954251051002,-1.6407730891595045,1.5115474430850124,3.089850295177803,-8.170052967372724,233.11103597044752,1079.2515265397765,-1.570106449725983,0.07999138392537239,0.0037133572477996936,0.706731269032615,-0.7063488334748216,0.02697202103701849,0.029576154271423804
-0.8156984452455899,-1.6846225728555495,-1.6068239662644432,-1.636033600830047,1.5165219134613834,3.0971853614865354,-9.634091357330854,233.0258805160886,1079.2507576754165,-1.57007427723611,0.08124287095721157,0.012280490533647005,0.7065889081257515,-0.7064314145923287,0.024388983752355122,0.0330446495255582
-0.7245185672367255,-1.7616010401937128,-1.6188079717507995,-1.6221207923210201,1.5144607191682475,3.090129878942056,-11.154233165594164,233.02488282049666,1079.2326494700096,-1.5701118469753597,0.07974304662756553,0.013832810462956329,0.7065747824054787,-0.7064810661691086,0.02330988693161177,0.033064016459671434
-0.7293081103756492,-2.1131514374377125,-1.62661064414772,-1.0419421283208463,1.51419997151197,3.0883061927699567,-17.70112883913994,233.10941317631762,1079.1176688537578,-1.570539662036982,0.06359130652871282,0.01371401683618726,0.7066693388520362,-0.7067962222617621,0.01763596354726289,0.027322490967838016
-0.729928480990689,-2.3125584812787623,-1.5918996600621431,-0.886923984407577,1.510407499528407,3.0957114739247804,-21.449457056111875,233.15756597577754,1079.030044638616,-1.5707197136287299,0.056931224033789175,0.013626176999460832,0.7066938789479686,-0.7069139600897907,0.015310405263168092,0.02494004768081285
-0.7314878402063767,-2.3659768809919215,-1.5837263880069021,-0.817095078788489,1.5093681379654447,3.0996438618804327,-22.487392426675175,233.1715301934533,1079.00272068829,-1.570780283810053,0.05470693276102248,0.013577444737758598,0.7067003587326224,-0.7069515968836405,0.014540638631483783,0.024137366447935474
-0.7316672668264168,-2.4094863896078693,-1.5641439170102711,-0.7838058589065645,1.3066660397360743,3.0987771723388504,-23.05624695765839,233.1875336867621,1078.9790670353625,-1.570820852736428,0.05301012719140722,0.01003430911902832,0.7067468325837665,-0.7069522080466312,0.015192803653918351,0.022286069369451073
-0.7291610925515714,-2.4682931373085086,-1.5614903053966591,-0.7379970124400765,0.9048875109891898,3.099901144096218,-23.411071255777657,233.20439053434404,1078.9515021414766,-1.5708429161400708,0.051157631472788234,0.003064553690503514,0.706830464100794,-0.7069188193035745,0.01700138557248907,0.019168485128255443
-0.7286985169362784,-2.487956460395055,-1.5544542174101221,-0.6697309221221891,0.49980868050976524,3.0986951632197455,-23.202450911237403,233.21015651226352,1078.9422712850162,-1.570836534648602,0.04947893020984379,-0.003996962335319243,0.7069097374145169,-0.7068682464474451,0.018904007176281563,0.016079298042259924
-0.7273219232917733,-2.4938340333135165,-1.5531469187998337,-0.6622716203729557,0.11777378335439713,3.093376422565437,-22.662174365125686,233.2062485557333,1078.9424565387537,-1.5708063272348471,0.049130346779188844,-0.010639137386843777,0.7069722973018718,-0.7067945819532666,0.02112849043243084,0.013607963156459055
-0.7271203392077701,-2.490375473636288,-1.5407965822524092,-0.6760294646211404,-0.0027891518332136735,3.095236412246269,-22.48018930744851,233.20405909323694,1078.9436268336387,-1.5707960940994317,0.04924772836301649,-0.012739311850318902,0.7069890569999104,-0.7067671033339299,0.021912221208640056,0.012906955064897557
-0.7271404529518122,-2.394334310607509,-1.5344590382656667,-0.8495478526090725,-0.024718248118984685,3.099413935806517,-20.658391418669808,233.1809372032043,1078.9847999968358,-1.5707962489203118,0.05391473060122133,-0.013122405639891591,0.7069597343745279,-0.7067095755895886,0.023696769595642347,0.014421263946400645
-0.7297396609264346,-2.2458149337322566,-1.5126039315089643,-1.0885158850427237,-0.028208531343276864,3.0999932879413086,-18.038010986169724,233.1486301457918,1079.0392236912583,-1.5707993854027362,0.060306328966088986,-0.013228866389901443,0.7069098155916792,-0.7066299627516882,0.025992734857711242,0.016642899275745145
-0.7301688642991662,-2.1550406076358475,-1.5035525501595883,-1.2068920564480001,-0.029854855529396863,3.0988482373494137,-16.453149668028104,233.12858774097316,1079.0688698735496,-1.570801388021538,0.06377873190548265,-0.013265214402943912,0.7068794720132521,-0.7065839820312493,0.027232366863837613,0.01785739561421339
-0.7302608033655881,-2.1017837579080445,-1.4786966926696894,-1.3163899078440253,-0.028787478428888406,3.0999660912585543,-15.62559091683094,233.1180716754874,1079.0829865087019,-1.5708024196829746,0.0662050307811415,-0.013248258001220443,0.7068567651729435,-0.7065510277900949,0.028083534300260855,0.01872094439948862
-0.7323869890842141,-2.0962702569558713,-1.4707796846436458,-1.3279405002193214,-0.028687640046111212,3.1000667814960443,-15.576783148245973,233.11813811386227,1079.0841054535465,-1.5708024787217247,0.06636643490332322,-0.013283628484568037,0.706855563192017,-0.7065482821639146,0.0281530489125991,0.018765489405888566
-0.7330362921811526,-2.099223859459473,-1.446097768235366,-1.3328507205541642,-0.030947760310848595,3.09777089667342,-15.820786070843473,233.12146829701337,1079.081642901199,-1.570802748514267,0.06592973267633505,-0.013334422214800443,0.7068600208945424,-0.7065537966393736,0.028016715337985394,0.018593197065701693
-0.7305626610796123,-2.0947174917945297,-1.4210878499362132,-1.3354553732606513,-0.027604816506974075,3.095855216096586,-15.974729951596613,233.12262268358586,1079.081689602936,-1.5708019038925394,0.06558390343176844,-0.013232852129366996,0.7068625847590947,-0.7065597477956369,0.027858667391245196,0.018506855860508247
