ShruthikaS1/Robot-Gello/csv/test2/output45.csv
shoulder_pan_angle,shoulder_lift_angle,elbow_angle,wrist1_angle,wrist2_angle,wrist3_angle,end_eff_x,end_eff_y,end_eff_z,end_eff_roll,end_eff_pitch,end_eff_yaw,end_eff_w,end_eff_xq,end_eff_yq,end_eff_zq
-1.4335120381636466,-1.668691703262642,-1.587971577774277,-1.5618962823835354,1.3289230372453484,1.8462505543940733,-6.830890912812439,233.1170571919782,1079.24577287752,-1.570195835675989,0.05806759111260165,-0.0017983199770949727,0.7070391204358399,-0.7065777739199908,0.021168606694304242,0.019885212249460573
-1.5600320419546834,-1.5616087853630092,-1.614414586147245,-1.5447892910758385,1.6141246394142852,1.544544385549392,-4.901772355833524,233.08031774034708,1079.2814510332591,-1.5700098281593218,0.05482960419111247,0.0009762507651883149,0.7071094455915721,-0.7065724385656238,0.019045491432617502,0.01972030097886977
-1.5664382793768574,-1.5534974690820704,-1.610928253897037,-1.5447335480269273,1.6396151438527302,1.5206462074341984,-4.820285378670435,233.0780901577076,1079.2842960628996,-1.5699951414548152,0.05449186546318186,0.0013096323971202029,0.7071146797022366,-0.7065735944848531,0.01880844371440741,0.01971871627159011
-1.5540437729694014,-1.5525082107757426,-1.5964559146694868,-1.5448213972912923,1.6424118533155438,1.6147957681378862,-4.983803114213324,233.07997099027716,1079.2846942979204,-1.5700004214321661,0.055901351007423085,0.0015757691065736701,0.7070960350903475,-0.7065646046402192,0.019212716143266802,0.0203107894361413
-1.5125330857947126,-1.5388784883452689,-1.5892370628128116,-1.564716755739982,1.642846279838202,2.1493238053924646,-4.962747832611333,233.07126260569038,1079.2874370675165,-1.5699865503132415,0.06568955725327867,0.002316165313009129,0.7069841416280639,-0.7064656351211065,0.02241185963788691,0.024029948542038545
-1.506269067895448,-1.5297893198736991,-1.6005376281546577,-1.5739477102485238,1.6415583850640452,2.7433314224080187,-4.7275490777045945,233.06392814356425,1079.2890401485183,-1.56997170996482,0.07657372635607655,0.0024125295857676905,0.7068466987035408,-0.706329332508273,0.026225443217682654,0.02790778920587363
-1.4710226168564038,-1.510672531432106,-1.6036040137177392,-1.5696180953284888,1.6401013592051708,2.949498014681656,-4.5438175950130795,233.05264839435677,1079.2925039830702,-1.5699632444446416,0.08048350716069871,0.0030059142436747875,0.7067850179458582,-0.7062819281786621,0.02739790440066732,0.02949798586269582
-1.1177757572406128,-1.501060532746066,-1.6348126663429916,-1.5718995461829468,1.6413650487628288,2.9788198130317256,-5.557112827338141,233.01188013122567,1079.2938296092345,-1.569940906610579,0.08174721427258975,0.009195521624750553,0.7066780572429892,-0.7063393894868394,0.025659016597568463,0.0321310618853335
-0.7572898769754409,-1.5346913494944856,-1.617879430764356,-1.5667059909109393,1.6428267890319972,2.9850172394225076,-7.718061810257298,232.98141912993108,1079.2880156578378,-1.5699681840150335,0.08088260565769707,0.015510563523060386,0.7065782429142613,-0.706436573601517,0.023122496055404763,0.034057367697920775
-0.6558211602631353,-1.6095025714922953,-1.622745755394861,-1.5243894535435463,1.6413935169254348,2.9875945131617443,-9.357005416587967,232.9814945434708,1079.2729680817208,-1.5700253095200418,0.07896908348717842,0.017251995970369475,0.7065610093483976,-0.7064978039172617,0.021829930703360256,0.0339977536632394
-0.6271630218844081,-1.7517569212515691,-1.6777408625887424,-1.3377308462647535,1.586549438313546,2.9893682717748096,-11.506985380055957,233.00172975913546,1079.2376184456684,-1.5701840270706386,0.07422183629339572,0.01678312452849797,0.7065912420348374,-0.7065989002031061,0.02031470583674244,0.03215779280662255
-0.6272630800834453,-1.8920590762919398,-1.716275048825429,-1.061270999039969,1.550639608815719,2.9896802172962746,-13.839207444226576,233.02899691703823,1079.1961906335832,-1.5703771749287532,0.0676287619699878,0.016141055379882956,0.7066347449763625,-0.7067243999235233,0.018207847389917355,0.02960462866432592
-0.6345831517210606,-2.0907156116854457,-1.7634462392183727,-0.7301044185521005,1.498393032528114,2.990951569438804,-17.068087975929714,233.0692724541998,1079.1265343058258,-1.5706121576400176,0.059230345508320466,0.015086582482659932,0.706683762771684,-0.7068694766185473,0.015608328802235259,0.02626751857098071
-0.6362198163947859,-2.2032250918990877,-1.7753149820834435,-0.6426126581256508,1.4371083950963834,3.0018741673335643,-18.805062397905044,233.09185118699415,1079.083542932154,-1.5707021986245346,0.056138675414699045,0.013983248066978624,0.7067054839215263,-0.7069164541678533,0.014904257264014273,0.02478606337034247
-0.6352853267697507,-2.2574363573843748,-1.766577495646929,-0.6311294825624499,1.4291958575841792,3.0547403320472553,-19.75727677374789,233.1024047431735,1079.0615614683284,-1.5707351702000365,0.05576269905884765,0.01385968649695859,0.7066999987299756,-0.7069299797297287,0.014814620848252472,0.02460980624671026
-0.6350573630209999,-2.29365326941111,-1.7613763590241922,-0.626657626974603,1.414689862778007,3.064151524112767,-20.364743229416916,233.1096749764678,1079.0464958666023,-1.57075559672577,0.055126284991007295,0.013609364751449115,0.7067036206304538,-0.7069400437723898,0.014677888554709076,0.024296639407021155
-0.6257538413125857,-2.378387046682975,-1.7283285489170033,-0.5743015789705572,0.8740702176276575,3.068734970245566,-21.19300196088878,233.1337682008776,1079.006547378824,-1.5708165243685033,0.05223747528085813,0.0043328704299098065,0.7068168003913572,-0.7069110908094983,0.0169350140805732,0.019998141742185744
-0.6272399849614926,-2.4010270530917186,-1.7154291318673676,-0.5670126039739304,0.41340783282629057,3.066729576846453,-20.871708431082656,233.13986407147598,1078.997104790973,-1.5708112800399794,0.05145487802298136,-0.0037328596328326863,0.7069002111283685,-0.7068428803260979,0.019509209606251465,0.016870826284232344
-0.6329326146953693,-2.4153693368981153,-1.6982731832019986,-0.5788300460475692,0.14640189073358692,3.0665015851928468,-20.74051711305169,233.14301084670433,1078.9907918664812,-1.5708025010375146,0.051107358233762855,-0.00849188589721452,0.7069440851248517,-0.7067950252557128,0.02106834982244485,0.015065769695636758
-0.6376474379036118,-2.342724642788273,-1.6392519207856548,-0.7536055285478989,0.11203915711332955,3.0665409304259525,-19.702192431335444,233.1335089867411,1079.015352530449,-1.5707946132752093,0.054396216747629185,-0.009173502661048652,0.706926631934544,-0.7067490186238083,0.022471519345199895,0.015987262251045572
-0.6381661537041554,-2.201312834792588,-1.5368907725636243,-1.0580402481735405,0.1083967588198031,3.0704766825853143,-17.780765259967833,233.11232110323397,1079.0589369964816,-1.5707833060222869,0.060459848758093356,-0.009245478106902951,0.7068795597456817,-0.7066727584291359,0.024639683505246476,0.018104875163025388
-0.6530756657982257,-2.130789672716081,-1.4608952302991813,-1.2386678468415875,0.10667616911844408,3.072302436490105,-16.927099005236656,233.10790641835536,1079.0762590000168,-1.570777807196229,0.06354874452319823,-0.009535385879820014,0.7068554721665122,-0.7066281806016251,0.025833568696521595,0.019094045571755404
-0.6608268946513809,-2.058509720502758,-1.442890338978889,-1.3424430246847827,0.10924432267449036,3.0728729790698726,-15.71780681445188,233.0966014693901,1079.0974818712443,-1.570772087138759,0.06631719355950337,-0.009625479059162537,0.7068312882167126,-0.7065885146190938,0.026843580645474308,0.02004053852608742
-0.7075078945372401,-2.016781532797457,-1.4232310139557602,-1.3609186191896756,0.10546304975207384,3.140259500626998,-14.990424235747556,233.10270516342615,1079.1092078250122,-1.5707716177254667,0.0682009448722476,-0.010506145993408185,0.7068213133539618,-0.7065505707743347,0.027820228707932722,0.020395019040949057
