ShruthikaS1/Robot-Gello/csv/test2/output34.csv
shoulder_pan_angle,shoulder_lift_angle,elbow_angle,wrist1_angle,wrist2_angle,wrist3_angle,end_eff_x,end_eff_y,end_eff_z,end_eff_roll,end_eff_pitch,end_eff_yaw,end_eff_w,end_eff_xq,end_eff_yq,end_eff_zq
-1.4717144018959891,-1.7174127710212612,-1.5238532710003256,-1.570638526096735,1.3174147239520106,1.7877377723796994,-7.9698523048814645,233.1552775205096,1079.233088215357,-1.5702429527723598,0.05523011424453838,-0.0026691285134885045,0.7070581467574907,-0.7066148888948488,0.020472754723079464,0.018575311842115846
-1.601565315399581,-1.725212121222226,-1.4854037915101794,-1.5848413695757508,1.4748219081970588,1.5283406505243151,-8.144993429145215,233.18574325074715,1079.2366182766132,-1.5701914239443142,0.05014204862587735,-0.002188860575215236,0.7071173011018173,-0.7066509050683503,0.01850478573315086,0.016946791836024815
-1.6095718951204745,-1.7258803326470014,-1.481259947666947,-1.585864634806288,1.4863876685425383,1.5094576957393755,-8.176978322886013,233.18817388416963,1079.2367852931368,-1.5701884102793944,0.04974625184207905,-0.002126845769552159,0.7071211865431547,-0.7066540548631621,0.01834296949813057,0.016828837073387212
-1.6118183679250375,-1.7259063139360953,-1.4795584809234568,-1.583391152572571,1.4916808454879762,1.7739533822772422,-8.196356264414996,233.1890576600566,1079.236924917417,-1.5701880125442202,0.05428922016022874,-0.002070871847325661,0.7070807349049042,-0.7066110067620658,0.01992927821365598,0.018453815836384255
-1.6135902419835022,-1.7103084969459057,-1.4903487184898783,-1.5830022984192926,1.4926215608193785,2.1915958160922147,-7.849382297627359,233.17969733981045,1079.2412780466361,-1.570175515082302,0.06203206170532457,-0.0020801843052470647,0.707008460403629,-0.7065240770669159,0.022669797399002226,0.021185979522339707
-1.61245535720214,-1.698877669430508,-1.4886832083684665,-1.5840999426495697,1.496432523836561,2.8307874579327907,-7.690185208714885,233.17475753652235,1079.2442502598883,-1.5701684882262756,0.0733775465255149,-0.0019864575897954526,0.7068781232805221,-0.7063829504961308,0.02664681440092545,0.02522683805138092
-1.604999550511059,-1.6945830900458614,-1.4890702034722454,-1.5790490181849086,1.494901315721688,3.0730498989048307,-7.654646793510431,233.1719783779099,1079.245244599642,-1.5701690988406012,0.07759939551994978,-0.0018804463814597085,0.7068216282960944,-0.7063268670680843,0.02810136414393238,0.026755484744114443
-1.4501575231794035,-1.6771155325603626,-1.5257467921138756,-1.5810283132342104,1.4930069006378894,3.1743744393675333,-7.683835563284064,233.13531327816486,1079.2502842172057,-1.570144160517583,0.08034706790380731,0.0007920980810238178,0.7067553062714476,-0.7063170222566888,0.02812886290336724,0.028669987780958254
-1.004269915276811,-1.627888898140831,-1.5912735709746206,-1.5823034421949331,1.4969255269962884,3.1889825852492693,-8.152439160831957,233.04469405519168,1079.2622981744519,-1.5700892624700447,0.08262637001312202,0.008647316061914809,0.7066203255945834,-0.7063733268507728,0.02616098425133388,0.03224967400420785
-0.7617312266103698,-1.6643682765053411,-1.593716434847224,-1.5703869322092594,1.4972738673692823,3.186830469184605,-9.722873408365619,233.01584497466314,1079.2543616149655,-1.5701101663340942,0.08178704748477086,0.012884749702021489,0.7065571353414991,-0.7064448324493501,0.024367300120691396,0.0334506784453224
-0.7208418009947511,-1.9133345841506002,-1.5935445360979286,-1.2833910541022737,1.4934061531265714,3.1366721448286503,-14.366543166208805,233.06535548773996,1079.1864960175906,-1.570356913563623,0.07155754834757774,0.013511523729299361,0.7066225070644947,-0.7066537590264247,0.020526093325855574,0.03006288170635649
-0.7208367771238904,-2.119259166920607,-1.5960069944484883,-1.0432907640801248,1.4915148573194348,3.094302687403603,-18.05424421535448,233.11183693110755,1079.112376855126,-1.570559610868777,0.06307907885139055,0.013464720124835426,0.7066726422241867,-0.7068055815659627,0.017542727797587927,0.027053637472756638
-0.7338002810064327,-2.242502081307881,-1.585609856435396,-0.8743545407017567,1.489989159776854,3.099235558102818,-20.353495364626255,233.14610903045582,1079.0578556498906,-1.570697471512507,0.057886014625111976,0.01320351762265122,0.7066950791483685,-0.7068953895258899,0.015797576195259053,0.02512787219158568
-0.744335483210515,-2.3353021823024642,-1.54806319818116,-0.8254346955815821,1.4862670342413768,3.177877396809552,-22.19593933646466,233.17450930253025,1079.011708264968,-1.570779008626262,0.05613084043814649,0.012950114201435188,0.7066911396105329,-0.7069358616029803,0.015265717563152533,0.02441881739356394
-0.7465424640964016,-2.393469838929094,-1.5261743770067273,-0.8137481528545186,1.4096916858305122,3.1960153754139418,-23.192441158619857,233.19182991059628,1078.9819626516041,-1.5708193532023642,0.054846697238319114,0.011572864321439722,0.7067087474809141,-0.7069494059769413,0.015298146297598075,0.02347872106110014
-0.7444448659765514,-2.4378290280774637,-1.5196884017773327,-0.8116791902374607,1.1525954225691124,3.1992493403728686,-23.522834271315595,233.20515606646447,1078.9611101913367,-1.5708337574507778,0.05397970791046895,0.007121516824263667,0.7067635911324873,-0.7069259440827792,0.016564952483584187,0.02159949493386783
-0.7453741801957767,-2.4817394811349933,-1.5182128293116646,-0.8117768578288755,0.7926161633410638,3.2033611644415947,-23.60807832744843,233.21731871113124,1078.9419259040126,-1.5708330167929365,0.05326091929344914,0.0008225264179621287,0.7068352918021407,-0.7068767131647757,0.01853729674645311,0.0191193953272619
-0.7469550864118459,-2.5048276136544265,-1.5139995824472958,-0.8212511867176011,0.3321398004579452,3.200222193967334,-23.19012466711417,233.22046220845903,1078.9331419209375,-1.570813507736813,0.052894789529508233,-0.007240826275117548,0.7069164910745979,-0.7067932399388699,0.021257808753779243,0.01613989437638067
-0.7482828629394492,-2.5018158083085718,-1.4882406511608826,-0.8298858218735894,0.06415473302631633,3.200189844245478,-22.876801208992994,233.2185891041603,1078.9326698119182,-1.5707999215450557,0.052647867779038265,-0.011940483295381336,0.7069590484195857,-0.7067393582021477,0.022831435624834518,0.014391281145170472
-0.7485316084376884,-2.424456060674495,-1.446445040483651,-0.9946086350244078,0.018649181069028905,3.2049160732548745,-21.631569374015132,233.20248975511322,1078.9624368761067,-1.5707962323568463,0.056226020739863554,-0.012738846216609933,0.7069396669009338,-0.7066864009650033,0.024377931551386213,0.01537382536661841
-0.7471270574680517,-2.268273873424277,-1.4134645024508312,-1.294730707756868,0.01115661751891245,3.205831077164541,-18.88711676697233,233.16609903064662,1079.0205594432198,-1.5707948287051854,0.06363038319029758,-0.012845017854365669,0.7068793556014568,-0.7065893765857935,0.027031562424482507,0.017953388355974903
-0.7457828164848953,-2.1416061419517165,-1.3717080783850748,-1.422767928647445,0.012663911775470335,3.20591690962221,-17.004777435209686,233.14108149332387,1079.0615175459516,-1.5707938025846797,0.06734853407245768,-0.012795183171320477,0.7068446394803265,-0.7065382453196588,0.02832752472016291,0.019285094808521162
-0.7487322218810788,-2.098504073825257,-1.3013361741224605,-1.5014349515535308,0.015547179606716028,3.201793307449314,-16.775528843223878,233.13911618866027,1079.069814491557,-1.5707929837455619,0.06817361359855949,-0.012796285781347927,0.7068369234923247,-0.7065261938164923,0.028619395684267444,0.019576292543617476
-0.8230360288515124,-2.096178540086393,-1.294099154172878,-1.5082885305698448,0.015839768918583026,3.2014552987200253,-16.48667558844296,233.16086930159986,1079.0699421971399,-1.5707929114328565,0.06820161012866673,-0.014088020692613399,0.7068491775856047,-0.7065071294847206,0.029085602560469687,0.01912965910592512
-1.0081716629406603,-2.0814527067222195,-1.2663745291458315,-1.5128928555681505,0.01587684305295239,3.2026986973410043,-15.72767842540547,233.2128270932247,1079.0728435765775,-1.5707929441580026,0.06807680044969658,-0.017318602207639845,0.7068802649916149,-0.7064611225879973,0.030182691578322922,0.01794375563193254
-1.0656192413244239,-2.0696341715233975,-1.2670651257145806,-1.515029624981753,0.015860630989300628,3.2016445787272647,-15.29513568166605,233.22478318185756,1079.0769203743603,-1.57079287663668,0.06831402179785952,-0.01832152999182966,0.7068871068476923,-0.7064422473974058,0.030620745202123503,0.017673121622059404
