ShruthikaS1/Robot-Gello/csv/test2/output27.csv
shoulder_pan_angle,shoulder_lift_angle,elbow_angle,wrist1_angle,wrist2_angle,wrist3_angle,end_eff_x,end_eff_y,end_eff_z,end_eff_roll,end_eff_pitch,end_eff_yaw,end_eff_w,end_eff_xq,end_eff_yq,end_eff_zq
-1.3566962882565345,-1.7519208673037006,-1.5032171250496027,-1.5149448614984407,1.152016047412375,1.9666819244853038,-8.976441427028723,233.15776080969937,1079.2175506158371,-1.5703513302022576,0.056420680404825285,-0.0035521590354649596,0.7070169848477469,-0.706631602389779,0.021204581103755716,0.01868495065736924
-1.6673808178916951,-1.5836096413141036,-1.5559157793680805,-1.5430681752374498,1.4194750350289758,1.5293261662946218,-4.983751276273526,233.11315161669955,1079.2680096803417,-1.570140301355092,0.053131924228376246,-0.004300593618727311,0.7071278361042037,-0.7065833438678247,0.020308332118281886,0.017256106795081227
-1.7081646349601518,-1.5622972176363001,-1.5570456333514762,-1.5455671182566184,1.4547333716065796,1.4777212508137765,-4.524180312784244,233.10634538863934,1079.2739568194202,-1.5701129637776607,0.05266600600381784,-0.004396407084416488,0.7071423160955677,-0.7065774215287824,0.020177701964185488,0.0170573302769902
-1.7141082546648057,-1.5802924868094541,-1.5361535153189094,-1.548240139582615,1.4619526869523414,1.835917015533983,-4.974997218411364,233.12070860780497,1079.2705875427143,-1.5701255064246786,0.058285760019653514,-0.004370655456292644,0.7070868807684765,-0.7065226878619543,0.022155156234848192,0.019052129372728734
-1.7174878949792802,-1.583200239265665,-1.5399424617527024,-1.5517480160518935,1.5169400053189896,2.5500382703564677,-5.06468474094685,233.1216175409233,1079.2725060948499,-1.5700976843896752,0.0708254453950063,-0.0034599519030040493,0.7069524969937122,-0.7063721716561274,0.026266132366647005,0.02380362146101804
-1.7176547367104513,-1.5847651677224361,-1.5501954193172185,-1.5607843070754188,1.5547758108767418,2.8781483927175646,-5.051069205360279,233.1194807005453,1079.2739754437446,-1.5700715278376023,0.07686081269717987,-0.002796741657650426,0.7068779889909971,-0.7062898766174177,0.028165238622101886,0.0261694134660421
-1.6955178175130055,-1.5809027692157176,-1.5567615340259517,-1.5707230155880327,1.5616945521206176,3.1254561418525744,-5.017741525878142,233.11353191969428,1079.2751379334225,-1.5700583166391022,0.08153240099183785,-0.0022854758517678233,0.7068124171190966,-0.7062251360624558,0.029635754695749795,0.027999754346053497
-1.5409178225459141,-1.5728186160846687,-1.573668765709871,-1.5767143474435028,1.5341308663576263,3.1675359752524908,-5.3139876909774895,233.09148795141678,1079.2755018166588,-1.5700567415348916,0.08280773968077437,-6.742517924423945e-05,0.7067629745269525,-0.7062384835374943,0.029303223482682494,0.029233940924868754
-1.105844266625232,-1.559662636338426,-1.6053650511594084,-1.7032536985444446,1.5328455986954168,3.1690180384865405,-6.3787725616613065,233.03086751468592,1079.2772929656826,-1.5699768922465758,0.08582389633369489,0.0075103628167095815,0.7066263774181891,-0.7062753061228234,0.027694453277862543,0.03297532343434176
-0.7853017449150677,-1.6834000086889778,-1.5341384153278765,-1.7107341153326647,1.5368315256234493,3.1746780975975564,-10.267435923307577,233.02678263633757,1079.2510121264338,-1.5700630049376916,0.08265160182132854,0.01316725487835038,0.7065544850805707,-0.7064210601521392,0.02457389973037616,0.033855115390421374
-0.7296052163113753,-1.8100867271987018,-1.4744339176445362,-1.5708361242616211,1.5353933584535076,3.1776892555679814,-13.274354186047304,233.05216628536064,1079.21556271942,-1.570217019048632,0.07701140524253686,0.014102001515678607,0.7065778239710435,-0.7065523715533404,0.022247492088901408,0.0321958696178538
-0.7223955225302297,-1.9631466744060482,-1.4782803075006625,-1.3578348784665561,1.5268184109449738,3.175761993502173,-16.075142020749976,233.085837359669,1079.1653710807043,-1.570389361345131,0.07065826343589272,0.014065468009044096,0.7066162265080679,-0.7066799452166931,0.020011997673441966,0.029941332855253397
-0.7305177359478919,-2.187331259032899,-1.4828076200662539,-1.0425645643852275,1.513914517322706,3.1787061502099765,-20.115711106055542,233.14065013957273,1079.0744767113504,-1.5706401592266626,0.06137675529230088,0.013681972564348718,0.7066640719610983,-0.7068505487326325,0.016863125492053273,0.026529722093823864
-0.7209344277934473,-2.3367064179051713,-1.4577600246309956,-0.9891184665333939,1.5007968775291949,3.2593742524417735,-22.82923209275918,233.17153668712473,1079.0052880221929,-1.5707458781296166,0.05880901799071653,0.013614084184632901,0.706661057133426,-0.7069084235888168,0.015978107934280335,0.025599434702416816
-0.7138815364272401,-2.4252866972621523,-1.442718437102414,-0.9031532655526001,1.3294001507939908,3.280905030520933,-24.255486635503928,233.193497105564,1078.958338690315,-1.5708285339377361,0.055876915142462104,0.010741005448983165,0.7067031704835115,-0.706938100174045,0.015956220127120037,0.02354889360712342
-0.7119831846241407,-2.4785750283973553,-1.4226431430639168,-0.8965264166841392,1.1245681891186297,3.285250088284221,-24.94328355818518,233.20876982585628,1078.9299696056366,-1.5708510110057607,0.05455681630855463,0.00719790891401643,0.706750397458788,-0.7069278715282632,0.016741740676420338,0.021830581015805862
-0.7146370667747091,-2.524408443269576,-1.3963136474889395,-0.9112941708324326,0.5564268602796337,3.284205276729169,-24.878191762047937,233.22373624073427,1078.9071677397367,-1.5708331259768016,0.053536489059775066,-0.0027633276906185895,0.7068659304316967,-0.7068396440122463,0.019902032103302093,0.017949461432921164
-0.718813353727002,-2.5227108280182446,-1.3909099731698589,-0.9159904815832349,-0.012666398209761898,3.2692683193100036,-23.883010802941634,233.2179710979086,1078.910971298779,-1.570795492929068,0.053292894821687524,-0.01276668409668409,0.706961914106258,-0.7067208064175636,0.02335134761692754,0.014327188984511742
-0.7267903305326012,-2.43626256996109,-1.3837384096956975,-0.980667967282756,-0.10910150871205074,3.271445145276025,-22.249334318632698,233.20080357786418,1078.9498398306696,-1.5707939349839943,0.05584336420146499,-0.014588929790536092,0.7069572009928732,-0.7066675122595643,0.024896447048672474,0.014584581089412353
-0.7295033763621209,-2.26045028324641,-1.3761773453202901,-1.2503800402454956,-0.1292726881076742,3.270719148003428,-18.98684037937112,233.16038342600305,1079.019110270157,-1.5708107726024283,0.0634745761210695,-0.0149893401284006,0.7068939029817085,-0.7065677863473043,0.027733944081256276,0.01714064086477156
-0.7273946973179778,-2.119143713569723,-1.3404308095158686,-1.4752052725138443,-0.1327626955310593,3.271925519126396,-16.644782786788923,233.12982663604652,1079.0629458610565,-1.570824561197946,0.06926192557510978,-0.015014361396446059,0.706836714482719,-0.7064890751188591,0.02978707926493814,0.019177479131480726
-0.7340008834888416,-2.0942117157830054,-1.3188308310518868,-1.5763350572608466,-0.132940697345376,3.271947897545306,-16.228255227812507,233.12675156260275,1079.067253138156,-1.570828843312207,0.0710855135723073,-0.015133067807182127,0.7068185982013488,-0.7064613271782729,0.03047310945323274,0.01978009197261283
-0.7319065350920552,-2.0943043746767738,-1.3136751217143772,-1.587819574592636,-0.1329603107951589,3.271955736948161,-16.26250008663361,233.12648674406466,1079.066562293475,-1.570829101555071,0.07119449142544126,-0.015096875177904128,0.7068170694314337,-0.70646030894457,0.0304988155929569,0.019831401708632956
